public/luts/cool_cinema.cube
TITLE "OXXOVO cool_cinema"
LUT_3D_SIZE 17
DOMAIN_MIN 0.0 0.0 0.0
DOMAIN_MAX 1.0 1.0 1.0
0.000000 0.000000 0.010000
0.058750 0.000000 0.010000
0.117500 0.000000 0.010000
0.176250 0.000000 0.010000
0.235000 0.000000 0.010000
0.293750 0.000000 0.010000
0.352500 0.000000 0.010000
0.411250 0.000000 0.010000
0.470000 0.000000 0.010000
0.528750 0.000000 0.010000
0.587500 0.000000 0.010000
0.646250 0.000000 0.010000
0.705000 0.000000 0.010000
0.763750 0.000000 0.010000
0.822500 0.000000 0.010000
0.881250 0.000000 0.010000
0.940000 0.000000 0.010000
0.000000 0.061875 0.010000
0.058750 0.061875 0.010000
0.117500 0.061875 0.010000
0.176250 0.061875 0.010000
0.235000 0.061875 0.010000
0.293750 0.061875 0.010000
0.352500 0.061875 0.010000
0.411250 0.061875 0.010000
0.470000 0.061875 0.010000
0.528750 0.061875 0.010000
0.587500 0.061875 0.010000
0.646250 0.061875 0.010000
0.705000 0.061875 0.010000
0.763750 0.061875 0.010000
0.822500 0.061875 0.010000
0.881250 0.061875 0.010000
0.940000 0.061875 0.010000
0.000000 0.123750 0.010000
0.058750 0.123750 0.010000
0.117500 0.123750 0.010000
0.176250 0.123750 0.010000
0.235000 0.123750 0.010000
0.293750 0.123750 0.010000
0.352500 0.123750 0.010000
0.411250 0.123750 0.010000
0.470000 0.123750 0.010000
0.528750 0.123750 0.010000
0.587500 0.123750 0.010000
0.646250 0.123750 0.010000
0.705000 0.123750 0.010000
0.763750 0.123750 0.010000
0.822500 0.123750 0.010000
0.881250 0.123750 0.010000
0.940000 0.123750 0.010000
0.000000 0.185625 0.010000
0.058750 0.185625 0.010000
0.117500 0.185625 0.010000
0.176250 0.185625 0.010000
0.235000 0.185625 0.010000
0.293750 0.185625 0.010000
0.352500 0.185625 0.010000
0.411250 0.185625 0.010000
0.470000 0.185625 0.010000
0.528750 0.185625 0.010000
0.587500 0.185625 0.010000
0.646250 0.185625 0.010000
0.705000 0.185625 0.010000
0.763750 0.185625 0.010000
0.822500 0.185625 0.010000
0.881250 0.185625 0.010000
0.940000 0.185625 0.010000
0.000000 0.247500 0.010000
0.058750 0.247500 0.010000
0.117500 0.247500 0.010000
0.176250 0.247500 0.010000
0.235000 0.247500 0.010000
0.293750 0.247500 0.010000
0.352500 0.247500 0.010000
0.411250 0.247500 0.010000
0.470000 0.247500 0.010000
0.528750 0.247500 0.010000
0.587500 0.247500 0.010000
0.646250 0.247500 0.010000
0.705000 0.247500 0.010000
0.763750 0.247500 0.010000
0.822500 0.247500 0.010000
0.881250 0.247500 0.010000
0.940000 0.247500 0.010000
0.000000 0.309375 0.010000
0.058750 0.309375 0.010000
0.117500 0.309375 0.010000
0.176250 0.309375 0.010000
0.235000 0.309375 0.010000
0.293750 0.309375 0.010000
0.352500 0.309375 0.010000
0.411250 0.309375 0.010000
0.470000 0.309375 0.010000
0.528750 0.309375 0.010000
0.587500 0.309375 0.010000
0.646250 0.309375 0.010000
0.705000 0.309375 0.010000
0.763750 0.309375 0.010000
0.822500 0.309375 0.010000
0.881250 0.309375 0.010000
0.940000 0.309375 0.010000
0.000000 0.371250 0.010000
0.058750 0.371250 0.010000
0.117500 0.371250 0.010000
0.176250 0.371250 0.010000
0.235000 0.371250 0.010000
0.293750 0.371250 0.010000
0.352500 0.371250 0.010000
0.411250 0.371250 0.010000
0.470000 0.371250 0.010000
0.528750 0.371250 0.010000
0.587500 0.371250 0.010000
0.646250 0.371250 0.010000
0.705000 0.371250 0.010000
0.763750 0.371250 0.010000
0.822500 0.371250 0.010000
0.881250 0.371250 0.010000
0.940000 0.371250 0.010000
0.000000 0.433125 0.010000
0.058750 0.433125 0.010000
0.117500 0.433125 0.010000
0.176250 0.433125 0.010000
0.235000 0.433125 0.010000
0.293750 0.433125 0.010000
0.352500 0.433125 0.010000
0.411250 0.433125 0.010000
0.470000 0.433125 0.010000
0.528750 0.433125 0.010000
0.587500 0.433125 0.010000
0.646250 0.433125 0.010000
0.705000 0.433125 0.010000
0.763750 0.433125 0.010000
0.822500 0.433125 0.010000
0.881250 0.433125 0.010000
0.940000 0.433125 0.010000
0.000000 0.495000 0.010000
0.058750 0.495000 0.010000
0.117500 0.495000 0.010000
0.176250 0.495000 0.010000
0.235000 0.495000 0.010000
0.293750 0.495000 0.010000
0.352500 0.495000 0.010000
0.411250 0.495000 0.010000
0.470000 0.495000 0.010000
0.528750 0.495000 0.010000
0.587500 0.495000 0.010000
0.646250 0.495000 0.010000
0.705000 0.495000 0.010000
0.763750 0.495000 0.010000
0.822500 0.495000 0.010000
0.881250 0.495000 0.010000
0.940000 0.495000 0.010000
0.000000 0.556875 0.010000
0.058750 0.556875 0.010000
0.117500 0.556875 0.010000
0.176250 0.556875 0.010000
0.235000 0.556875 0.010000
0.293750 0.556875 0.010000
0.352500 0.556875 0.010000
0.411250 0.556875 0.010000
0.470000 0.556875 0.010000
0.528750 0.556875 0.010000
0.587500 0.556875 0.010000
0.646250 0.556875 0.010000
0.705000 0.556875 0.010000
0.763750 0.556875 0.010000
0.822500 0.556875 0.010000
0.881250 0.556875 0.010000
0.940000 0.556875 0.010000
0.000000 0.618750 0.010000
0.058750 0.618750 0.010000
0.117500 0.618750 0.010000
0.176250 0.618750 0.010000
0.235000 0.618750 0.010000
0.293750 0.618750 0.010000
0.352500 0.618750 0.010000
0.411250 0.618750 0.010000
0.470000 0.618750 0.010000
0.528750 0.618750 0.010000
0.587500 0.618750 0.010000
0.646250 0.618750 0.010000
0.705000 0.618750 0.010000
0.763750 0.618750 0.010000
0.822500 0.618750 0.010000
0.881250 0.618750 0.010000
0.940000 0.618750 0.010000
0.000000 0.680625 0.010000
0.058750 0.680625 0.010000
0.117500 0.680625 0.010000
0.176250 0.680625 0.010000
0.235000 0.680625 0.010000
0.293750 0.680625 0.010000
0.352500 0.680625 0.010000
0.411250 0.680625 0.010000
0.470000 0.680625 0.010000
0.528750 0.680625 0.010000
0.587500 0.680625 0.010000
0.646250 0.680625 0.010000
0.705000 0.680625 0.010000
0.763750 0.680625 0.010000
0.822500 0.680625 0.010000
0.881250 0.680625 0.010000
0.940000 0.680625 0.010000
0.000000 0.742500 0.010000
0.058750 0.742500 0.010000
0.117500 0.742500 0.010000
0.176250 0.742500 0.010000
0.235000 0.742500 0.010000
0.293750 0.742500 0.010000
0.352500 0.742500 0.010000
0.411250 0.742500 0.010000
0.470000 0.742500 0.010000
0.528750 0.742500 0.010000
0.587500 0.742500 0.010000
0.646250 0.742500 0.010000
0.705000 0.742500 0.010000
0.763750 0.742500 0.010000
0.822500 0.742500 0.010000
0.881250 0.742500 0.010000
0.940000 0.742500 0.010000
0.000000 0.804375 0.010000
0.058750 0.804375 0.010000
0.117500 0.804375 0.010000
0.176250 0.804375 0.010000
0.235000 0.804375 0.010000
0.293750 0.804375 0.010000
0.352500 0.804375 0.010000
0.411250 0.804375 0.010000
0.470000 0.804375 0.010000
0.528750 0.804375 0.010000
0.587500 0.804375 0.010000
0.646250 0.804375 0.010000
0.705000 0.804375 0.010000
0.763750 0.804375 0.010000
0.822500 0.804375 0.010000
0.881250 0.804375 0.010000
0.940000 0.804375 0.010000
0.000000 0.866250 0.010000
0.058750 0.866250 0.010000
0.117500 0.866250 0.010000
0.176250 0.866250 0.010000
0.235000 0.866250 0.010000
0.293750 0.866250 0.010000
0.352500 0.866250 0.010000
0.411250 0.866250 0.010000
0.470000 0.866250 0.010000
0.528750 0.866250 0.010000
0.587500 0.866250 0.010000
0.646250 0.866250 0.010000
0.705000 0.866250 0.010000
0.763750 0.866250 0.010000
0.822500 0.866250 0.010000
0.881250 0.866250 0.010000
0.940000 0.866250 0.010000
0.000000 0.928125 0.010000
0.058750 0.928125 0.010000
0.117500 0.928125 0.010000
0.176250 0.928125 0.010000
0.235000 0.928125 0.010000
0.293750 0.928125 0.010000
0.352500 0.928125 0.010000
0.411250 0.928125 0.010000
0.470000 0.928125 0.010000
0.528750 0.928125 0.010000
0.587500 0.928125 0.010000
0.646250 0.928125 0.010000
0.705000 0.928125 0.010000
0.763750 0.928125 0.010000
0.822500 0.928125 0.010000
0.881250 0.928125 0.010000
0.940000 0.928125 0.010000
0.000000 0.990000 0.010000
0.058750 0.990000 0.010000
0.117500 0.990000 0.010000
0.176250 0.990000 0.010000
0.235000 0.990000 0.010000
0.293750 0.990000 0.010000
0.352500 0.990000 0.010000
0.411250 0.990000 0.010000
0.470000 0.990000 0.010000
0.528750 0.990000 0.010000
0.587500 0.990000 0.010000
0.646250 0.990000 0.010000
0.705000 0.990000 0.010000
0.763750 0.990000 0.010000
0.822500 0.990000 0.010000
0.881250 0.990000 0.010000
0.940000 0.990000 0.010000
0.000000 0.000000 0.078125
0.058750 0.000000 0.078125
0.117500 0.000000 0.078125
0.176250 0.000000 0.078125
0.235000 0.000000 0.078125
0.293750 0.000000 0.078125
0.352500 0.000000 0.078125
0.411250 0.000000 0.078125
0.470000 0.000000 0.078125
0.528750 0.000000 0.078125
0.587500 0.000000 0.078125
0.646250 0.000000 0.078125
0.705000 0.000000 0.078125
0.763750 0.000000 0.078125
0.822500 0.000000 0.078125
0.881250 0.000000 0.078125
0.940000 0.000000 0.078125
0.000000 0.061875 0.078125
0.058750 0.061875 0.078125
0.117500 0.061875 0.078125
0.176250 0.061875 0.078125
0.235000 0.061875 0.078125
0.293750 0.061875 0.078125
0.352500 0.061875 0.078125
0.411250 0.061875 0.078125
0.470000 0.061875 0.078125
0.528750 0.061875 0.078125
0.587500 0.061875 0.078125
0.646250 0.061875 0.078125
0.705000 0.061875 0.078125
0.763750 0.061875 0.078125
0.822500 0.061875 0.078125
0.881250 0.061875 0.078125
0.940000 0.061875 0.078125
0.000000 0.123750 0.078125
0.058750 0.123750 0.078125
0.117500 0.123750 0.078125
0.176250 0.123750 0.078125
0.235000 0.123750 0.078125
0.293750 0.123750 0.078125
0.352500 0.123750 0.078125
0.411250 0.123750 0.078125
0.470000 0.123750 0.078125
0.528750 0.123750 0.078125
0.587500 0.123750 0.078125
0.646250 0.123750 0.078125
0.705000 0.123750 0.078125
0.763750 0.123750 0.078125
0.822500 0.123750 0.078125
0.881250 0.123750 0.078125
0.940000 0.123750 0.078125
0.000000 0.185625 0.078125
0.058750 0.185625 0.078125
0.117500 0.185625 0.078125
0.176250 0.185625 0.078125
0.235000 0.185625 0.078125
0.293750 0.185625 0.078125
0.352500 0.185625 0.078125
0.411250 0.185625 0.078125
0.470000 0.185625 0.078125
0.528750 0.185625 0.078125
0.587500 0.185625 0.078125
0.646250 0.185625 0.078125
0.705000 0.185625 0.078125
0.763750 0.185625 0.078125
0.822500 0.185625 0.078125
0.881250 0.185625 0.078125
0.940000 0.185625 0.078125
0.000000 0.247500 0.078125
0.058750 0.247500 0.078125
0.117500 0.247500 0.078125
0.176250 0.247500 0.078125
0.235000 0.247500 0.078125
0.293750 0.247500 0.078125
0.352500 0.247500 0.078125
0.411250 0.247500 0.078125
0.470000 0.247500 0.078125
0.528750 0.247500 0.078125
0.587500 0.247500 0.078125
0.646250 0.247500 0.078125
0.705000 0.247500 0.078125
0.763750 0.247500 0.078125
0.822500 0.247500 0.078125
0.881250 0.247500 0.078125
0.940000 0.247500 0.078125
0.000000 0.309375 0.078125
0.058750 0.309375 0.078125
0.117500 0.309375 0.078125
0.176250 0.309375 0.078125
0.235000 0.309375 0.078125
0.293750 0.309375 0.078125
0.352500 0.309375 0.078125
0.411250 0.309375 0.078125
0.470000 0.309375 0.078125
0.528750 0.309375 0.078125
0.587500 0.309375 0.078125
0.646250 0.309375 0.078125
0.705000 0.309375 0.078125
0.763750 0.309375 0.078125
0.822500 0.309375 0.078125
0.881250 0.309375 0.078125
0.940000 0.309375 0.078125
0.000000 0.371250 0.078125
0.058750 0.371250 0.078125
0.117500 0.371250 0.078125
0.176250 0.371250 0.078125
0.235000 0.371250 0.078125
0.293750 0.371250 0.078125
0.352500 0.371250 0.078125
0.411250 0.371250 0.078125
0.470000 0.371250 0.078125
0.528750 0.371250 0.078125
0.587500 0.371250 0.078125
0.646250 0.371250 0.078125
0.705000 0.371250 0.078125
0.763750 0.371250 0.078125
0.822500 0.371250 0.078125
0.881250 0.371250 0.078125
0.940000 0.371250 0.078125
0.000000 0.433125 0.078125
0.058750 0.433125 0.078125
0.117500 0.433125 0.078125
0.176250 0.433125 0.078125
0.235000 0.433125 0.078125
0.293750 0.433125 0.078125
0.352500 0.433125 0.078125
0.411250 0.433125 0.078125
0.470000 0.433125 0.078125
0.528750 0.433125 0.078125
0.587500 0.433125 0.078125
0.646250 0.433125 0.078125
0.705000 0.433125 0.078125
0.763750 0.433125 0.078125
0.822500 0.433125 0.078125
0.881250 0.433125 0.078125
0.940000 0.433125 0.078125
0.000000 0.495000 0.078125
0.058750 0.495000 0.078125
0.117500 0.495000 0.078125
0.176250 0.495000 0.078125
0.235000 0.495000 0.078125
0.293750 0.495000 0.078125
0.352500 0.495000 0.078125
0.411250 0.495000 0.078125
0.470000 0.495000 0.078125
0.528750 0.495000 0.078125
0.587500 0.495000 0.078125
0.646250 0.495000 0.078125
0.705000 0.495000 0.078125
0.763750 0.495000 0.078125
0.822500 0.495000 0.078125
0.881250 0.495000 0.078125
0.940000 0.495000 0.078125
0.000000 0.556875 0.078125
0.058750 0.556875 0.078125
0.117500 0.556875 0.078125
0.176250 0.556875 0.078125
0.235000 0.556875 0.078125
0.293750 0.556875 0.078125
0.352500 0.556875 0.078125
0.411250 0.556875 0.078125
0.470000 0.556875 0.078125
0.528750 0.556875 0.078125
0.587500 0.556875 0.078125
0.646250 0.556875 0.078125
0.705000 0.556875 0.078125
0.763750 0.556875 0.078125
0.822500 0.556875 0.078125
0.881250 0.556875 0.078125
0.940000 0.556875 0.078125
0.000000 0.618750 0.078125
0.058750 0.618750 0.078125
0.117500 0.618750 0.078125
0.176250 0.618750 0.078125
0.235000 0.618750 0.078125
0.293750 0.618750 0.078125
0.352500 0.618750 0.078125
0.411250 0.618750 0.078125
0.470000 0.618750 0.078125
0.528750 0.618750 0.078125
0.587500 0.618750 0.078125
0.646250 0.618750 0.078125
0.705000 0.618750 0.078125
0.763750 0.618750 0.078125
0.822500 0.618750 0.078125
0.881250 0.618750 0.078125
0.940000 0.618750 0.078125
0.000000 0.680625 0.078125
0.058750 0.680625 0.078125
0.117500 0.680625 0.078125
0.176250 0.680625 0.078125
0.235000 0.680625 0.078125
0.293750 0.680625 0.078125
0.352500 0.680625 0.078125
0.411250 0.680625 0.078125
0.470000 0.680625 0.078125
0.528750 0.680625 0.078125
0.587500 0.680625 0.078125
0.646250 0.680625 0.078125
0.705000 0.680625 0.078125
0.763750 0.680625 0.078125
0.822500 0.680625 0.078125
0.881250 0.680625 0.078125
0.940000 0.680625 0.078125
0.000000 0.742500 0.078125
0.058750 0.742500 0.078125
0.117500 0.742500 0.078125
0.176250 0.742500 0.078125
0.235000 0.742500 0.078125
0.293750 0.742500 0.078125
0.352500 0.742500 0.078125
0.411250 0.742500 0.078125
0.470000 0.742500 0.078125
0.528750 0.742500 0.078125
0.587500 0.742500 0.078125
0.646250 0.742500 0.078125
0.705000 0.742500 0.078125
0.763750 0.742500 0.078125
0.822500 0.742500 0.078125
0.881250 0.742500 0.078125
0.940000 0.742500 0.078125
0.000000 0.804375 0.078125
0.058750 0.804375 0.078125
0.117500 0.804375 0.078125
0.176250 0.804375 0.078125
0.235000 0.804375 0.078125
0.293750 0.804375 0.078125
0.352500 0.804375 0.078125
0.411250 0.804375 0.078125
0.470000 0.804375 0.078125
0.528750 0.804375 0.078125
0.587500 0.804375 0.078125
0.646250 0.804375 0.078125
0.705000 0.804375 0.078125
0.763750 0.804375 0.078125
0.822500 0.804375 0.078125
0.881250 0.804375 0.078125
0.940000 0.804375 0.078125
0.000000 0.866250 0.078125
0.058750 0.866250 0.078125
0.117500 0.866250 0.078125
0.176250 0.866250 0.078125
0.235000 0.866250 0.078125
0.293750 0.866250 0.078125
0.352500 0.866250 0.078125
0.411250 0.866250 0.078125
0.470000 0.866250 0.078125
0.528750 0.866250 0.078125
0.587500 0.866250 0.078125
0.646250 0.866250 0.078125
0.705000 0.866250 0.078125
0.763750 0.866250 0.078125
0.822500 0.866250 0.078125
0.881250 0.866250 0.078125
0.940000 0.866250 0.078125
0.000000 0.928125 0.078125
0.058750 0.928125 0.078125
0.117500 0.928125 0.078125
0.176250 0.928125 0.078125
0.235000 0.928125 0.078125
0.293750 0.928125 0.078125
0.352500 0.928125 0.078125
0.411250 0.928125 0.078125
0.470000 0.928125 0.078125
0.528750 0.928125 0.078125
0.587500 0.928125 0.078125
0.646250 0.928125 0.078125
0.705000 0.928125 0.078125
0.763750 0.928125 0.078125
0.822500 0.928125 0.078125
0.881250 0.928125 0.078125
0.940000 0.928125 0.078125
0.000000 0.990000 0.078125
0.058750 0.990000 0.078125
0.117500 0.990000 0.078125
0.176250 0.990000 0.078125
0.235000 0.990000 0.078125
0.293750 0.990000 0.078125
0.352500 0.990000 0.078125
0.411250 0.990000 0.078125
0.470000 0.990000 0.078125
0.528750 0.990000 0.078125
0.587500 0.990000 0.078125
0.646250 0.990000 0.078125
0.705000 0.990000 0.078125
0.763750 0.990000 0.078125
0.822500 0.990000 0.078125
0.881250 0.990000 0.078125
0.940000 0.990000 0.078125
0.000000 0.000000 0.146250
0.058750 0.000000 0.146250
0.117500 0.000000 0.146250
0.176250 0.000000 0.146250
0.235000 0.000000 0.146250
0.293750 0.000000 0.146250
0.352500 0.000000 0.146250
0.411250 0.000000 0.146250
0.470000 0.000000 0.146250
0.528750 0.000000 0.146250
0.587500 0.000000 0.146250
0.646250 0.000000 0.146250
0.705000 0.000000 0.146250
0.763750 0.000000 0.146250
0.822500 0.000000 0.146250
0.881250 0.000000 0.146250
0.940000 0.000000 0.146250
0.000000 0.061875 0.146250
0.058750 0.061875 0.146250
0.117500 0.061875 0.146250
0.176250 0.061875 0.146250
0.235000 0.061875 0.146250
0.293750 0.061875 0.146250
0.352500 0.061875 0.146250
0.411250 0.061875 0.146250
0.470000 0.061875 0.146250
0.528750 0.061875 0.146250
0.587500 0.061875 0.146250
0.646250 0.061875 0.146250
0.705000 0.061875 0.146250
0.763750 0.061875 0.146250
0.822500 0.061875 0.146250
0.881250 0.061875 0.146250
0.940000 0.061875 0.146250
0.000000 0.123750 0.146250
0.058750 0.123750 0.146250
0.117500 0.123750 0.146250
0.176250 0.123750 0.146250
0.235000 0.123750 0.146250
0.293750 0.123750 0.146250
0.352500 0.123750 0.146250
0.411250 0.123750 0.146250
0.470000 0.123750 0.146250
0.528750 0.123750 0.146250
0.587500 0.123750 0.146250
0.646250 0.123750 0.146250
0.705000 0.123750 0.146250
0.763750 0.123750 0.146250
0.822500 0.123750 0.146250
0.881250 0.123750 0.146250
0.940000 0.123750 0.146250
0.000000 0.185625 0.146250
0.058750 0.185625 0.146250
0.117500 0.185625 0.146250
0.176250 0.185625 0.146250
0.235000 0.185625 0.146250
0.293750 0.185625 0.146250
0.352500 0.185625 0.146250
0.411250 0.185625 0.146250
0.470000 0.185625 0.146250
0.528750 0.185625 0.146250
0.587500 0.185625 0.146250
0.646250 0.185625 0.146250
0.705000 0.185625 0.146250
0.763750 0.185625 0.146250
0.822500 0.185625 0.146250
0.881250 0.185625 0.146250
0.940000 0.185625 0.146250
0.000000 0.247500 0.146250
0.058750 0.247500 0.146250
0.117500 0.247500 0.146250
0.176250 0.247500 0.146250
0.235000 0.247500 0.146250
0.293750 0.247500 0.146250
0.352500 0.247500 0.146250
0.411250 0.247500 0.146250
0.470000 0.247500 0.146250
0.528750 0.247500 0.146250
0.587500 0.247500 0.146250
0.646250 0.247500 0.146250
0.705000 0.247500 0.146250
0.763750 0.247500 0.146250
0.822500 0.247500 0.146250
0.881250 0.247500 0.146250
0.940000 0.247500 0.146250
0.000000 0.309375 0.146250
0.058750 0.309375 0.146250
0.117500 0.309375 0.146250
0.176250 0.309375 0.146250
0.235000 0.309375 0.146250
0.293750 0.309375 0.146250
0.352500 0.309375 0.146250
0.411250 0.309375 0.146250
0.470000 0.309375 0.146250
0.528750 0.309375 0.146250
0.587500 0.309375 0.146250
0.646250 0.309375 0.146250
0.705000 0.309375 0.146250
0.763750 0.309375 0.146250
0.822500 0.309375 0.146250
0.881250 0.309375 0.146250
0.940000 0.309375 0.146250
0.000000 0.371250 0.146250
0.058750 0.371250 0.146250
0.117500 0.371250 0.146250
0.176250 0.371250 0.146250
0.235000 0.371250 0.146250
0.293750 0.371250 0.146250
0.352500 0.371250 0.146250
0.411250 0.371250 0.146250
0.470000 0.371250 0.146250
0.528750 0.371250 0.146250
0.587500 0.371250 0.146250
0.646250 0.371250 0.146250
0.705000 0.371250 0.146250
0.763750 0.371250 0.146250
0.822500 0.371250 0.146250
0.881250 0.371250 0.146250
0.940000 0.371250 0.146250
0.000000 0.433125 0.146250
0.058750 0.433125 0.146250
0.117500 0.433125 0.146250
0.176250 0.433125 0.146250
0.235000 0.433125 0.146250
0.293750 0.433125 0.146250
0.352500 0.433125 0.146250
0.411250 0.433125 0.146250
0.470000 0.433125 0.146250
0.528750 0.433125 0.146250
0.587500 0.433125 0.146250
0.646250 0.433125 0.146250
0.705000 0.433125 0.146250
0.763750 0.433125 0.146250
0.822500 0.433125 0.146250
0.881250 0.433125 0.146250
0.940000 0.433125 0.146250
0.000000 0.495000 0.146250
0.058750 0.495000 0.146250
0.117500 0.495000 0.146250
0.176250 0.495000 0.146250
0.235000 0.495000 0.146250
0.293750 0.495000 0.146250
0.352500 0.495000 0.146250
0.411250 0.495000 0.146250
0.470000 0.495000 0.146250
0.528750 0.495000 0.146250
0.587500 0.495000 0.146250
0.646250 0.495000 0.146250
0.705000 0.495000 0.146250
0.763750 0.495000 0.146250
0.822500 0.495000 0.146250
0.881250 0.495000 0.146250
0.940000 0.495000 0.146250
0.000000 0.556875 0.146250
0.058750 0.556875 0.146250
0.117500 0.556875 0.146250
0.176250 0.556875 0.146250
0.235000 0.556875 0.146250
0.293750 0.556875 0.146250
0.352500 0.556875 0.146250
0.411250 0.556875 0.146250
0.470000 0.556875 0.146250
0.528750 0.556875 0.146250
0.587500 0.556875 0.146250
0.646250 0.556875 0.146250
0.705000 0.556875 0.146250
0.763750 0.556875 0.146250
0.822500 0.556875 0.146250
0.881250 0.556875 0.146250
0.940000 0.556875 0.146250
0.000000 0.618750 0.146250
0.058750 0.618750 0.146250
0.117500 0.618750 0.146250
0.176250 0.618750 0.146250
0.235000 0.618750 0.146250
0.293750 0.618750 0.146250
0.352500 0.618750 0.146250
0.411250 0.618750 0.146250
0.470000 0.618750 0.146250
0.528750 0.618750 0.146250
0.587500 0.618750 0.146250
0.646250 0.618750 0.146250
0.705000 0.618750 0.146250
0.763750 0.618750 0.146250
0.822500 0.618750 0.146250
0.881250 0.618750 0.146250
0.940000 0.618750 0.146250
0.000000 0.680625 0.146250
0.058750 0.680625 0.146250
0.117500 0.680625 0.146250
0.176250 0.680625 0.146250
0.235000 0.680625 0.146250
0.293750 0.680625 0.146250
0.352500 0.680625 0.146250
0.411250 0.680625 0.146250
0.470000 0.680625 0.146250
0.528750 0.680625 0.146250
0.587500 0.680625 0.146250
0.646250 0.680625 0.146250
0.705000 0.680625 0.146250
0.763750 0.680625 0.146250
0.822500 0.680625 0.146250
0.881250 0.680625 0.146250
0.940000 0.680625 0.146250
0.000000 0.742500 0.146250
0.058750 0.742500 0.146250
0.117500 0.742500 0.146250
0.176250 0.742500 0.146250
0.235000 0.742500 0.146250
0.293750 0.742500 0.146250
0.352500 0.742500 0.146250
0.411250 0.742500 0.146250
0.470000 0.742500 0.146250
0.528750 0.742500 0.146250
0.587500 0.742500 0.146250
0.646250 0.742500 0.146250
0.705000 0.742500 0.146250
0.763750 0.742500 0.146250
0.822500 0.742500 0.146250
0.881250 0.742500 0.146250
0.940000 0.742500 0.146250
0.000000 0.804375 0.146250
0.058750 0.804375 0.146250
0.117500 0.804375 0.146250
0.176250 0.804375 0.146250
0.235000 0.804375 0.146250
0.293750 0.804375 0.146250
0.352500 0.804375 0.146250
0.411250 0.804375 0.146250
0.470000 0.804375 0.146250
0.528750 0.804375 0.146250
0.587500 0.804375 0.146250
0.646250 0.804375 0.146250
0.705000 0.804375 0.146250
0.763750 0.804375 0.146250
0.822500 0.804375 0.146250
0.881250 0.804375 0.146250
0.940000 0.804375 0.146250
0.000000 0.866250 0.146250
0.058750 0.866250 0.146250
0.117500 0.866250 0.146250
0.176250 0.866250 0.146250
0.235000 0.866250 0.146250
0.293750 0.866250 0.146250
0.352500 0.866250 0.146250
0.411250 0.866250 0.146250
0.470000 0.866250 0.146250
0.528750 0.866250 0.146250
0.587500 0.866250 0.146250
0.646250 0.866250 0.146250
0.705000 0.866250 0.146250
0.763750 0.866250 0.146250
0.822500 0.866250 0.146250
0.881250 0.866250 0.146250
0.940000 0.866250 0.146250
0.000000 0.928125 0.146250
0.058750 0.928125 0.146250
0.117500 0.928125 0.146250
0.176250 0.928125 0.146250
0.235000 0.928125 0.146250
0.293750 0.928125 0.146250
0.352500 0.928125 0.146250
0.411250 0.928125 0.146250
0.470000 0.928125 0.146250
0.528750 0.928125 0.146250
0.587500 0.928125 0.146250
0.646250 0.928125 0.146250
0.705000 0.928125 0.146250
0.763750 0.928125 0.146250
0.822500 0.928125 0.146250
0.881250 0.928125 0.146250
0.940000 0.928125 0.146250
0.000000 0.990000 0.146250
0.058750 0.990000 0.146250
0.117500 0.990000 0.146250
0.176250 0.990000 0.146250
0.235000 0.990000 0.146250
0.293750 0.990000 0.146250
0.352500 0.990000 0.146250
0.411250 0.990000 0.146250
0.470000 0.990000 0.146250
0.528750 0.990000 0.146250
0.587500 0.990000 0.146250
0.646250 0.990000 0.146250
0.705000 0.990000 0.146250
0.763750 0.990000 0.146250
0.822500 0.990000 0.146250
0.881250 0.990000 0.146250
0.940000 0.990000 0.146250
0.000000 0.000000 0.214375
0.058750 0.000000 0.214375
0.117500 0.000000 0.214375
0.176250 0.000000 0.214375
0.235000 0.000000 0.214375
0.293750 0.000000 0.214375
0.352500 0.000000 0.214375
0.411250 0.000000 0.214375
0.470000 0.000000 0.214375
0.528750 0.000000 0.214375
0.587500 0.000000 0.214375
0.646250 0.000000 0.214375
0.705000 0.000000 0.214375
0.763750 0.000000 0.214375
0.822500 0.000000 0.214375
0.881250 0.000000 0.214375
0.940000 0.000000 0.214375
0.000000 0.061875 0.214375
