public/luts/cool_cinema.cube
TITLE "OXXOVO cool_cinema"
LUT_3D_SIZE 9
DOMAIN_MIN 0.0 0.0 0.0
DOMAIN_MAX 1.0 1.0 1.0
0.000000 0.000000 0.010000
0.117500 0.000000 0.010000
0.235000 0.000000 0.010000
0.352500 0.000000 0.010000
0.470000 0.000000 0.010000
0.587500 0.000000 0.010000
0.705000 0.000000 0.010000
0.822500 0.000000 0.010000
0.940000 0.000000 0.010000
0.000000 0.123750 0.010000
0.117500 0.123750 0.010000
0.235000 0.123750 0.010000
0.352500 0.123750 0.010000
0.470000 0.123750 0.010000
0.587500 0.123750 0.010000
0.705000 0.123750 0.010000
0.822500 0.123750 0.010000
0.940000 0.123750 0.010000
0.000000 0.247500 0.010000
0.117500 0.247500 0.010000
0.235000 0.247500 0.010000
0.352500 0.247500 0.010000
0.470000 0.247500 0.010000
0.587500 0.247500 0.010000
0.705000 0.247500 0.010000
0.822500 0.247500 0.010000
0.940000 0.247500 0.010000
0.000000 0.371250 0.010000
0.117500 0.371250 0.010000
0.235000 0.371250 0.010000
0.352500 0.371250 0.010000
0.470000 0.371250 0.010000
0.587500 0.371250 0.010000
0.705000 0.371250 0.010000
0.822500 0.371250 0.010000
0.940000 0.371250 0.010000
0.000000 0.495000 0.010000
0.117500 0.495000 0.010000
0.235000 0.495000 0.010000
0.352500 0.495000 0.010000
0.470000 0.495000 0.010000
0.587500 0.495000 0.010000
0.705000 0.495000 0.010000
0.822500 0.495000 0.010000
0.940000 0.495000 0.010000
0.000000 0.618750 0.010000
0.117500 0.618750 0.010000
0.235000 0.618750 0.010000
0.352500 0.618750 0.010000
0.470000 0.618750 0.010000
0.587500 0.618750 0.010000
0.705000 0.618750 0.010000
0.822500 0.618750 0.010000
0.940000 0.618750 0.010000
0.000000 0.742500 0.010000
0.117500 0.742500 0.010000
0.235000 0.742500 0.010000
0.352500 0.742500 0.010000
0.470000 0.742500 0.010000
0.587500 0.742500 0.010000
0.705000 0.742500 0.010000
0.822500 0.742500 0.010000
0.940000 0.742500 0.010000
0.000000 0.866250 0.010000
0.117500 0.866250 0.010000
0.235000 0.866250 0.010000
0.352500 0.866250 0.010000
0.470000 0.866250 0.010000
0.587500 0.866250 0.010000
0.705000 0.866250 0.010000
0.822500 0.866250 0.010000
0.940000 0.866250 0.010000
0.000000 0.990000 0.010000
0.117500 0.990000 0.010000
0.235000 0.990000 0.010000
0.352500 0.990000 0.010000
0.470000 0.990000 0.010000
0.587500 0.990000 0.010000
0.705000 0.990000 0.010000
0.822500 0.990000 0.010000
0.940000 0.990000 0.010000
0.000000 0.000000 0.146250
0.117500 0.000000 0.146250
0.235000 0.000000 0.146250
0.352500 0.000000 0.146250
0.470000 0.000000 0.146250
0.587500 0.000000 0.146250
0.705000 0.000000 0.146250
0.822500 0.000000 0.146250
0.940000 0.000000 0.146250
0.000000 0.123750 0.146250
0.117500 0.123750 0.146250
0.235000 0.123750 0.146250
0.352500 0.123750 0.146250
0.470000 0.123750 0.146250
0.587500 0.123750 0.146250
0.705000 0.123750 0.146250
0.822500 0.123750 0.146250
0.940000 0.123750 0.146250
0.000000 0.247500 0.146250
0.117500 0.247500 0.146250
0.235000 0.247500 0.146250
0.352500 0.247500 0.146250
0.470000 0.247500 0.146250
0.587500 0.247500 0.146250
0.705000 0.247500 0.146250
0.822500 0.247500 0.146250
0.940000 0.247500 0.146250
0.000000 0.371250 0.146250
0.117500 0.371250 0.146250
0.235000 0.371250 0.146250
0.352500 0.371250 0.146250
0.470000 0.371250 0.146250
0.587500 0.371250 0.146250
0.705000 0.371250 0.146250
0.822500 0.371250 0.146250
0.940000 0.371250 0.146250
0.000000 0.495000 0.146250
0.117500 0.495000 0.146250
0.235000 0.495000 0.146250
0.352500 0.495000 0.146250
0.470000 0.495000 0.146250
0.587500 0.495000 0.146250
0.705000 0.495000 0.146250
0.822500 0.495000 0.146250
0.940000 0.495000 0.146250
0.000000 0.618750 0.146250
0.117500 0.618750 0.146250
0.235000 0.618750 0.146250
0.352500 0.618750 0.146250
0.470000 0.618750 0.146250
0.587500 0.618750 0.146250
0.705000 0.618750 0.146250
0.822500 0.618750 0.146250
0.940000 0.618750 0.146250
0.000000 0.742500 0.146250
0.117500 0.742500 0.146250
0.235000 0.742500 0.146250
0.352500 0.742500 0.146250
0.470000 0.742500 0.146250
0.587500 0.742500 0.146250
0.705000 0.742500 0.146250
0.822500 0.742500 0.146250
0.940000 0.742500 0.146250
0.000000 0.866250 0.146250
0.117500 0.866250 0.146250
0.235000 0.866250 0.146250
0.352500 0.866250 0.146250
0.470000 0.866250 0.146250
0.587500 0.866250 0.146250
0.705000 0.866250 0.146250
0.822500 0.866250 0.146250
0.940000 0.866250 0.146250
0.000000 0.990000 0.146250
0.117500 0.990000 0.146250
0.235000 0.990000 0.146250
0.352500 0.990000 0.146250
0.470000 0.990000 0.146250
0.587500 0.990000 0.146250
0.705000 0.990000 0.146250
0.822500 0.990000 0.146250
0.940000 0.990000 0.146250
0.000000 0.000000 0.282500
0.117500 0.000000 0.282500
0.235000 0.000000 0.282500
0.352500 0.000000 0.282500
0.470000 0.000000 0.282500
0.587500 0.000000 0.282500
0.705000 0.000000 0.282500
0.822500 0.000000 0.282500
0.940000 0.000000 0.282500
0.000000 0.123750 0.282500
0.117500 0.123750 0.282500
0.235000 0.123750 0.282500
0.352500 0.123750 0.282500
0.470000 0.123750 0.282500
0.587500 0.123750 0.282500
0.705000 0.123750 0.282500
0.822500 0.123750 0.282500
0.940000 0.123750 0.282500
0.000000 0.247500 0.282500
0.117500 0.247500 0.282500
0.235000 0.247500 0.282500
0.352500 0.247500 0.282500
0.470000 0.247500 0.282500
0.587500 0.247500 0.282500
0.705000 0.247500 0.282500
0.822500 0.247500 0.282500
0.940000 0.247500 0.282500
0.000000 0.371250 0.282500
0.117500 0.371250 0.282500
0.235000 0.371250 0.282500
0.352500 0.371250 0.282500
0.470000 0.371250 0.282500
0.587500 0.371250 0.282500
0.705000 0.371250 0.282500
0.822500 0.371250 0.282500
0.940000 0.371250 0.282500
0.000000 0.495000 0.282500
0.117500 0.495000 0.282500
0.235000 0.495000 0.282500
0.352500 0.495000 0.282500
0.470000 0.495000 0.282500
0.587500 0.495000 0.282500
0.705000 0.495000 0.282500
0.822500 0.495000 0.282500
0.940000 0.495000 0.282500
0.000000 0.618750 0.282500
0.117500 0.618750 0.282500
0.235000 0.618750 0.282500
0.352500 0.618750 0.282500
0.470000 0.618750 0.282500
0.587500 0.618750 0.282500
0.705000 0.618750 0.282500
0.822500 0.618750 0.282500
0.940000 0.618750 0.282500
0.000000 0.742500 0.282500
0.117500 0.742500 0.282500
0.235000 0.742500 0.282500
0.352500 0.742500 0.282500
0.470000 0.742500 0.282500
0.587500 0.742500 0.282500
0.705000 0.742500 0.282500
0.822500 0.742500 0.282500
0.940000 0.742500 0.282500
0.000000 0.866250 0.282500
0.117500 0.866250 0.282500
0.235000 0.866250 0.282500
0.352500 0.866250 0.282500
0.470000 0.866250 0.282500
0.587500 0.866250 0.282500
0.705000 0.866250 0.282500
0.822500 0.866250 0.282500
0.940000 0.866250 0.282500
0.000000 0.990000 0.282500
0.117500 0.990000 0.282500
0.235000 0.990000 0.282500
0.352500 0.990000 0.282500
0.470000 0.990000 0.282500
0.587500 0.990000 0.282500
0.705000 0.990000 0.282500
0.822500 0.990000 0.282500
0.940000 0.990000 0.282500
0.000000 0.000000 0.418750
0.117500 0.000000 0.418750
0.235000 0.000000 0.418750
0.352500 0.000000 0.418750
0.470000 0.000000 0.418750
0.587500 0.000000 0.418750
0.705000 0.000000 0.418750
0.822500 0.000000 0.418750
0.940000 0.000000 0.418750
0.000000 0.123750 0.418750
0.117500 0.123750 0.418750
0.235000 0.123750 0.418750
0.352500 0.123750 0.418750
0.470000 0.123750 0.418750
0.587500 0.123750 0.418750
0.705000 0.123750 0.418750
0.822500 0.123750 0.418750
0.940000 0.123750 0.418750
0.000000 0.247500 0.418750
0.117500 0.247500 0.418750
0.235000 0.247500 0.418750
0.352500 0.247500 0.418750
0.470000 0.247500 0.418750
0.587500 0.247500 0.418750
0.705000 0.247500 0.418750
0.822500 0.247500 0.418750
0.940000 0.247500 0.418750
0.000000 0.371250 0.418750
0.117500 0.371250 0.418750
0.235000 0.371250 0.418750
0.352500 0.371250 0.418750
0.470000 0.371250 0.418750
0.587500 0.371250 0.418750
0.705000 0.371250 0.418750
0.822500 0.371250 0.418750
0.940000 0.371250 0.418750
0.000000 0.495000 0.418750
0.117500 0.495000 0.418750
0.235000 0.495000 0.418750
0.352500 0.495000 0.418750
0.470000 0.495000 0.418750
0.587500 0.495000 0.418750
0.705000 0.495000 0.418750
0.822500 0.495000 0.418750
0.940000 0.495000 0.418750
0.000000 0.618750 0.418750
0.117500 0.618750 0.418750
0.235000 0.618750 0.418750
0.352500 0.618750 0.418750
0.470000 0.618750 0.418750
0.587500 0.618750 0.418750
0.705000 0.618750 0.418750
0.822500 0.618750 0.418750
0.940000 0.618750 0.418750
0.000000 0.742500 0.418750
0.117500 0.742500 0.418750
0.235000 0.742500 0.418750
0.352500 0.742500 0.418750
0.470000 0.742500 0.418750
0.587500 0.742500 0.418750
0.705000 0.742500 0.418750
0.822500 0.742500 0.418750
0.940000 0.742500 0.418750
0.000000 0.866250 0.418750
0.117500 0.866250 0.418750
0.235000 0.866250 0.418750
0.352500 0.866250 0.418750
0.470000 0.866250 0.418750
0.587500 0.866250 0.418750
0.705000 0.866250 0.418750
0.822500 0.866250 0.418750
0.940000 0.866250 0.418750
0.000000 0.990000 0.418750
0.117500 0.990000 0.418750
0.235000 0.990000 0.418750
0.352500 0.990000 0.418750
0.470000 0.990000 0.418750
0.587500 0.990000 0.418750
0.705000 0.990000 0.418750
0.822500 0.990000 0.418750
0.940000 0.990000 0.418750
0.000000 0.000000 0.555000
0.117500 0.000000 0.555000
0.235000 0.000000 0.555000
0.352500 0.000000 0.555000
0.470000 0.000000 0.555000
0.587500 0.000000 0.555000
0.705000 0.000000 0.555000
0.822500 0.000000 0.555000
0.940000 0.000000 0.555000
0.000000 0.123750 0.555000
0.117500 0.123750 0.555000
0.235000 0.123750 0.555000
0.352500 0.123750 0.555000
0.470000 0.123750 0.555000
0.587500 0.123750 0.555000
0.705000 0.123750 0.555000
0.822500 0.123750 0.555000
0.940000 0.123750 0.555000
0.000000 0.247500 0.555000
0.117500 0.247500 0.555000
0.235000 0.247500 0.555000
0.352500 0.247500 0.555000
0.470000 0.247500 0.555000
0.587500 0.247500 0.555000
0.705000 0.247500 0.555000
0.822500 0.247500 0.555000
0.940000 0.247500 0.555000
0.000000 0.371250 0.555000
0.117500 0.371250 0.555000
0.235000 0.371250 0.555000
0.352500 0.371250 0.555000
0.470000 0.371250 0.555000
0.587500 0.371250 0.555000
0.705000 0.371250 0.555000
0.822500 0.371250 0.555000
0.940000 0.371250 0.555000
0.000000 0.495000 0.555000
0.117500 0.495000 0.555000
0.235000 0.495000 0.555000
0.352500 0.495000 0.555000
0.470000 0.495000 0.555000
0.587500 0.495000 0.555000
0.705000 0.495000 0.555000
0.822500 0.495000 0.555000
0.940000 0.495000 0.555000
0.000000 0.618750 0.555000
0.117500 0.618750 0.555000
0.235000 0.618750 0.555000
0.352500 0.618750 0.555000
0.470000 0.618750 0.555000
0.587500 0.618750 0.555000
0.705000 0.618750 0.555000
0.822500 0.618750 0.555000
0.940000 0.618750 0.555000
0.000000 0.742500 0.555000
0.117500 0.742500 0.555000
0.235000 0.742500 0.555000
0.352500 0.742500 0.555000
0.470000 0.742500 0.555000
0.587500 0.742500 0.555000
0.705000 0.742500 0.555000
0.822500 0.742500 0.555000
0.940000 0.742500 0.555000
0.000000 0.866250 0.555000
0.117500 0.866250 0.555000
0.235000 0.866250 0.555000
0.352500 0.866250 0.555000
0.470000 0.866250 0.555000
0.587500 0.866250 0.555000
0.705000 0.866250 0.555000
0.822500 0.866250 0.555000
0.940000 0.866250 0.555000
0.000000 0.990000 0.555000
0.117500 0.990000 0.555000
0.235000 0.990000 0.555000
0.352500 0.990000 0.555000
0.470000 0.990000 0.555000
0.587500 0.990000 0.555000
0.705000 0.990000 0.555000
0.822500 0.990000 0.555000
0.940000 0.990000 0.555000
0.000000 0.000000 0.691250
0.117500 0.000000 0.691250
0.235000 0.000000 0.691250
0.352500 0.000000 0.691250
0.470000 0.000000 0.691250
0.587500 0.000000 0.691250
0.705000 0.000000 0.691250
0.822500 0.000000 0.691250
0.940000 0.000000 0.691250
0.000000 0.123750 0.691250
0.117500 0.123750 0.691250
0.235000 0.123750 0.691250
0.352500 0.123750 0.691250
0.470000 0.123750 0.691250
0.587500 0.123750 0.691250
0.705000 0.123750 0.691250
0.822500 0.123750 0.691250
0.940000 0.123750 0.691250
0.000000 0.247500 0.691250
0.117500 0.247500 0.691250
0.235000 0.247500 0.691250
0.352500 0.247500 0.691250
0.470000 0.247500 0.691250
0.587500 0.247500 0.691250
0.705000 0.247500 0.691250
0.822500 0.247500 0.691250
0.940000 0.247500 0.691250
0.000000 0.371250 0.691250
0.117500 0.371250 0.691250
0.235000 0.371250 0.691250
0.352500 0.371250 0.691250
0.470000 0.371250 0.691250
0.587500 0.371250 0.691250
0.705000 0.371250 0.691250
0.822500 0.371250 0.691250
0.940000 0.371250 0.691250
0.000000 0.495000 0.691250
0.117500 0.495000 0.691250
0.235000 0.495000 0.691250
0.352500 0.495000 0.691250
0.470000 0.495000 0.691250
0.587500 0.495000 0.691250
0.705000 0.495000 0.691250
0.822500 0.495000 0.691250
0.940000 0.495000 0.691250
0.000000 0.618750 0.691250
0.117500 0.618750 0.691250
0.235000 0.618750 0.691250
0.352500 0.618750 0.691250
0.470000 0.618750 0.691250
0.587500 0.618750 0.691250
0.705000 0.618750 0.691250
0.822500 0.618750 0.691250
0.940000 0.618750 0.691250
0.000000 0.742500 0.691250
0.117500 0.742500 0.691250
0.235000 0.742500 0.691250
0.352500 0.742500 0.691250
0.470000 0.742500 0.691250
0.587500 0.742500 0.691250
0.705000 0.742500 0.691250
0.822500 0.742500 0.691250
0.940000 0.742500 0.691250
0.000000 0.866250 0.691250
0.117500 0.866250 0.691250
0.235000 0.866250 0.691250
0.352500 0.866250 0.691250
0.470000 0.866250 0.691250
0.587500 0.866250 0.691250
0.705000 0.866250 0.691250
0.822500 0.866250 0.691250
0.940000 0.866250 0.691250
0.000000 0.990000 0.691250
0.117500 0.990000 0.691250
0.235000 0.990000 0.691250
0.352500 0.990000 0.691250
0.470000 0.990000 0.691250
0.587500 0.990000 0.691250
0.705000 0.990000 0.691250
0.822500 0.990000 0.691250
0.940000 0.990000 0.691250
0.000000 0.000000 0.827500
0.117500 0.000000 0.827500
0.235000 0.000000 0.827500
0.352500 0.000000 0.827500
0.470000 0.000000 0.827500
0.587500 0.000000 0.827500
0.705000 0.000000 0.827500
0.822500 0.000000 0.827500
0.940000 0.000000 0.827500
0.000000 0.123750 0.827500
0.117500 0.123750 0.827500
0.235000 0.123750 0.827500
0.352500 0.123750 0.827500
0.470000 0.123750 0.827500
0.587500 0.123750 0.827500
0.705000 0.123750 0.827500
0.822500 0.123750 0.827500
0.940000 0.123750 0.827500
0.000000 0.247500 0.827500
0.117500 0.247500 0.827500
0.235000 0.247500 0.827500
0.352500 0.247500 0.827500
0.470000 0.247500 0.827500
0.587500 0.247500 0.827500
0.705000 0.247500 0.827500
0.822500 0.247500 0.827500
0.940000 0.247500 0.827500
0.000000 0.371250 0.827500
0.117500 0.371250 0.827500
0.235000 0.371250 0.827500
0.352500 0.371250 0.827500
0.470000 0.371250 0.827500
0.587500 0.371250 0.827500
0.705000 0.371250 0.827500
0.822500 0.371250 0.827500
0.940000 0.371250 0.827500
0.000000 0.495000 0.827500
0.117500 0.495000 0.827500
0.235000 0.495000 0.827500
0.352500 0.495000 0.827500
0.470000 0.495000 0.827500
0.587500 0.495000 0.827500
0.705000 0.495000 0.827500
0.822500 0.495000 0.827500
0.940000 0.495000 0.827500
0.000000 0.618750 0.827500
0.117500 0.618750 0.827500
0.235000 0.618750 0.827500
0.352500 0.618750 0.827500
0.470000 0.618750 0.827500
0.587500 0.618750 0.827500
0.705000 0.618750 0.827500
0.822500 0.618750 0.827500
0.940000 0.618750 0.827500
0.000000 0.742500 0.827500
0.117500 0.742500 0.827500
0.235000 0.742500 0.827500
0.352500 0.742500 0.827500
0.470000 0.742500 0.827500
0.587500 0.742500 0.827500
0.705000 0.742500 0.827500
0.822500 0.742500 0.827500
0.940000 0.742500 0.827500
0.000000 0.866250 0.827500
0.117500 0.866250 0.827500
0.235000 0.866250 0.827500
0.352500 0.866250 0.827500
0.470000 0.866250 0.827500
0.587500 0.866250 0.827500
0.705000 0.866250 0.827500
0.822500 0.866250 0.827500
0.940000 0.866250 0.827500
0.000000 0.990000 0.827500
0.117500 0.990000 0.827500
0.235000 0.990000 0.827500
0.352500 0.990000 0.827500
0.470000 0.990000 0.827500
0.587500 0.990000 0.827500
0.705000 0.990000 0.827500
0.822500 0.990000 0.827500
0.940000 0.990000 0.827500
0.000000 0.000000 0.963750
0.117500 0.000000 0.963750
0.235000 0.000000 0.963750
0.352500 0.000000 0.963750
0.470000 0.000000 0.963750
0.587500 0.000000 0.963750
0.705000 0.000000 0.963750
0.822500 0.000000 0.963750
0.940000 0.000000 0.963750
0.000000 0.123750 0.963750
0.117500 0.123750 0.963750
0.235000 0.123750 0.963750
0.352500 0.123750 0.963750
0.470000 0.123750 0.963750
0.587500 0.123750 0.963750
0.705000 0.123750 0.963750
0.822500 0.123750 0.963750
0.940000 0.123750 0.963750
0.000000 0.247500 0.963750
0.117500 0.247500 0.963750
0.235000 0.247500 0.963750
0.352500 0.247500 0.963750
0.470000 0.247500 0.963750
0.587500 0.247500 0.963750
0.705000 0.247500 0.963750
0.822500 0.247500 0.963750
0.940000 0.247500 0.963750
0.000000 0.371250 0.963750
0.117500 0.371250 0.963750
0.235000 0.371250 0.963750
0.352500 0.371250 0.963750
0.470000 0.371250 0.963750
0.587500 0.371250 0.963750
0.705000 0.371250 0.963750
0.822500 0.371250 0.963750
0.940000 0.371250 0.963750
0.000000 0.495000 0.963750
0.117500 0.495000 0.963750
0.235000 0.495000 0.963750
0.352500 0.495000 0.963750
0.470000 0.495000 0.963750
0.587500 0.495000 0.963750
0.705000 0.495000 0.963750
0.822500 0.495000 0.963750
0.940000 0.495000 0.963750
0.000000 0.618750 0.963750
0.117500 0.618750 0.963750
0.235000 0.618750 0.963750
0.352500 0.618750 0.963750
0.470000 0.618750 0.963750
0.587500 0.618750 0.963750
0.705000 0.618750 0.963750
0.822500 0.618750 0.963750
0.940000 0.618750 0.963750
0.000000 0.742500 0.963750
0.117500 0.742500 0.963750
0.235000 0.742500 0.963750
0.352500 0.742500 0.963750
0.470000 0.742500 0.963750
0.587500 0.742500 0.963750
0.705000 0.742500 0.963750
0.822500 0.742500 0.963750
0.940000 0.742500 0.963750
0.000000 0.866250 0.963750
0.117500 0.866250 0.963750
0.235000 0.866250 0.963750
0.352500 0.866250 0.963750
0.470000 0.866250 0.963750
0.587500 0.866250 0.963750
0.705000 0.866250 0.963750
0.822500 0.866250 0.963750
0.940000 0.866250 0.963750
0.000000 0.990000 0.963750
0.117500 0.990000 0.963750
0.235000 0.990000 0.963750
0.352500 0.990000 0.963750
0.470000 0.990000 0.963750
0.587500 0.990000 0.963750
0.705000 0.990000 0.963750
0.822500 0.990000 0.963750
0.940000 0.990000 0.963750
0.000000 0.000000 1.000000
0.117500 0.000000 1.000000
0.235000 0.000000 1.000000
0.352500 0.000000 1.000000
0.470000 0.000000 1.000000
0.587500 0.000000 1.000000
0.705000 0.000000 1.000000
0.822500 0.000000 1.000000
0.940000 0.000000 1.000000
0.000000 0.123750 1.000000
0.117500 0.123750 1.000000
0.235000 0.123750 1.000000
0.352500 0.123750 1.000000
0.470000 0.123750 1.000000
0.587500 0.123750 1.000000
0.705000 0.123750 1.000000
0.822500 0.123750 1.000000
0.940000 0.123750 1.000000
0.000000 0.247500 1.000000
0.117500 0.247500 1.000000
0.235000 0.247500 1.000000
0.352500 0.247500 1.000000
0.470000 0.247500 1.000000
0.587500 0.247500 1.000000
0.705000 0.247500 1.000000
0.822500 0.247500 1.000000
0.940000 0.247500 1.000000
0.000000 0.371250 1.000000
0.117500 0.371250 1.000000
0.235000 0.371250 1.000000
0.352500 0.371250 1.000000
0.470000 0.371250 1.000000
0.587500 0.371250 1.000000
0.705000 0.371250 1.000000
0.822500 0.371250 1.000000
0.940000 0.371250 1.000000
0.000000 0.495000 1.000000
0.117500 0.495000 1.000000
0.235000 0.495000 1.000000
0.352500 0.495000 1.000000
0.470000 0.495000 1.000000
0.587500 0.495000 1.000000
0.705000 0.495000 1.000000
0.822500 0.495000 1.000000
0.940000 0.495000 1.000000
0.000000 0.618750 1.000000
0.117500 0.618750 1.000000
0.235000 0.618750 1.000000
0.352500 0.618750 1.000000
0.470000 0.618750 1.000000
0.587500 0.618750 1.000000
0.705000 0.618750 1.000000
0.822500 0.618750 1.000000
0.940000 0.618750 1.000000
0.000000 0.742500 1.000000
0.117500 0.742500 1.000000
0.235000 0.742500 1.000000
0.352500 0.742500 1.000000
0.470000 0.742500 1.000000
0.587500 0.742500 1.000000
0.705000 0.742500 1.000000
0.822500 0.742500 1.000000
0.940000 0.742500 1.000000
0.000000 0.866250 1.000000
0.117500 0.866250 1.000000
0.235000 0.866250 1.000000
0.352500 0.866250 1.000000
0.470000 0.866250 1.000000
0.587500 0.866250 1.000000
0.705000 0.866250 1.000000
0.822500 0.866250 1.000000
0.940000 0.866250 1.000000
0.000000 0.990000 1.000000
0.117500 0.990000 1.000000
0.235000 0.990000 1.000000
0.352500 0.990000 1.000000
0.470000 0.990000 1.000000
0.587500 0.990000 1.000000
0.705000 0.990000 1.000000
0.822500 0.990000 1.000000
0.940000 0.990000 1.000000
