public/luts/cool_cinema.cube
TITLE "OXXOVO cool_cinema"
LUT_3D_SIZE 5
DOMAIN_MIN 0.0 0.0 0.0
DOMAIN_MAX 1.0 1.0 1.0
0.000000 0.000000 0.010000
0.235000 0.000000 0.010000
0.470000 0.000000 0.010000
0.705000 0.000000 0.010000
0.940000 0.000000 0.010000
0.000000 0.247500 0.010000
0.235000 0.247500 0.010000
0.470000 0.247500 0.010000
0.705000 0.247500 0.010000
0.940000 0.247500 0.010000
0.000000 0.495000 0.010000
0.235000 0.495000 0.010000
0.470000 0.495000 0.010000
0.705000 0.495000 0.010000
0.940000 0.495000 0.010000
0.000000 0.742500 0.010000
0.235000 0.742500 0.010000
0.470000 0.742500 0.010000
0.705000 0.742500 0.010000
0.940000 0.742500 0.010000
0.000000 0.990000 0.010000
0.235000 0.990000 0.010000
0.470000 0.990000 0.010000
0.705000 0.990000 0.010000
0.940000 0.990000 0.010000
0.000000 0.000000 0.282500
0.235000 0.000000 0.282500
0.470000 0.000000 0.282500
0.705000 0.000000 0.282500
0.940000 0.000000 0.282500
0.000000 0.247500 0.282500
0.235000 0.247500 0.282500
0.470000 0.247500 0.282500
0.705000 0.247500 0.282500
0.940000 0.247500 0.282500
0.000000 0.495000 0.282500
0.235000 0.495000 0.282500
0.470000 0.495000 0.282500
0.705000 0.495000 0.282500
0.940000 0.495000 0.282500
0.000000 0.742500 0.282500
0.235000 0.742500 0.282500
0.470000 0.742500 0.282500
0.705000 0.742500 0.282500
0.940000 0.742500 0.282500
0.000000 0.990000 0.282500
0.235000 0.990000 0.282500
0.470000 0.990000 0.282500
0.705000 0.990000 0.282500
0.940000 0.990000 0.282500
0.000000 0.000000 0.555000
0.235000 0.000000 0.555000
0.470000 0.000000 0.555000
0.705000 0.000000 0.555000
0.940000 0.000000 0.555000
0.000000 0.247500 0.555000
0.235000 0.247500 0.555000
0.470000 0.247500 0.555000
0.705000 0.247500 0.555000
0.940000 0.247500 0.555000
0.000000 0.495000 0.555000
0.235000 0.495000 0.555000
0.470000 0.495000 0.555000
0.705000 0.495000 0.555000
0.940000 0.495000 0.555000
0.000000 0.742500 0.555000
0.235000 0.742500 0.555000
0.470000 0.742500 0.555000
0.705000 0.742500 0.555000
0.940000 0.742500 0.555000
0.000000 0.990000 0.555000
0.235000 0.990000 0.555000
0.470000 0.990000 0.555000
0.705000 0.990000 0.555000
0.940000 0.990000 0.555000
0.000000 0.000000 0.827500
0.235000 0.000000 0.827500
0.470000 0.000000 0.827500
0.705000 0.000000 0.827500
0.940000 0.000000 0.827500
0.000000 0.247500 0.827500
0.235000 0.247500 0.827500
0.470000 0.247500 0.827500
0.705000 0.247500 0.827500
0.940000 0.247500 0.827500
0.000000 0.495000 0.827500
0.235000 0.495000 0.827500
0.470000 0.495000 0.827500
0.705000 0.495000 0.827500
0.940000 0.495000 0.827500
0.000000 0.742500 0.827500
0.235000 0.742500 0.827500
0.470000 0.742500 0.827500
0.705000 0.742500 0.827500
0.940000 0.742500 0.827500
0.000000 0.990000 0.827500
0.235000 0.990000 0.827500
0.470000 0.990000 0.827500
0.705000 0.990000 0.827500
0.940000 0.990000 0.827500
0.000000 0.000000 1.000000
0.235000 0.000000 1.000000
0.470000 0.000000 1.000000
0.705000 0.000000 1.000000
0.940000 0.000000 1.000000
0.000000 0.247500 1.000000
0.235000 0.247500 1.000000
0.470000 0.247500 1.000000
0.705000 0.247500 1.000000
0.940000 0.247500 1.000000
0.000000 0.495000 1.000000
0.235000 0.495000 1.000000
0.470000 0.495000 1.000000
0.705000 0.495000 1.000000
0.940000 0.495000 1.000000
0.000000 0.742500 1.000000
0.235000 0.742500 1.000000
0.470000 0.742500 1.000000
0.705000 0.742500 1.000000
0.940000 0.742500 1.000000
0.000000 0.990000 1.000000
0.235000 0.990000 1.000000
0.470000 0.990000 1.000000
0.705000 0.990000 1.000000
0.940000 0.990000 1.000000
