public/luts/noir.cube
TITLE "OXXOVO noir"
LUT_3D_SIZE 5
DOMAIN_MIN 0.0 0.0 0.0
DOMAIN_MAX 1.0 1.0 1.0
0.000000 0.000000 0.000000
0.037500 0.000000 0.000000
0.127594 0.052594 0.052594
0.244516 0.132016 0.132016
0.361437 0.211437 0.211437
0.049672 0.087172 0.049672
0.166594 0.166594 0.129094
0.283516 0.246016 0.208516
0.400438 0.325437 0.287938
0.517359 0.404859 0.367359
0.205594 0.280594 0.205594
0.322516 0.360016 0.285016
0.439437 0.439437 0.364437
0.556359 0.518859 0.443859
0.673281 0.598281 0.523281
0.361516 0.474016 0.361516
0.478438 0.553438 0.440938
0.595359 0.632859 0.520359
0.712281 0.712281 0.599781
0.829203 0.791703 0.679203
0.517437 0.667437 0.517437
0.634359 0.746859 0.596859
0.751281 0.826281 0.676281
0.868203 0.905703 0.755703
0.985125 0.985125 0.835125
0.000000 0.000000 0.037500
0.040953 0.003453 0.040953
0.157875 0.082875 0.120375
0.274797 0.162297 0.199797
0.391719 0.241719 0.279219
0.079953 0.117453 0.117453
0.196875 0.196875 0.196875
0.313797 0.276297 0.276297
0.430719 0.355719 0.355719
0.547641 0.435141 0.435141
0.235875 0.310875 0.273375
0.352797 0.390297 0.352797
0.469719 0.469719 0.432219
0.586641 0.549141 0.511641
0.703562 0.628562 0.591062
0.391797 0.504297 0.429297
0.508719 0.583719 0.508719
0.625641 0.663141 0.588141
0.742563 0.742563 0.667562
0.859484 0.821984 0.746984
0.547719 0.697719 0.585219
0.664641 0.777141 0.664641
0.781562 0.856562 0.744062
0.898484 0.935984 0.823484
1.000000 1.000000 0.887500
0.000000 0.000000 0.075000
0.071234 0.033734 0.108734
0.188156 0.113156 0.188156
0.305078 0.192578 0.267578
0.422000 0.272000 0.347000
0.110234 0.147734 0.185234
0.227156 0.227156 0.264656
0.344078 0.306578 0.344078
0.461000 0.386000 0.423500
0.577922 0.465422 0.502922
0.266156 0.341156 0.341156
0.383078 0.420578 0.420578
0.500000 0.500000 0.500000
0.616922 0.579422 0.579422
0.733844 0.658844 0.658844
0.422078 0.534578 0.497078
0.539000 0.614000 0.576500
0.655922 0.693422 0.655922
0.772844 0.772844 0.735344
0.889766 0.852266 0.814766
0.578000 0.728000 0.653000
0.694922 0.807422 0.732422
0.811844 0.886844 0.811844
0.928766 0.966266 0.891266
1.000000 1.000000 0.925000
0.000000 0.000000 0.112500
0.101516 0.064016 0.176516
0.218437 0.143437 0.255937
0.335359 0.222859 0.335359
0.452281 0.302281 0.414781
0.140516 0.178016 0.253016
0.257437 0.257437 0.332437
0.374359 0.336859 0.411859
0.491281 0.416281 0.491281
0.608203 0.495703 0.570703
0.296438 0.371438 0.408938
0.413359 0.450859 0.488359
0.530281 0.530281 0.567781
0.647203 0.609703 0.647203
0.764125 0.689125 0.726625
0.452359 0.564859 0.564859
0.569281 0.644281 0.644281
0.686203 0.723703 0.723703
0.803125 0.803125 0.803125
0.920047 0.882547 0.882547
0.608281 0.758281 0.720781
0.725203 0.837703 0.800203
0.842125 0.917125 0.879625
0.959047 0.996547 0.959047
1.000000 1.000000 0.962500
0.014875 0.014875 0.164875
0.131797 0.094297 0.244297
0.248719 0.173719 0.323719
0.365641 0.253141 0.403141
0.482563 0.332562 0.482563
0.170797 0.208297 0.320797
0.287719 0.287719 0.400219
0.404641 0.367141 0.479641
0.521562 0.446562 0.559062
0.638484 0.525984 0.638484
0.326719 0.401719 0.476719
0.443641 0.481141 0.556141
0.560562 0.560562 0.635562
0.677484 0.639984 0.714984
0.794406 0.719406 0.794406
0.482641 0.595141 0.632641
0.599562 0.674562 0.712063
0.716484 0.753984 0.791484
0.833406 0.833406 0.870906
0.950328 0.912828 0.950328
0.638562 0.788562 0.788562
0.755484 0.867984 0.867984
0.872406 0.947406 0.947406
0.962500 1.000000 1.000000
1.000000 1.000000 1.000000
