public/luts/noir.cube
TITLE "OXXOVO noir"
LUT_3D_SIZE 17
DOMAIN_MIN 0.0 0.0 0.0
DOMAIN_MAX 1.0 1.0 1.0
0.000000 0.000000 0.000000
0.009375 0.000000 0.000000
0.018750 0.000000 0.000000
0.028125 0.000000 0.000000
0.037500 0.000000 0.000000
0.046875 0.000000 0.000000
0.069133 0.012883 0.012883
0.098363 0.032738 0.032738
0.127594 0.052594 0.052594
0.156824 0.072449 0.072449
0.186055 0.092305 0.092305
0.215285 0.112160 0.112160
0.244516 0.132016 0.132016
0.273746 0.151871 0.151871
0.302977 0.171727 0.171727
0.332207 0.191582 0.191582
0.361437 0.211437 0.211437
0.000000 0.009375 0.000000
0.009375 0.009375 0.000000
0.018750 0.009375 0.000000
0.028125 0.009375 0.000000
0.049652 0.021527 0.012152
0.078883 0.041383 0.032008
0.108113 0.061238 0.051863
0.137344 0.081094 0.071719
0.166574 0.100949 0.091574
0.195805 0.120805 0.111430
0.225035 0.140660 0.131285
0.254266 0.160516 0.151141
0.283496 0.180371 0.170996
0.312727 0.200227 0.190852
0.341957 0.220082 0.210707
0.371187 0.239937 0.230562
0.400418 0.259793 0.250418
0.000000 0.018750 0.000000
0.009375 0.018750 0.000000
0.030172 0.030172 0.011422
0.059402 0.050027 0.031277
0.088633 0.069883 0.051133
0.117863 0.089738 0.070988
0.147094 0.109594 0.090844
0.176324 0.129449 0.110699
0.205555 0.149305 0.130555
0.234785 0.169160 0.150410
0.264016 0.189016 0.170266
0.293246 0.208871 0.190121
0.322477 0.228727 0.209977
0.351707 0.248582 0.229832
0.380937 0.268437 0.249687
0.410168 0.288293 0.269543
0.439398 0.308148 0.289398
0.010691 0.038816 0.010691
0.039922 0.058672 0.030547
0.069152 0.078527 0.050402
0.098383 0.098383 0.070258
0.127613 0.118238 0.090113
0.156844 0.138094 0.109969
0.186074 0.157949 0.129824
0.215305 0.177805 0.149680
0.244535 0.197660 0.169535
0.273766 0.217516 0.189391
0.302996 0.237371 0.209246
0.332227 0.257227 0.229102
0.361457 0.277082 0.248957
0.390687 0.296937 0.268812
0.419918 0.316793 0.288668
0.449148 0.336648 0.308523
0.478379 0.356504 0.328379
0.049672 0.087172 0.049672
0.078902 0.107027 0.069527
0.108133 0.126883 0.089383
0.137363 0.146738 0.109238
0.166594 0.166594 0.129094
0.195824 0.186449 0.148949
0.225055 0.206305 0.168805
0.254285 0.226160 0.188660
0.283516 0.246016 0.208516
0.312746 0.265871 0.228371
0.341977 0.285727 0.248227
0.371207 0.305582 0.268082
0.400438 0.325437 0.287938
0.429668 0.345293 0.307793
0.458898 0.365148 0.327648
0.488129 0.385004 0.347504
0.517359 0.404859 0.367359
0.088652 0.135527 0.088652
0.117883 0.155383 0.108508
0.147113 0.175238 0.128363
0.176344 0.195094 0.148219
0.205574 0.214949 0.168074
0.234805 0.234805 0.187930
0.264035 0.254660 0.207785
0.293266 0.274516 0.227641
0.322496 0.294371 0.247496
0.351727 0.314227 0.267352
0.380957 0.334082 0.287207
0.410187 0.353937 0.307062
0.439418 0.373793 0.326918
0.468648 0.393648 0.346773
0.497879 0.413504 0.366629
0.527109 0.433359 0.386484
0.556340 0.453215 0.406340
0.127633 0.183883 0.127633
0.156863 0.203738 0.147488
0.186094 0.223594 0.167344
0.215324 0.243449 0.187199
0.244555 0.263305 0.207055
0.273785 0.283160 0.226910
0.303016 0.303016 0.246766
0.332246 0.322871 0.266621
0.361477 0.342727 0.286477
0.390707 0.362582 0.306332
0.419937 0.382437 0.326187
0.449168 0.402293 0.346043
0.478398 0.422148 0.365898
0.507629 0.442004 0.385754
0.536859 0.461859 0.405609
0.566090 0.481715 0.425465
0.595320 0.501570 0.445320
0.166613 0.232238 0.166613
0.195844 0.252094 0.186469
0.225074 0.271949 0.206324
0.254305 0.291805 0.226180
0.283535 0.311660 0.246035
0.312766 0.331516 0.265891
0.341996 0.351371 0.285746
0.371227 0.371227 0.305602
0.400457 0.391082 0.325457
0.429687 0.410937 0.345312
0.458918 0.430793 0.365168
0.488148 0.450648 0.385023
0.517379 0.470504 0.404879
0.546609 0.490359 0.424734
0.575840 0.510215 0.444590
0.605070 0.530070 0.464445
0.634301 0.549926 0.484301
0.205594 0.280594 0.205594
0.234824 0.300449 0.225449
0.264055 0.320305 0.245305
0.293285 0.340160 0.265160
0.322516 0.360016 0.285016
0.351746 0.379871 0.304871
0.380977 0.399727 0.324727
0.410207 0.419582 0.344582
0.439437 0.439437 0.364437
0.468668 0.459293 0.384293
0.497898 0.479148 0.404148
0.527129 0.499004 0.424004
0.556359 0.518859 0.443859
0.585590 0.538715 0.463715
0.614820 0.558570 0.483570
0.644051 0.578426 0.503426
0.673281 0.598281 0.523281
0.244574 0.328949 0.244574
0.273805 0.348805 0.264430
0.303035 0.368660 0.284285
0.332266 0.388516 0.304141
0.361496 0.408371 0.323996
0.390727 0.428227 0.343852
0.419957 0.448082 0.363707
0.449187 0.467937 0.383562
0.478418 0.487793 0.403418
0.507648 0.507648 0.423273
0.536879 0.527504 0.443129
0.566109 0.547359 0.462984
0.595340 0.567215 0.482840
0.624570 0.587070 0.502695
0.653801 0.606926 0.522551
0.683031 0.626781 0.542406
0.712262 0.646637 0.562262
0.283555 0.377305 0.283555
0.312785 0.397160 0.303410
0.342016 0.417016 0.323266
0.371246 0.436871 0.343121
0.400477 0.456727 0.362977
0.429707 0.476582 0.382832
0.458937 0.496437 0.402687
0.488168 0.516293 0.422543
0.517398 0.536148 0.442398
0.546629 0.556004 0.462254
0.575859 0.575859 0.482109
0.605090 0.595715 0.501965
0.634320 0.615570 0.521820
0.663551 0.635426 0.541676
0.692781 0.655281 0.561531
0.722012 0.675137 0.581387
0.751242 0.694992 0.601242
0.322535 0.425660 0.322535
0.351766 0.445516 0.342391
0.380996 0.465371 0.362246
0.410227 0.485227 0.382102
0.439457 0.505082 0.401957
0.468687 0.524937 0.421812
0.497918 0.544793 0.441668
0.527148 0.564648 0.461523
0.556379 0.584504 0.481379
0.585609 0.604359 0.501234
0.614840 0.624215 0.521090
0.644070 0.644070 0.540945
0.673301 0.663926 0.560801
0.702531 0.683781 0.580656
0.731762 0.703637 0.600512
0.760992 0.723492 0.620367
0.790223 0.743348 0.640223
0.361516 0.474016 0.361516
0.390746 0.493871 0.381371
0.419977 0.513727 0.401227
0.449207 0.533582 0.421082
0.478438 0.553438 0.440938
0.507668 0.573293 0.460793
0.536898 0.593148 0.480648
0.566129 0.613004 0.500504
0.595359 0.632859 0.520359
0.624590 0.652715 0.540215
0.653820 0.672570 0.560070
0.683051 0.692426 0.579926
0.712281 0.712281 0.599781
0.741512 0.732137 0.619637
0.770742 0.751992 0.639492
0.799973 0.771848 0.659348
0.829203 0.791703 0.679203
0.400496 0.522371 0.400496
0.429727 0.542227 0.420352
0.458957 0.562082 0.440207
0.488187 0.581937 0.460062
0.517418 0.601793 0.479918
0.546648 0.621648 0.499773
0.575879 0.641504 0.519629
0.605109 0.661359 0.539484
0.634340 0.681215 0.559340
0.663570 0.701070 0.579195
0.692801 0.720926 0.599051
0.722031 0.740781 0.618906
0.751262 0.760637 0.638762
0.780492 0.780492 0.658617
0.809723 0.800348 0.678473
0.838953 0.820203 0.698328
0.868184 0.840059 0.718184
0.439477 0.570727 0.439477
0.468707 0.590582 0.459332
0.497938 0.610438 0.479188
0.527168 0.630293 0.499043
0.556398 0.650148 0.518898
0.585629 0.670004 0.538754
0.614859 0.689859 0.558609
0.644090 0.709715 0.578465
0.673320 0.729570 0.598320
0.702551 0.749426 0.618176
0.731781 0.769281 0.638031
0.761012 0.789137 0.657887
0.790242 0.808992 0.677742
0.819473 0.828848 0.697598
0.848703 0.848703 0.717453
0.877934 0.868559 0.737309
0.907164 0.888414 0.757164
0.478457 0.619082 0.478457
0.507687 0.638937 0.498312
0.536918 0.658793 0.518168
0.566148 0.678648 0.538023
0.595379 0.698504 0.557879
0.624609 0.718359 0.577734
0.653840 0.738215 0.597590
0.683070 0.758070 0.617445
0.712301 0.777926 0.637301
0.741531 0.797781 0.657156
0.770762 0.817637 0.677012
0.799992 0.837492 0.696867
0.829223 0.857348 0.716723
0.858453 0.877203 0.736578
0.887684 0.897059 0.756434
0.916914 0.916914 0.776289
0.946145 0.936770 0.796145
0.517437 0.667437 0.517437
0.546668 0.687293 0.537293
0.575898 0.707148 0.557148
0.605129 0.727004 0.577004
0.634359 0.746859 0.596859
0.663590 0.766715 0.616715
0.692820 0.786570 0.636570
0.722051 0.806426 0.656426
0.751281 0.826281 0.676281
0.780512 0.846137 0.696137
0.809742 0.865992 0.715992
0.838973 0.885848 0.735848
0.868203 0.905703 0.755703
0.897434 0.925559 0.775559
0.926664 0.945414 0.795414
0.955895 0.965270 0.815270
0.985125 0.985125 0.835125
0.000000 0.000000 0.009375
0.009375 0.000000 0.009375
0.018750 0.000000 0.009375
0.028125 0.000000 0.009375
0.037500 0.000000 0.009375
0.047473 0.000598 0.009973
0.076703 0.020453 0.029828
0.105934 0.040309 0.049684
0.135164 0.060164 0.069539
0.164395 0.080020 0.089395
0.193625 0.099875 0.109250
0.222855 0.119730 0.129105
0.252086 0.139586 0.148961
0.281316 0.159441 0.168816
0.310547 0.179297 0.188672
0.339777 0.199152 0.208527
0.369008 0.219008 0.228383
0.000000 0.009375 0.009375
0.009375 0.009375 0.009375
0.018750 0.009375 0.009375
0.028125 0.009375 0.009375
0.057223 0.029098 0.029098
0.086453 0.048953 0.048953
0.115684 0.068809 0.068809
0.144914 0.088664 0.088664
0.174145 0.108520 0.108520
0.203375 0.128375 0.128375
0.232605 0.148230 0.148230
0.261836 0.168086 0.168086
0.291066 0.187941 0.187941
0.320297 0.207797 0.207797
0.349527 0.227652 0.227652
0.378758 0.247508 0.247508
0.407988 0.267363 0.267363
0.000000 0.018750 0.009375
0.009375 0.018750 0.009375
0.037742 0.037742 0.028367
0.066973 0.057598 0.048223
0.096203 0.077453 0.068078
0.125434 0.097309 0.087934
0.154664 0.117164 0.107789
0.183895 0.137020 0.127645
0.213125 0.156875 0.147500
0.242355 0.176730 0.167355
0.271586 0.196586 0.187211
0.300816 0.216441 0.207066
0.330047 0.236297 0.226922
0.359277 0.256152 0.246777
0.388508 0.276008 0.266633
0.417738 0.295863 0.286488
0.446969 0.315719 0.306344
0.018262 0.046387 0.027637
0.047492 0.066242 0.047492
0.076723 0.086098 0.067348
0.105953 0.105953 0.087203
0.135184 0.125809 0.107059
0.164414 0.145664 0.126914
0.193645 0.165520 0.146770
0.222875 0.185375 0.166625
0.252105 0.205230 0.186480
0.281336 0.225086 0.206336
0.310566 0.244941 0.226191
0.339797 0.264797 0.246047
0.369027 0.284652 0.265902
0.398258 0.304508 0.285758
0.427488 0.324363 0.305613
0.456719 0.344219 0.325469
0.485949 0.364074 0.345324
0.057242 0.094742 0.066617
0.086473 0.114598 0.086473
0.115703 0.134453 0.106328
0.144934 0.154309 0.126184
0.174164 0.174164 0.146039
0.203395 0.194020 0.165895
0.232625 0.213875 0.185750
0.261855 0.233730 0.205605
0.291086 0.253586 0.225461
0.320316 0.273441 0.245316
0.349547 0.293297 0.265172
0.378777 0.313152 0.285027
0.408008 0.333008 0.304883
0.437238 0.352863 0.324738
0.466469 0.372719 0.344594
0.495699 0.392574 0.364449
0.524930 0.412430 0.384305
0.096223 0.143098 0.105598
0.125453 0.162953 0.125453
0.154684 0.182809 0.145309
0.183914 0.202664 0.165164
0.213145 0.222520 0.185020
0.242375 0.242375 0.204875
0.271605 0.262230 0.224730
0.300836 0.282086 0.244586
0.330066 0.301941 0.264441
0.359297 0.321797 0.284297
0.388527 0.341652 0.304152
0.417758 0.361508 0.324008
0.446988 0.381363 0.343863
0.476219 0.401219 0.363719
0.505449 0.421074 0.383574
0.534680 0.440930 0.403430
0.563910 0.460785 0.423285
0.135203 0.191453 0.144578
0.164434 0.211309 0.164434
0.193664 0.231164 0.184289
0.222895 0.251020 0.204145
0.252125 0.270875 0.224000
0.281355 0.290730 0.243855
0.310586 0.310586 0.263711
0.339816 0.330441 0.283566
0.369047 0.350297 0.303422
0.398277 0.370152 0.323277
0.427508 0.390008 0.343133
0.456738 0.409863 0.362988
0.485969 0.429719 0.382844
0.515199 0.449574 0.402699
0.544430 0.469430 0.422555
0.573660 0.489285 0.442410
0.602891 0.509141 0.462266
0.174184 0.239809 0.183559
0.203414 0.259664 0.203414
0.232645 0.279520 0.223270
0.261875 0.299375 0.243125
0.291105 0.319230 0.262980
0.320336 0.339086 0.282836
0.349566 0.358941 0.302691
0.378797 0.378797 0.322547
0.408027 0.398652 0.342402
0.437258 0.418508 0.362258
0.466488 0.438363 0.382113
0.495719 0.458219 0.401969
0.524949 0.478074 0.421824
0.554180 0.497930 0.441680
0.583410 0.517785 0.461535
0.612641 0.537641 0.481391
0.641871 0.557496 0.501246
0.213164 0.288164 0.222539
0.242395 0.308020 0.242395
0.271625 0.327875 0.262250
0.300855 0.347730 0.282105
0.330086 0.367586 0.301961
0.359316 0.387441 0.321816
0.388547 0.407297 0.341672
0.417777 0.427152 0.361527
0.447008 0.447008 0.381383
0.476238 0.466863 0.401238
0.505469 0.486719 0.421094
0.534699 0.506574 0.440949
0.563930 0.526430 0.460805
0.593160 0.546285 0.480660
0.622391 0.566141 0.500516
0.651621 0.585996 0.520371
0.680852 0.605852 0.540227
0.252145 0.336520 0.261520
0.281375 0.356375 0.281375
0.310605 0.376230 0.301230
0.339836 0.396086 0.321086
0.369066 0.415941 0.340941
0.398297 0.435797 0.360797
0.427527 0.455652 0.380652
0.456758 0.475508 0.400508
0.485988 0.495363 0.420363
0.515219 0.515219 0.440219
0.544449 0.535074 0.460074
0.573680 0.554930 0.479930
0.602910 0.574785 0.499785
0.632141 0.594641 0.519641
0.661371 0.614496 0.539496
0.690602 0.634352 0.559352
0.719832 0.654207 0.579207
0.291125 0.384875 0.300500
0.320355 0.404730 0.320355
0.349586 0.424586 0.340211
0.378816 0.444441 0.360066
0.408047 0.464297 0.379922
0.437277 0.484152 0.399777
0.466508 0.504008 0.419633
0.495738 0.523863 0.439488
0.524969 0.543719 0.459344
0.554199 0.563574 0.479199
0.583430 0.583430 0.499055
0.612660 0.603285 0.518910
0.641891 0.623141 0.538766
0.671121 0.642996 0.558621
0.700352 0.662852 0.578477
0.729582 0.682707 0.598332
0.758813 0.702562 0.618188
0.330105 0.433230 0.339480
0.359336 0.453086 0.359336
0.388566 0.472941 0.379191
0.417797 0.492797 0.399047
0.447027 0.512652 0.418902
0.476258 0.532508 0.438758
0.505488 0.552363 0.458613
0.534719 0.572219 0.478469
0.563949 0.592074 0.498324
0.593180 0.611930 0.518180
0.622410 0.631785 0.538035
0.651641 0.651641 0.557891
0.680871 0.671496 0.577746
0.710102 0.691352 0.597602
0.739332 0.711207 0.617457
0.768563 0.731063 0.637313
0.797793 0.750918 0.657168
0.369086 0.481586 0.378461
0.398316 0.501441 0.398316
0.427547 0.521297 0.418172
0.456777 0.541152 0.438027
0.486008 0.561008 0.457883
0.515238 0.580863 0.477738
0.544469 0.600719 0.497594
0.573699 0.620574 0.517449
0.602930 0.640430 0.537305
0.632160 0.660285 0.557160
0.661391 0.680141 0.577016
0.690621 0.699996 0.596871
0.719852 0.719852 0.616727
0.749082 0.739707 0.636582
0.778313 0.759563 0.656438
0.807543 0.779418 0.676293
0.836773 0.799273 0.696148
0.408066 0.529941 0.417441
0.437297 0.549797 0.437297
0.466527 0.569652 0.457152
0.495758 0.589508 0.477008
0.524988 0.609363 0.496863
0.554219 0.629219 0.516719
0.583449 0.649074 0.536574
0.612680 0.668930 0.556430
0.641910 0.688785 0.576285
0.671141 0.708641 0.596141
0.700371 0.728496 0.615996
0.729602 0.748352 0.635852
0.758832 0.768207 0.655707
0.788062 0.788062 0.675562
0.817293 0.807918 0.695418
0.846523 0.827773 0.715273
0.875754 0.847629 0.735129
0.447047 0.578297 0.456422
0.476277 0.598152 0.476277
0.505508 0.618008 0.496133
0.534738 0.637863 0.515988
0.563969 0.657719 0.535844
0.593199 0.677574 0.555699
0.622430 0.697430 0.575555
0.651660 0.717285 0.595410
0.680891 0.737141 0.615266
0.710121 0.756996 0.635121
0.739352 0.776852 0.654977
0.768582 0.796707 0.674832
0.797813 0.816563 0.694688
0.827043 0.836418 0.714543
0.856273 0.856273 0.734398
0.885504 0.876129 0.754254
0.914734 0.895984 0.774109
0.486027 0.626652 0.495402
0.515258 0.646508 0.515258
0.544488 0.666363 0.535113
0.573719 0.686219 0.554969
0.602949 0.706074 0.574824
0.632180 0.725930 0.594680
0.661410 0.745785 0.614535
0.690641 0.765641 0.634391
0.719871 0.785496 0.654246
0.749102 0.805352 0.674102
0.778332 0.825207 0.693957
0.807562 0.845062 0.713812
0.836793 0.864918 0.733668
0.866023 0.884773 0.753523
0.895254 0.904629 0.773379
0.924484 0.924484 0.793234
0.953715 0.944340 0.813090
0.525008 0.675008 0.534383
0.554238 0.694863 0.554238
0.583469 0.714719 0.574094
0.612699 0.734574 0.593949
0.641930 0.754430 0.613805
0.671160 0.774285 0.633660
0.700391 0.794141 0.653516
0.729621 0.813996 0.673371
0.758852 0.833852 0.693227
0.788082 0.853707 0.713082
0.817312 0.873563 0.732938
0.846543 0.893418 0.752793
0.875773 0.913273 0.772648
0.905004 0.933129 0.792504
0.934234 0.952984 0.812359
0.963465 0.972840 0.832215
0.992695 0.992695 0.852070
0.000000 0.000000 0.018750
0.009375 0.000000 0.018750
0.018750 0.000000 0.018750
0.028125 0.000000 0.018750
0.037500 0.000000 0.018750
0.055043 0.008168 0.026918
0.084273 0.028023 0.046773
0.113504 0.047879 0.066629
0.142734 0.067734 0.086484
0.171965 0.087590 0.106340
0.201195 0.107445 0.126195
0.230426 0.127301 0.146051
0.259656 0.147156 0.165906
0.288887 0.167012 0.185762
0.318117 0.186867 0.205617
0.347348 0.206723 0.225473
0.376578 0.226578 0.245328
0.000000 0.009375 0.018750
0.009375 0.009375 0.018750
0.018750 0.009375 0.018750
0.035562 0.016812 0.026187
0.064793 0.036668 0.046043
0.094023 0.056523 0.065898
0.123254 0.076379 0.085754
0.152484 0.096234 0.105609
0.181715 0.116090 0.125465
0.210945 0.135945 0.145320
0.240176 0.155801 0.165176
0.269406 0.175656 0.185031
0.298637 0.195512 0.204887
0.327867 0.215367 0.224742
0.357098 0.235223 0.244598
0.386328 0.255078 0.264453
0.415559 0.274934 0.284309
0.000000 0.018750 0.018750
0.016082 0.025457 0.025457
0.045312 0.045312 0.045312
0.074543 0.065168 0.065168
0.103773 0.085023 0.085023
0.133004 0.104879 0.104879
0.162234 0.124734 0.124734
0.191465 0.144590 0.144590
0.220695 0.164445 0.164445
0.249926 0.184301 0.184301
0.279156 0.204156 0.204156
0.308387 0.224012 0.224012
0.337617 0.243867 0.243867
0.366848 0.263723 0.263723
0.396078 0.283578 0.283578
0.425309 0.303434 0.303434
0.454539 0.323289 0.323289
0.025832 0.053957 0.044582
0.055063 0.073813 0.064438
0.084293 0.093668 0.084293
0.113523 0.113523 0.104148
0.142754 0.133379 0.124004
0.171984 0.153234 0.143859
0.201215 0.173090 0.163715
0.230445 0.192945 0.183570
0.259676 0.212801 0.203426
0.288906 0.232656 0.223281
0.318137 0.252512 0.243137
0.347367 0.272367 0.262992
0.376598 0.292223 0.282848
0.405828 0.312078 0.302703
0.435059 0.331934 0.322559
0.464289 0.351789 0.342414
0.493520 0.371645 0.362270
0.064813 0.102313 0.083563
0.094043 0.122168 0.103418
0.123273 0.142023 0.123273
0.152504 0.161879 0.143129
0.181734 0.181734 0.162984
0.210965 0.201590 0.182840
0.240195 0.221445 0.202695
0.269426 0.241301 0.222551
0.298656 0.261156 0.242406
0.327887 0.281012 0.262262
0.357117 0.300867 0.282117
0.386348 0.320723 0.301973
0.415578 0.340578 0.321828
0.444809 0.360434 0.341684
0.474039 0.380289 0.361539
0.503270 0.400145 0.381395
0.532500 0.420000 0.401250
0.103793 0.150668 0.122543
0.133023 0.170523 0.142398
0.162254 0.190379 0.162254
0.191484 0.210234 0.182109
0.220715 0.230090 0.201965
0.249945 0.249945 0.221820
0.279176 0.269801 0.241676
0.308406 0.289656 0.261531
0.337637 0.309512 0.281387
0.366867 0.329367 0.301242
0.396098 0.349223 0.321098
0.425328 0.369078 0.340953
0.454559 0.388934 0.360809
0.483789 0.408789 0.380664
0.513020 0.428645 0.400520
0.542250 0.448500 0.420375
0.571480 0.468355 0.440230
0.142773 0.199023 0.161523
0.172004 0.218879 0.181379
0.201234 0.238734 0.201234
0.230465 0.258590 0.221090
0.259695 0.278445 0.240945
0.288926 0.298301 0.260801
0.318156 0.318156 0.280656
0.347387 0.338012 0.300512
0.376617 0.357867 0.320367
0.405848 0.377723 0.340223
0.435078 0.397578 0.360078
0.464309 0.417434 0.379934
0.493539 0.437289 0.399789
0.522770 0.457145 0.419645
0.552000 0.477000 0.439500
0.581230 0.496855 0.459355
0.610461 0.516711 0.479211
0.181754 0.247379 0.200504
0.210984 0.267234 0.220359
0.240215 0.287090 0.240215
0.269445 0.306945 0.260070
0.298676 0.326801 0.279926
0.327906 0.346656 0.299781
0.357137 0.366512 0.319637
0.386367 0.386367 0.339492
0.415598 0.406223 0.359348
0.444828 0.426078 0.379203
0.474059 0.445934 0.399059
0.503289 0.465789 0.418914
0.532520 0.485645 0.438770
0.561750 0.505500 0.458625
0.590980 0.525355 0.478480
0.620211 0.545211 0.498336
0.649441 0.565066 0.518191
0.220734 0.295734 0.239484
0.249965 0.315590 0.259340
0.279195 0.335445 0.279195
0.308426 0.355301 0.299051
0.337656 0.375156 0.318906
0.366887 0.395012 0.338762
0.396117 0.414867 0.358617
0.425348 0.434723 0.378473
0.454578 0.454578 0.398328
0.483809 0.474434 0.418184
0.513039 0.494289 0.438039
0.542270 0.514145 0.457895
0.571500 0.534000 0.477750
0.600730 0.553855 0.497605
0.629961 0.573711 0.517461
0.659191 0.593566 0.537316
0.688422 0.613422 0.557172
0.259715 0.344090 0.278465
0.288945 0.363945 0.298320
0.318176 0.383801 0.318176
0.347406 0.403656 0.338031
0.376637 0.423512 0.357887
0.405867 0.443367 0.377742
0.435098 0.463223 0.397598
0.464328 0.483078 0.417453
0.493559 0.502934 0.437309
0.522789 0.522789 0.457164
0.552020 0.542645 0.477020
0.581250 0.562500 0.496875
0.610480 0.582355 0.516730
0.639711 0.602211 0.536586
0.668941 0.622066 0.556441
0.698172 0.641922 0.576297
0.727402 0.661777 0.596152
0.298695 0.392445 0.317445
0.327926 0.412301 0.337301
0.357156 0.432156 0.357156
0.386387 0.452012 0.377012
0.415617 0.471867 0.396867
0.444848 0.491723 0.416723
0.474078 0.511578 0.436578
0.503309 0.531434 0.456434
0.532539 0.551289 0.476289
0.561770 0.571145 0.496145
0.591000 0.591000 0.516000
0.620230 0.610855 0.535855
0.649461 0.630711 0.555711
0.678691 0.650566 0.575566
0.707922 0.670422 0.595422
0.737152 0.690277 0.615277
0.766383 0.710133 0.635133
0.337676 0.440801 0.356426
0.366906 0.460656 0.376281
0.396137 0.480512 0.396137
0.425367 0.500367 0.415992
0.454598 0.520223 0.435848
0.483828 0.540078 0.455703
0.513059 0.559934 0.475559
0.542289 0.579789 0.495414
0.571520 0.599645 0.515270
0.600750 0.619500 0.535125
0.629980 0.639355 0.554980
0.659211 0.659211 0.574836
0.688441 0.679066 0.594691
0.717672 0.698922 0.614547
0.746902 0.718777 0.634402
0.776133 0.738633 0.654258
0.805363 0.758488 0.674113
0.376656 0.489156 0.395406
0.405887 0.509012 0.415262
0.435117 0.528867 0.435117
0.464348 0.548723 0.454973
0.493578 0.568578 0.474828
0.522809 0.588434 0.494684
0.552039 0.608289 0.514539
0.581270 0.628145 0.534395
0.610500 0.648000 0.554250
0.639730 0.667855 0.574105
0.668961 0.687711 0.593961
0.698191 0.707566 0.613816
0.727422 0.727422 0.633672
0.756652 0.747277 0.653527
0.785883 0.767133 0.673383
0.815113 0.786988 0.693238
0.844344 0.806844 0.713094
0.415637 0.537512 0.434387
0.444867 0.557367 0.454242
0.474098 0.577223 0.474098
0.503328 0.597078 0.493953
0.532559 0.616934 0.513809
0.561789 0.636789 0.533664
0.591020 0.656645 0.553520
0.620250 0.676500 0.573375
0.649480 0.696355 0.593230
0.678711 0.716211 0.613086
0.707941 0.736066 0.632941
0.737172 0.755922 0.652797
0.766402 0.775777 0.672652
0.795633 0.795633 0.692508
0.824863 0.815488 0.712363
0.854094 0.835344 0.732219
0.883324 0.855199 0.752074
0.454617 0.585867 0.473367
0.483848 0.605723 0.493223
0.513078 0.625578 0.513078
0.542309 0.645434 0.532934
0.571539 0.665289 0.552789
0.600770 0.685145 0.572645
0.630000 0.705000 0.592500
0.659230 0.724855 0.612355
0.688461 0.744711 0.632211
0.717691 0.764566 0.652066
0.746922 0.784422 0.671922
0.776152 0.804277 0.691777
0.805383 0.824133 0.711633
0.834613 0.843988 0.731488
0.863844 0.863844 0.751344
0.893074 0.883699 0.771199
0.922305 0.903555 0.791055
0.493598 0.634223 0.512348
0.522828 0.654078 0.532203
0.552059 0.673934 0.552059
0.581289 0.693789 0.571914
0.610520 0.713645 0.591770
0.639750 0.733500 0.611625
0.668980 0.753355 0.631480
0.698211 0.773211 0.651336
0.727441 0.793066 0.671191
0.756672 0.812922 0.691047
0.785902 0.832777 0.710902
0.815133 0.852633 0.730758
0.844363 0.872488 0.750613
0.873594 0.892344 0.770469
0.902824 0.912199 0.790324
0.932055 0.932055 0.810180
0.961285 0.951910 0.830035
0.532578 0.682578 0.551328
0.561809 0.702434 0.571184
0.591039 0.722289 0.591039
0.620270 0.742145 0.610895
0.649500 0.762000 0.630750
0.678730 0.781855 0.650605
0.707961 0.801711 0.670461
0.737191 0.821566 0.690316
0.766422 0.841422 0.710172
0.795652 0.861277 0.730027
0.824883 0.881133 0.749883
0.854113 0.900988 0.769738
0.883344 0.920844 0.789594
0.912574 0.940699 0.809449
0.941805 0.960555 0.829305
0.971035 0.980410 0.849160
1.000000 1.000000 0.868750
0.000000 0.000000 0.028125
0.009375 0.000000 0.028125
0.018750 0.000000 0.028125
0.028125 0.000000 0.028125
0.037500 0.000000 0.028125
0.062613 0.015738 0.043863
0.091844 0.035594 0.063719
0.121074 0.055449 0.083574
0.150305 0.075305 0.103430
0.179535 0.095160 0.123285
0.208766 0.115016 0.143141
0.237996 0.134871 0.162996
0.267227 0.154727 0.182852
0.296457 0.174582 0.202707
0.325687 0.194437 0.222562
0.354918 0.214293 0.242418
0.384148 0.234148 0.262273
0.000000 0.009375 0.028125
