public/luts/noir.cube
TITLE "OXXOVO noir"
LUT_3D_SIZE 9
DOMAIN_MIN 0.0 0.0 0.0
DOMAIN_MAX 1.0 1.0 1.0
0.000000 0.000000 0.000000
0.018750 0.000000 0.000000
0.037500 0.000000 0.000000
0.069133 0.012883 0.012883
0.127594 0.052594 0.052594
0.186055 0.092305 0.092305
0.244516 0.132016 0.132016
0.302977 0.171727 0.171727
0.361437 0.211437 0.211437
0.000000 0.018750 0.000000
0.030172 0.030172 0.011422
0.088633 0.069883 0.051133
0.147094 0.109594 0.090844
0.205555 0.149305 0.130555
0.264016 0.189016 0.170266
0.322477 0.228727 0.209977
0.380937 0.268437 0.249687
0.439398 0.308148 0.289398
0.049672 0.087172 0.049672
0.108133 0.126883 0.089383
0.166594 0.166594 0.129094
0.225055 0.206305 0.168805
0.283516 0.246016 0.208516
0.341977 0.285727 0.248227
0.400438 0.325437 0.287938
0.458898 0.365148 0.327648
0.517359 0.404859 0.367359
0.127633 0.183883 0.127633
0.186094 0.223594 0.167344
0.244555 0.263305 0.207055
0.303016 0.303016 0.246766
0.361477 0.342727 0.286477
0.419937 0.382437 0.326187
0.478398 0.422148 0.365898
0.536859 0.461859 0.405609
0.595320 0.501570 0.445320
0.205594 0.280594 0.205594
0.264055 0.320305 0.245305
0.322516 0.360016 0.285016
0.380977 0.399727 0.324727
0.439437 0.439437 0.364437
0.497898 0.479148 0.404148
0.556359 0.518859 0.443859
0.614820 0.558570 0.483570
0.673281 0.598281 0.523281
0.283555 0.377305 0.283555
0.342016 0.417016 0.323266
0.400477 0.456727 0.362977
0.458937 0.496437 0.402687
0.517398 0.536148 0.442398
0.575859 0.575859 0.482109
0.634320 0.615570 0.521820
0.692781 0.655281 0.561531
0.751242 0.694992 0.601242
0.361516 0.474016 0.361516
0.419977 0.513727 0.401227
0.478438 0.553438 0.440938
0.536898 0.593148 0.480648
0.595359 0.632859 0.520359
0.653820 0.672570 0.560070
0.712281 0.712281 0.599781
0.770742 0.751992 0.639492
0.829203 0.791703 0.679203
0.439477 0.570727 0.439477
0.497938 0.610438 0.479188
0.556398 0.650148 0.518898
0.614859 0.689859 0.558609
0.673320 0.729570 0.598320
0.731781 0.769281 0.638031
0.790242 0.808992 0.677742
0.848703 0.848703 0.717453
0.907164 0.888414 0.757164
0.517437 0.667437 0.517437
0.575898 0.707148 0.557148
0.634359 0.746859 0.596859
0.692820 0.786570 0.636570
0.751281 0.826281 0.676281
0.809742 0.865992 0.715992
0.868203 0.905703 0.755703
0.926664 0.945414 0.795414
0.985125 0.985125 0.835125
0.000000 0.000000 0.018750
0.018750 0.000000 0.018750
0.037500 0.000000 0.018750
0.084273 0.028023 0.046773
0.142734 0.067734 0.086484
0.201195 0.107445 0.126195
0.259656 0.147156 0.165906
0.318117 0.186867 0.205617
0.376578 0.226578 0.245328
0.000000 0.018750 0.018750
0.045312 0.045312 0.045312
0.103773 0.085023 0.085023
0.162234 0.124734 0.124734
0.220695 0.164445 0.164445
0.279156 0.204156 0.204156
0.337617 0.243867 0.243867
0.396078 0.283578 0.283578
0.454539 0.323289 0.323289
0.064813 0.102313 0.083563
0.123273 0.142023 0.123273
0.181734 0.181734 0.162984
0.240195 0.221445 0.202695
0.298656 0.261156 0.242406
0.357117 0.300867 0.282117
0.415578 0.340578 0.321828
0.474039 0.380289 0.361539
0.532500 0.420000 0.401250
0.142773 0.199023 0.161523
0.201234 0.238734 0.201234
0.259695 0.278445 0.240945
0.318156 0.318156 0.280656
0.376617 0.357867 0.320367
0.435078 0.397578 0.360078
0.493539 0.437289 0.399789
0.552000 0.477000 0.439500
0.610461 0.516711 0.479211
0.220734 0.295734 0.239484
0.279195 0.335445 0.279195
0.337656 0.375156 0.318906
0.396117 0.414867 0.358617
0.454578 0.454578 0.398328
0.513039 0.494289 0.438039
0.571500 0.534000 0.477750
0.629961 0.573711 0.517461
0.688422 0.613422 0.557172
0.298695 0.392445 0.317445
0.357156 0.432156 0.357156
0.415617 0.471867 0.396867
0.474078 0.511578 0.436578
0.532539 0.551289 0.476289
0.591000 0.591000 0.516000
0.649461 0.630711 0.555711
0.707922 0.670422 0.595422
0.766383 0.710133 0.635133
0.376656 0.489156 0.395406
0.435117 0.528867 0.435117
0.493578 0.568578 0.474828
0.552039 0.608289 0.514539
0.610500 0.648000 0.554250
0.668961 0.687711 0.593961
0.727422 0.727422 0.633672
0.785883 0.767133 0.673383
0.844344 0.806844 0.713094
0.454617 0.585867 0.473367
0.513078 0.625578 0.513078
0.571539 0.665289 0.552789
0.630000 0.705000 0.592500
0.688461 0.744711 0.632211
0.746922 0.784422 0.671922
0.805383 0.824133 0.711633
0.863844 0.863844 0.751344
0.922305 0.903555 0.791055
0.532578 0.682578 0.551328
0.591039 0.722289 0.591039
0.649500 0.762000 0.630750
0.707961 0.801711 0.670461
0.766422 0.841422 0.710172
0.824883 0.881133 0.749883
0.883344 0.920844 0.789594
0.941805 0.960555 0.829305
1.000000 1.000000 0.868750
0.000000 0.000000 0.037500
0.018750 0.000000 0.037500
0.040953 0.003453 0.040953
0.099414 0.043164 0.080664
0.157875 0.082875 0.120375
0.216336 0.122586 0.160086
0.274797 0.162297 0.199797
0.333258 0.202008 0.239508
0.391719 0.241719 0.279219
0.001992 0.020742 0.039492
0.060453 0.060453 0.079203
0.118914 0.100164 0.118914
0.177375 0.139875 0.158625
0.235836 0.179586 0.198336
0.294297 0.219297 0.238047
0.352758 0.259008 0.277758
0.411219 0.298719 0.317469
0.469680 0.338430 0.357180
0.079953 0.117453 0.117453
0.138414 0.157164 0.157164
0.196875 0.196875 0.196875
0.255336 0.236586 0.236586
0.313797 0.276297 0.276297
0.372258 0.316008 0.316008
0.430719 0.355719 0.355719
0.489180 0.395430 0.395430
0.547641 0.435141 0.435141
0.157914 0.214164 0.195414
0.216375 0.253875 0.235125
0.274836 0.293586 0.274836
0.333297 0.333297 0.314547
0.391758 0.373008 0.354258
0.450219 0.412719 0.393969
0.508680 0.452430 0.433680
0.567141 0.492141 0.473391
0.625602 0.531852 0.513102
0.235875 0.310875 0.273375
0.294336 0.350586 0.313086
0.352797 0.390297 0.352797
0.411258 0.430008 0.392508
0.469719 0.469719 0.432219
0.528180 0.509430 0.471930
0.586641 0.549141 0.511641
0.645102 0.588852 0.551352
0.703562 0.628562 0.591062
0.313836 0.407586 0.351336
0.372297 0.447297 0.391047
0.430758 0.487008 0.430758
0.489219 0.526719 0.470469
0.547680 0.566430 0.510180
0.606141 0.606141 0.549891
0.664602 0.645852 0.589602
0.723062 0.685562 0.629312
0.781523 0.725273 0.669023
0.391797 0.504297 0.429297
0.450258 0.544008 0.469008
0.508719 0.583719 0.508719
0.567180 0.623430 0.548430
0.625641 0.663141 0.588141
0.684102 0.702852 0.627852
0.742563 0.742563 0.667562
0.801023 0.782273 0.707273
0.859484 0.821984 0.746984
0.469758 0.601008 0.507258
0.528219 0.640719 0.546969
0.586680 0.680430 0.586680
0.645141 0.720141 0.626391
0.703602 0.759852 0.666102
0.762062 0.799562 0.705812
0.820523 0.839273 0.745523
0.878984 0.878984 0.785234
0.937445 0.918695 0.824945
0.547719 0.697719 0.585219
0.606180 0.737430 0.624930
0.664641 0.777141 0.664641
0.723102 0.816852 0.704352
0.781562 0.856562 0.744062
0.840023 0.896273 0.783773
0.898484 0.935984 0.823484
0.956945 0.975695 0.863195
1.000000 1.000000 0.887500
0.000000 0.000000 0.056250
0.018750 0.000000 0.056250
0.056094 0.018594 0.074844
0.114555 0.058305 0.114555
0.173016 0.098016 0.154266
0.231477 0.137727 0.193977
0.289937 0.177437 0.233687
0.348398 0.217148 0.273398
0.406859 0.256859 0.313109
0.017133 0.035883 0.073383
0.075594 0.075594 0.113094
0.134055 0.115305 0.152805
0.192516 0.155016 0.192516
0.250977 0.194727 0.232227
0.309437 0.234437 0.271937
0.367898 0.274148 0.311648
0.426359 0.313859 0.351359
0.484820 0.353570 0.391070
0.095094 0.132594 0.151344
0.153555 0.172305 0.191055
0.212016 0.212016 0.230766
0.270477 0.251727 0.270477
0.328937 0.291437 0.310187
0.387398 0.331148 0.349898
0.445859 0.370859 0.389609
0.504320 0.410570 0.429320
0.562781 0.450281 0.469031
0.173055 0.229305 0.229305
0.231516 0.269016 0.269016
0.289977 0.308727 0.308727
0.348437 0.348437 0.348437
0.406898 0.388148 0.388148
0.465359 0.427859 0.427859
0.523820 0.467570 0.467570
0.582281 0.507281 0.507281
0.640742 0.546992 0.546992
0.251016 0.326016 0.307266
0.309477 0.365727 0.346977
0.367937 0.405438 0.386687
0.426398 0.445148 0.426398
0.484859 0.484859 0.466109
0.543320 0.524570 0.505820
0.601781 0.564281 0.545531
0.660242 0.603992 0.585242
0.718703 0.643703 0.624953
0.328977 0.422727 0.385227
0.387437 0.462437 0.424937
0.445898 0.502148 0.464648
0.504359 0.541859 0.504359
0.562820 0.581570 0.544070
0.621281 0.621281 0.583781
0.679742 0.660992 0.623492
0.738203 0.700703 0.663203
0.796664 0.740414 0.702914
0.406938 0.519437 0.463187
0.465398 0.559148 0.502898
0.523859 0.598859 0.542609
0.582320 0.638570 0.582320
0.640781 0.678281 0.622031
0.699242 0.717992 0.661742
0.757703 0.757703 0.701453
0.816164 0.797414 0.741164
0.874625 0.837125 0.780875
0.484898 0.616148 0.541148
0.543359 0.655859 0.580859
0.601820 0.695570 0.620570
0.660281 0.735281 0.660281
0.718742 0.774992 0.699992
0.777203 0.814703 0.739703
0.835664 0.854414 0.779414
0.894125 0.894125 0.819125
0.952586 0.933836 0.858836
0.562859 0.712859 0.619109
0.621320 0.752570 0.658820
0.679781 0.792281 0.698531
0.738242 0.831992 0.738242
0.796703 0.871703 0.777953
0.855164 0.911414 0.817664
0.913625 0.951125 0.857375
0.972086 0.990836 0.897086
1.000000 1.000000 0.906250
0.000000 0.000000 0.075000
0.018750 0.000000 0.075000
0.071234 0.033734 0.108734
0.129695 0.073445 0.148445
0.188156 0.113156 0.188156
0.246617 0.152867 0.227867
0.305078 0.192578 0.267578
0.363539 0.232289 0.307289
0.422000 0.272000 0.347000
0.032273 0.051023 0.107273
0.090734 0.090734 0.146984
0.149195 0.130445 0.186695
0.207656 0.170156 0.226406
0.266117 0.209867 0.266117
0.324578 0.249578 0.305828
0.383039 0.289289 0.345539
0.441500 0.329000 0.385250
0.499961 0.368711 0.424961
0.110234 0.147734 0.185234
0.168695 0.187445 0.224945
0.227156 0.227156 0.264656
0.285617 0.266867 0.304367
0.344078 0.306578 0.344078
0.402539 0.346289 0.383789
0.461000 0.386000 0.423500
0.519461 0.425711 0.463211
0.577922 0.465422 0.502922
0.188195 0.244445 0.263195
0.246656 0.284156 0.302906
0.305117 0.323867 0.342617
0.363578 0.363578 0.382328
0.422039 0.403289 0.422039
0.480500 0.443000 0.461750
0.538961 0.482711 0.501461
0.597422 0.522422 0.541172
0.655883 0.562133 0.580883
0.266156 0.341156 0.341156
0.324617 0.380867 0.380867
0.383078 0.420578 0.420578
0.441539 0.460289 0.460289
0.500000 0.500000 0.500000
0.558461 0.539711 0.539711
0.616922 0.579422 0.579422
0.675383 0.619133 0.619133
0.733844 0.658844 0.658844
0.344117 0.437867 0.419117
0.402578 0.477578 0.458828
0.461039 0.517289 0.498539
0.519500 0.557000 0.538250
0.577961 0.596711 0.577961
0.636422 0.636422 0.617672
0.694883 0.676133 0.657383
0.753344 0.715844 0.697094
0.811805 0.755555 0.736805
0.422078 0.534578 0.497078
0.480539 0.574289 0.536789
0.539000 0.614000 0.576500
0.597461 0.653711 0.616211
0.655922 0.693422 0.655922
0.714383 0.733133 0.695633
0.772844 0.772844 0.735344
0.831305 0.812555 0.775055
0.889766 0.852266 0.814766
0.500039 0.631289 0.575039
0.558500 0.671000 0.614750
0.616961 0.710711 0.654461
0.675422 0.750422 0.694172
0.733883 0.790133 0.733883
0.792344 0.829844 0.773594
0.850805 0.869555 0.813305
0.909266 0.909266 0.853016
0.967727 0.948977 0.892727
0.578000 0.728000 0.653000
0.636461 0.767711 0.692711
0.694922 0.807422 0.732422
0.753383 0.847133 0.772133
0.811844 0.886844 0.811844
0.870305 0.926555 0.851555
0.928766 0.966266 0.891266
0.981250 1.000000 0.925000
1.000000 1.000000 0.925000
0.000000 0.000000 0.093750
0.027914 0.009164 0.102914
0.086375 0.048875 0.142625
0.144836 0.088586 0.182336
0.203297 0.128297 0.222047
0.261758 0.168008 0.261758
0.320219 0.207719 0.301469
0.378680 0.247430 0.341180
0.437141 0.287141 0.380891
0.047414 0.066164 0.141164
0.105875 0.105875 0.180875
0.164336 0.145586 0.220586
0.222797 0.185297 0.260297
0.281258 0.225008 0.300008
0.339719 0.264719 0.339719
0.398180 0.304430 0.379430
0.456641 0.344141 0.419141
0.515102 0.383852 0.458852
0.125375 0.162875 0.219125
0.183836 0.202586 0.258836
0.242297 0.242297 0.298547
0.300758 0.282008 0.338258
0.359219 0.321719 0.377969
0.417680 0.361430 0.417680
0.476141 0.401141 0.457391
0.534602 0.440852 0.497102
0.593062 0.480562 0.536812
0.203336 0.259586 0.297086
0.261797 0.299297 0.336797
0.320258 0.339008 0.376508
0.378719 0.378719 0.416219
0.437180 0.418430 0.455930
0.495641 0.458141 0.495641
0.554102 0.497852 0.535352
0.612563 0.537563 0.575063
0.671023 0.577273 0.614773
0.281297 0.356297 0.375047
0.339758 0.396008 0.414758
0.398219 0.435719 0.454469
0.456680 0.475430 0.494180
0.515141 0.515141 0.533891
0.573602 0.554852 0.573602
0.632062 0.594562 0.613312
0.690523 0.634273 0.653023
0.748984 0.673984 0.692734
0.359258 0.453008 0.453008
0.417719 0.492719 0.492719
0.476180 0.532430 0.532430
0.534641 0.572141 0.572141
0.593102 0.611852 0.611852
0.651562 0.651562 0.651562
0.710023 0.691273 0.691273
0.768484 0.730984 0.730984
0.826945 0.770695 0.770695
0.437219 0.549719 0.530969
0.495680 0.589430 0.570680
0.554141 0.629141 0.610391
0.612602 0.668852 0.650102
0.671063 0.708562 0.689813
0.729523 0.748273 0.729523
0.787984 0.787984 0.769234
0.846445 0.827695 0.808945
0.904906 0.867406 0.848656
0.515180 0.646430 0.608930
0.573641 0.686141 0.648641
0.632102 0.725852 0.688352
0.690563 0.765563 0.728063
0.749023 0.805273 0.767773
0.807484 0.844984 0.807484
0.865945 0.884695 0.847195
0.924406 0.924406 0.886906
0.982867 0.964117 0.926617
0.593141 0.743141 0.686891
0.651602 0.782852 0.726602
0.710062 0.822562 0.766312
0.768523 0.862273 0.806023
0.826984 0.901984 0.845734
0.885445 0.941695 0.885445
0.943906 0.981406 0.925156
0.981250 1.000000 0.943750
1.000000 1.000000 0.943750
0.000000 0.000000 0.112500
0.043055 0.024305 0.136805
0.101516 0.064016 0.176516
0.159977 0.103727 0.216227
0.218437 0.143437 0.255937
0.276898 0.183148 0.295648
0.335359 0.222859 0.335359
0.393820 0.262570 0.375070
0.452281 0.302281 0.414781
0.062555 0.081305 0.175055
0.121016 0.121016 0.214766
0.179477 0.160727 0.254477
0.237937 0.200437 0.294187
0.296398 0.240148 0.333898
0.354859 0.279859 0.373609
0.413320 0.319570 0.413320
0.471781 0.359281 0.453031
0.530242 0.398992 0.492742
0.140516 0.178016 0.253016
0.198977 0.217727 0.292727
0.257437 0.257437 0.332437
0.315898 0.297148 0.372148
0.374359 0.336859 0.411859
0.432820 0.376570 0.451570
0.491281 0.416281 0.491281
0.549742 0.455992 0.530992
0.608203 0.495703 0.570703
0.218477 0.274727 0.330977
0.276938 0.314438 0.370688
0.335398 0.354148 0.410398
0.393859 0.393859 0.450109
0.452320 0.433570 0.489820
0.510781 0.473281 0.529531
0.569242 0.512992 0.569242
0.627703 0.552703 0.608953
0.686164 0.592414 0.648664
0.296438 0.371438 0.408938
0.354898 0.411148 0.448648
0.413359 0.450859 0.488359
0.471820 0.490570 0.528070
0.530281 0.530281 0.567781
0.588742 0.569992 0.607492
0.647203 0.609703 0.647203
0.705664 0.649414 0.686914
0.764125 0.689125 0.726625
0.374398 0.468148 0.486898
0.432859 0.507859 0.526609
0.491320 0.547570 0.566320
0.549781 0.587281 0.606031
0.608242 0.626992 0.645742
0.666703 0.666703 0.685453
0.725164 0.706414 0.725164
0.783625 0.746125 0.764875
0.842086 0.785836 0.804586
0.452359 0.564859 0.564859
0.510820 0.604570 0.604570
0.569281 0.644281 0.644281
0.627742 0.683992 0.683992
0.686203 0.723703 0.723703
0.744664 0.763414 0.763414
0.803125 0.803125 0.803125
0.861586 0.842836 0.842836
0.920047 0.882547 0.882547
0.530320 0.661570 0.642820
0.588781 0.701281 0.682531
0.647242 0.740992 0.722242
0.705703 0.780703 0.761953
0.764164 0.820414 0.801664
0.822625 0.860125 0.841375
0.881086 0.899836 0.881086
0.939547 0.939547 0.920797
0.998008 0.979258 0.960508
0.608281 0.758281 0.720781
0.666742 0.797992 0.760492
0.725203 0.837703 0.800203
0.783664 0.877414 0.839914
0.842125 0.917125 0.879625
0.900586 0.956836 0.919336
0.959047 0.996547 0.959047
0.981250 1.000000 0.962500
1.000000 1.000000 0.962500
0.000000 0.000000 0.131250
0.058195 0.039445 0.170695
0.116656 0.079156 0.210406
0.175117 0.118867 0.250117
0.233578 0.158578 0.289828
0.292039 0.198289 0.329539
0.350500 0.238000 0.369250
0.408961 0.277711 0.408961
0.467422 0.317422 0.448672
0.077695 0.096445 0.208945
0.136156 0.136156 0.248656
0.194617 0.175867 0.288367
0.253078 0.215578 0.328078
0.311539 0.255289 0.367789
0.370000 0.295000 0.407500
0.428461 0.334711 0.447211
0.486922 0.374422 0.486922
0.545383 0.414133 0.526633
0.155656 0.193156 0.286906
0.214117 0.232867 0.326617
0.272578 0.272578 0.366328
0.331039 0.312289 0.406039
0.389500 0.352000 0.445750
0.447961 0.391711 0.485461
0.506422 0.431422 0.525172
0.564883 0.471133 0.564883
0.623344 0.510844 0.604594
0.233617 0.289867 0.364867
0.292078 0.329578 0.404578
0.350539 0.369289 0.444289
0.409000 0.409000 0.484000
0.467461 0.448711 0.523711
0.525922 0.488422 0.563422
0.584383 0.528133 0.603133
0.642844 0.567844 0.642844
0.701305 0.607555 0.682555
0.311578 0.386578 0.442828
0.370039 0.426289 0.482539
0.428500 0.466000 0.522250
0.486961 0.505711 0.561961
0.545422 0.545422 0.601672
0.603883 0.585133 0.641383
0.662344 0.624844 0.681094
0.720805 0.664555 0.720805
0.779266 0.704266 0.760516
0.389539 0.483289 0.520789
0.448000 0.523000 0.560500
0.506461 0.562711 0.600211
0.564922 0.602422 0.639922
0.623383 0.642133 0.679633
0.681844 0.681844 0.719344
0.740305 0.721555 0.759055
0.798766 0.761266 0.798766
0.857227 0.800977 0.838477
0.467500 0.580000 0.598750
0.525961 0.619711 0.638461
0.584422 0.659422 0.678172
0.642883 0.699133 0.717883
0.701344 0.738844 0.757594
0.759805 0.778555 0.797305
0.818266 0.818266 0.837016
0.876727 0.857977 0.876727
0.935187 0.897687 0.916437
0.545461 0.676711 0.676711
0.603922 0.716422 0.716422
0.662383 0.756133 0.756133
0.720844 0.795844 0.795844
0.779305 0.835555 0.835555
0.837766 0.875266 0.875266
0.896227 0.914977 0.914977
0.954687 0.954687 0.954687
1.000000 0.981250 0.981250
0.623422 0.773422 0.754672
0.681883 0.813133 0.794383
0.740344 0.852844 0.834094
0.798805 0.892555 0.873805
0.857266 0.932266 0.913516
0.915727 0.971977 0.953227
0.962500 1.000000 0.981250
0.981250 1.000000 0.981250
1.000000 1.000000 0.981250
0.014875 0.014875 0.164875
0.073336 0.054586 0.204586
0.131797 0.094297 0.244297
0.190258 0.134008 0.284008
0.248719 0.173719 0.323719
0.307180 0.213430 0.363430
0.365641 0.253141 0.403141
0.424102 0.292852 0.442852
0.482563 0.332562 0.482563
0.092836 0.111586 0.242836
0.151297 0.151297 0.282547
0.209758 0.191008 0.322258
0.268219 0.230719 0.361969
0.326680 0.270430 0.401680
0.385141 0.310141 0.441391
0.443602 0.349852 0.481102
0.502062 0.389562 0.520812
0.560523 0.429273 0.560523
0.170797 0.208297 0.320797
0.229258 0.248008 0.360508
0.287719 0.287719 0.400219
0.346180 0.327430 0.439930
0.404641 0.367141 0.479641
0.463102 0.406852 0.519352
0.521562 0.446562 0.559062
0.580023 0.486273 0.598773
0.638484 0.525984 0.638484
0.248758 0.305008 0.398758
0.307219 0.344719 0.438469
0.365680 0.384430 0.478180
0.424141 0.424141 0.517891
0.482602 0.463852 0.557602
0.541063 0.503563 0.597313
0.599523 0.543273 0.637023
0.657984 0.582984 0.676734
0.716445 0.622695 0.716445
0.326719 0.401719 0.476719
0.385180 0.441430 0.516430
0.443641 0.481141 0.556141
0.502102 0.520852 0.595852
0.560562 0.560562 0.635562
0.619023 0.600273 0.675273
0.677484 0.639984 0.714984
0.735945 0.679695 0.754695
0.794406 0.719406 0.794406
0.404680 0.498430 0.554680
0.463141 0.538141 0.594391
0.521602 0.577852 0.634102
0.580062 0.617562 0.673812
0.638523 0.657273 0.713523
0.696984 0.696984 0.753234
0.755445 0.736695 0.792945
0.813906 0.776406 0.832656
0.872367 0.816117 0.872367
0.482641 0.595141 0.632641
0.541102 0.634852 0.672352
0.599562 0.674562 0.712063
0.658023 0.714273 0.751773
0.716484 0.753984 0.791484
0.774945 0.793695 0.831195
0.833406 0.833406 0.870906
0.891867 0.873117 0.910617
0.950328 0.912828 0.950328
0.560602 0.691852 0.710602
0.619063 0.731563 0.750313
0.677523 0.771273 0.790023
0.735984 0.810984 0.829734
0.794445 0.850695 0.869445
0.852906 0.890406 0.909156
0.911367 0.930117 0.948867
0.969828 0.969828 0.988578
1.000000 0.981250 1.000000
0.638562 0.788562 0.788562
0.697023 0.828273 0.828273
0.755484 0.867984 0.867984
0.813945 0.907695 0.907695
0.872406 0.947406 0.947406
0.930867 0.987117 0.987117
0.962500 1.000000 1.000000
0.981250 1.000000 1.000000
1.000000 1.000000 1.000000
