public/luts/teal_orange.cube
TITLE "OXXOVO teal_orange"
LUT_3D_SIZE 5
DOMAIN_MIN 0.0 0.0 0.0
DOMAIN_MAX 1.0 1.0 1.0
0.000000 0.020000 0.100000
0.211212 0.017757 0.087293
0.472425 0.015515 0.074585
0.733638 0.013272 0.061878
0.994850 0.011030 0.049170
0.000000 0.265597 0.075053
0.233225 0.263355 0.062345
0.494438 0.261113 0.049638
0.755650 0.258870 0.036930
1.000000 0.256628 0.024223
0.000000 0.511195 0.050105
0.255238 0.508952 0.037398
0.516450 0.506710 0.024690
0.777663 0.504468 0.011983
1.000000 0.502225 0.000000
0.016038 0.756792 0.025157
0.277250 0.754550 0.012450
0.538462 0.752308 0.000000
0.799675 0.750065 0.000000
1.000000 0.747822 0.000000
0.038050 1.000000 0.000210
0.299262 1.000000 0.000000
0.560475 0.997905 0.000000
0.821688 0.995663 0.000000
1.000000 0.993420 0.000000
0.000000 0.019145 0.345155
0.215488 0.016903 0.332448
0.476700 0.014660 0.319740
0.737913 0.012417 0.307032
0.999125 0.010175 0.294325
0.000000 0.264742 0.320208
0.237500 0.262500 0.307500
0.498713 0.260257 0.294793
0.759925 0.258015 0.282085
1.000000 0.255773 0.269377
0.000000 0.510340 0.295260
0.259513 0.508097 0.282553
0.520725 0.505855 0.269845
0.781938 0.503613 0.257138
1.000000 0.501370 0.244430
0.020312 0.755938 0.270312
0.281525 0.753695 0.257605
0.542737 0.751452 0.244898
0.803950 0.749210 0.232190
1.000000 0.746968 0.219482
0.042325 1.000000 0.245365
0.303538 0.999292 0.232658
0.564750 0.997050 0.219950
0.825963 0.994807 0.207242
1.000000 0.992565 0.194535
0.000000 0.018290 0.590310
0.219762 0.016047 0.577603
0.480975 0.013805 0.564895
0.742188 0.011562 0.552188
1.000000 0.009320 0.539480
0.000000 0.263887 0.565363
0.241775 0.261645 0.552655
0.502988 0.259402 0.539948
0.764200 0.257160 0.527240
1.000000 0.254917 0.514533
0.002575 0.509485 0.540415
0.263787 0.507243 0.527708
0.525000 0.505000 0.515000
0.786212 0.502757 0.502293
1.000000 0.500515 0.489585
0.024587 0.755082 0.515467
0.285800 0.752840 0.502760
0.547013 0.750598 0.490053
0.808225 0.748355 0.477345
1.000000 0.746113 0.464638
0.046600 1.000000 0.490520
0.307813 0.998437 0.477812
0.569025 0.996195 0.465105
0.830238 0.993952 0.452397
1.000000 0.991710 0.439690
0.000000 0.017435 0.835465
0.224038 0.015193 0.822758
0.485250 0.012950 0.810050
0.746463 0.010708 0.797342
1.000000 0.008465 0.784635
0.000000 0.263033 0.810518
0.246050 0.260790 0.797810
0.507262 0.258548 0.785103
0.768475 0.256305 0.772395
1.000000 0.254063 0.759687
0.006850 0.508630 0.785570
0.268062 0.506387 0.772863
0.529275 0.504145 0.760155
0.790488 0.501903 0.747448
1.000000 0.499660 0.734740
0.028862 0.754227 0.760623
0.290075 0.751985 0.747915
0.551288 0.749742 0.735208
0.812500 0.747500 0.722500
1.000000 0.745258 0.709793
0.050875 0.999825 0.735675
0.312087 0.997583 0.722968
0.573300 0.995340 0.710260
0.834512 0.993097 0.697553
1.000000 0.990855 0.684845
0.000000 0.016580 1.000000
0.228312 0.014337 1.000000
0.489525 0.012095 1.000000
0.750737 0.009853 1.000000
1.000000 0.007610 1.000000
0.000000 0.262178 1.000000
0.250325 0.259935 1.000000
0.511537 0.257692 1.000000
0.772750 0.255450 1.000000
1.000000 0.253208 1.000000
0.011125 0.507775 1.000000
0.272338 0.505533 1.000000
0.533550 0.503290 1.000000
0.794762 0.501047 0.992603
1.000000 0.498805 0.979895
0.033138 0.753373 1.000000
0.294350 0.751130 0.993070
0.555562 0.748887 0.980363
0.816775 0.746645 0.967655
1.000000 0.744402 0.954947
0.055150 0.998970 0.980830
0.316362 0.996728 0.968122
0.577575 0.994485 0.955415
0.838788 0.992243 0.942707
1.000000 0.990000 0.930000
