public/luts/teal_orange.cube
TITLE "OXXOVO teal_orange"
LUT_3D_SIZE 9
DOMAIN_MIN 0.0 0.0 0.0
DOMAIN_MAX 1.0 1.0 1.0
0.000000 0.020000 0.100000
0.080606 0.018879 0.093646
0.211212 0.017757 0.087293
0.341819 0.016636 0.080939
0.472425 0.015515 0.074585
0.603031 0.014394 0.068231
0.733638 0.013272 0.061878
0.864244 0.012151 0.055524
0.994850 0.011030 0.049170
0.000000 0.142799 0.087526
0.091612 0.141677 0.081173
0.222219 0.140556 0.074819
0.352825 0.139435 0.068465
0.483431 0.138314 0.062111
0.614038 0.137192 0.055758
0.744644 0.136071 0.049404
0.875250 0.134950 0.043050
1.000000 0.133829 0.036696
0.000000 0.265597 0.075053
0.102619 0.264476 0.068699
0.233225 0.263355 0.062345
0.363831 0.262234 0.055991
0.494438 0.261113 0.049638
0.625044 0.259991 0.043284
0.755650 0.258870 0.036930
0.886256 0.257749 0.030576
1.000000 0.256628 0.024223
0.000000 0.388396 0.062579
0.113625 0.387275 0.056225
0.244231 0.386154 0.049871
0.374837 0.385032 0.043518
0.505444 0.383911 0.037164
0.636050 0.382790 0.030810
0.766656 0.381669 0.024456
0.897262 0.380548 0.018103
1.000000 0.379426 0.011749
0.000000 0.511195 0.050105
0.124631 0.510074 0.043751
0.255238 0.508952 0.037398
0.385844 0.507831 0.031044
0.516450 0.506710 0.024690
0.647056 0.505589 0.018336
0.777663 0.504468 0.011983
0.908269 0.503346 0.005629
1.000000 0.502225 0.000000
0.005031 0.633994 0.037631
0.135637 0.632873 0.031277
0.266244 0.631751 0.024924
0.396850 0.630630 0.018570
0.527456 0.629509 0.012216
0.658062 0.628387 0.005863
0.788669 0.627266 0.000000
0.919275 0.626145 0.000000
1.000000 0.625024 0.000000
0.016038 0.756792 0.025157
0.146644 0.755671 0.018804
0.277250 0.754550 0.012450
0.407856 0.753429 0.006096
0.538462 0.752308 0.000000
0.669069 0.751186 0.000000
0.799675 0.750065 0.000000
0.930281 0.748944 0.000000
1.000000 0.747822 0.000000
0.027044 0.879591 0.012684
0.157650 0.878470 0.006330
0.288256 0.877349 0.000000
0.418862 0.876227 0.000000
0.549469 0.875106 0.000000
0.680075 0.873985 0.000000
0.810681 0.872864 0.000000
0.941288 0.871742 0.000000
1.000000 0.870621 0.000000
0.038050 1.000000 0.000210
0.168656 1.000000 0.000000
0.299262 1.000000 0.000000
0.429869 0.999026 0.000000
0.560475 0.997905 0.000000
0.691081 0.996784 0.000000
0.821688 0.995663 0.000000
0.952294 0.994541 0.000000
1.000000 0.993420 0.000000
0.000000 0.019572 0.222578
0.082744 0.018451 0.216224
0.213350 0.017330 0.209870
0.343956 0.016209 0.203516
0.474562 0.015088 0.197162
0.605169 0.013966 0.190809
0.735775 0.012845 0.184455
0.866381 0.011724 0.178101
0.996988 0.010602 0.171747
0.000000 0.142371 0.210104
0.093750 0.141250 0.203750
0.224356 0.140129 0.197396
0.354963 0.139007 0.191043
0.485569 0.137886 0.184689
0.616175 0.136765 0.178335
0.746781 0.135644 0.171981
0.877387 0.134522 0.165627
1.000000 0.133401 0.159274
0.000000 0.265170 0.197630
0.104756 0.264049 0.191276
0.235363 0.262927 0.184923
0.365969 0.261806 0.178569
0.496575 0.260685 0.172215
0.627181 0.259564 0.165861
0.757788 0.258443 0.159507
0.888394 0.257321 0.153154
1.000000 0.256200 0.146800
0.000000 0.387969 0.185156
0.115762 0.386848 0.178803
0.246369 0.385726 0.172449
0.376975 0.384605 0.166095
0.507581 0.383484 0.159741
0.638187 0.382362 0.153388
0.768794 0.381241 0.147034
0.899400 0.380120 0.140680
1.000000 0.378999 0.134326
0.000000 0.510768 0.172683
0.126769 0.509646 0.166329
0.257375 0.508525 0.159975
0.387981 0.507404 0.153621
0.518587 0.506282 0.147268
0.649194 0.505161 0.140914
0.779800 0.504040 0.134560
0.910406 0.502919 0.128206
1.000000 0.501798 0.121853
0.007169 0.633566 0.160209
0.137775 0.632445 0.153855
0.268381 0.631324 0.147501
0.398987 0.630202 0.141147
0.529594 0.629081 0.134794
0.660200 0.627960 0.128440
0.790806 0.626839 0.122086
0.921412 0.625717 0.115733
1.000000 0.624596 0.109379
0.018175 0.756365 0.147735
0.148781 0.755244 0.141381
0.279388 0.754122 0.135027
0.409994 0.753001 0.128674
0.540600 0.751880 0.122320
0.671206 0.750759 0.115966
0.801813 0.749638 0.109613
0.932419 0.748516 0.103259
1.000000 0.747395 0.096905
0.029181 0.879164 0.135261
0.159787 0.878043 0.128907
0.290394 0.876921 0.122554
0.421000 0.875800 0.116200
0.551606 0.874679 0.109846
0.682212 0.873557 0.103492
0.812819 0.872436 0.097139
0.943425 0.871315 0.090785
1.000000 0.870194 0.084431
0.040187 1.000000 0.122787
0.170794 1.000000 0.116434
0.301400 0.999720 0.110080
0.432006 0.998599 0.103726
0.562612 0.997478 0.097373
0.693219 0.996356 0.091019
0.823825 0.995235 0.084665
0.954431 0.994114 0.078311
1.000000 0.992992 0.071958
0.000000 0.019145 0.345155
0.084881 0.018024 0.338801
0.215488 0.016903 0.332448
0.346094 0.015781 0.326094
0.476700 0.014660 0.319740
0.607306 0.013539 0.313386
0.737913 0.012417 0.307032
0.868519 0.011296 0.300679
0.999125 0.010175 0.294325
0.000000 0.141944 0.332681
0.095887 0.140823 0.326327
0.226494 0.139701 0.319974
0.357100 0.138580 0.313620
0.487706 0.137459 0.307266
0.618313 0.136338 0.300912
0.748919 0.135216 0.294559
0.879525 0.134095 0.288205
1.000000 0.132974 0.281851
0.000000 0.264742 0.320208
0.106894 0.263621 0.313854
0.237500 0.262500 0.307500
0.368106 0.261379 0.301146
0.498713 0.260257 0.294793
0.629319 0.259136 0.288439
0.759925 0.258015 0.282085
0.890531 0.256894 0.275731
1.000000 0.255773 0.269377
0.000000 0.387541 0.307734
0.117900 0.386420 0.301380
0.248506 0.385299 0.295026
0.379113 0.384178 0.288672
0.509719 0.383056 0.282319
0.640325 0.381935 0.275965
0.770931 0.380814 0.269611
0.901537 0.379692 0.263257
1.000000 0.378571 0.256904
0.000000 0.510340 0.295260
0.128906 0.509219 0.288906
0.259513 0.508097 0.282553
0.390119 0.506976 0.276199
0.520725 0.505855 0.269845
0.651331 0.504734 0.263491
0.781938 0.503613 0.257138
0.912544 0.502491 0.250784
1.000000 0.501370 0.244430
0.009306 0.633139 0.282786
0.139912 0.632018 0.276433
0.270519 0.630896 0.270079
0.401125 0.629775 0.263725
0.531731 0.628654 0.257371
0.662338 0.627533 0.251018
0.792944 0.626411 0.244664
0.923550 0.625290 0.238310
1.000000 0.624169 0.231956
0.020312 0.755938 0.270312
0.150919 0.754816 0.263959
0.281525 0.753695 0.257605
0.412131 0.752574 0.251251
0.542737 0.751452 0.244898
0.673344 0.750331 0.238544
0.803950 0.749210 0.232190
0.934556 0.748089 0.225836
1.000000 0.746968 0.219482
0.031319 0.878736 0.257839
0.161925 0.877615 0.251485
0.292531 0.876494 0.245131
0.423137 0.875372 0.238778
0.553744 0.874251 0.232424
0.684350 0.873130 0.226070
0.814956 0.872009 0.219716
0.945562 0.870887 0.213363
1.000000 0.869766 0.207009
0.042325 1.000000 0.245365
0.172931 1.000000 0.239011
0.303538 0.999292 0.232658
0.434144 0.998171 0.226304
0.564750 0.997050 0.219950
0.695356 0.995929 0.213596
0.825963 0.994807 0.207242
0.956569 0.993686 0.200889
1.000000 0.992565 0.194535
0.000000 0.018718 0.467732
0.087019 0.017596 0.461379
0.217625 0.016475 0.455025
0.348231 0.015354 0.448671
0.478838 0.014232 0.442317
0.609444 0.013111 0.435964
0.740050 0.011990 0.429610
0.870656 0.010869 0.423256
1.000000 0.009747 0.416903
0.000000 0.141516 0.455259
0.098025 0.140395 0.448905
0.228631 0.139274 0.442551
0.359237 0.138153 0.436198
0.489844 0.137031 0.429844
0.620450 0.135910 0.423490
0.751056 0.134789 0.417136
0.881663 0.133668 0.410782
1.000000 0.132546 0.404429
0.000000 0.264315 0.442785
0.109031 0.263194 0.436431
0.239637 0.262072 0.430078
0.370244 0.260951 0.423724
0.500850 0.259830 0.417370
0.631456 0.258709 0.411016
0.762063 0.257587 0.404662
0.892669 0.256466 0.398309
1.000000 0.255345 0.391955
0.000000 0.387114 0.430311
0.120037 0.385992 0.423957
0.250644 0.384871 0.417604
0.381250 0.383750 0.411250
0.511856 0.382629 0.404896
0.642462 0.381507 0.398542
0.773069 0.380386 0.392189
0.903675 0.379265 0.385835
1.000000 0.378144 0.379481
0.000438 0.509912 0.417838
0.131044 0.508791 0.411484
0.261650 0.507670 0.405130
0.392256 0.506549 0.398776
0.522863 0.505428 0.392423
0.653469 0.504306 0.386069
0.784075 0.503185 0.379715
0.914681 0.502064 0.373361
1.000000 0.500943 0.367007
0.011444 0.632711 0.405364
0.142050 0.631590 0.399010
0.272656 0.630469 0.392656
0.403262 0.629348 0.386302
0.533869 0.628226 0.379949
0.664475 0.627105 0.373595
0.795081 0.625984 0.367241
0.925687 0.624862 0.360887
1.000000 0.623741 0.354534
0.022450 0.755510 0.392890
0.153056 0.754389 0.386536
0.283663 0.753267 0.380183
0.414269 0.752146 0.373829
0.544875 0.751025 0.367475
0.675481 0.749904 0.361121
0.806088 0.748783 0.354768
0.936694 0.747661 0.348414
1.000000 0.746540 0.342060
0.033456 0.878309 0.380416
0.164063 0.877188 0.374063
0.294669 0.876066 0.367709
0.425275 0.874945 0.361355
0.555881 0.873824 0.355001
0.686487 0.872703 0.348647
0.817094 0.871581 0.342294
0.947700 0.870460 0.335940
1.000000 0.869339 0.329586
0.044462 1.000000 0.367943
0.175069 0.999986 0.361589
0.305675 0.998865 0.355235
0.436281 0.997744 0.348881
0.566887 0.996623 0.342527
0.697494 0.995501 0.336174
0.828100 0.994380 0.329820
0.958706 0.993259 0.323466
1.000000 0.992138 0.317113
0.000000 0.018290 0.590310
0.089156 0.017169 0.583956
0.219762 0.016047 0.577603
0.350369 0.014926 0.571249
0.480975 0.013805 0.564895
0.611581 0.012684 0.558541
0.742188 0.011562 0.552188
0.872794 0.010441 0.545834
1.000000 0.009320 0.539480
0.000000 0.141089 0.577836
0.100162 0.139967 0.571483
0.230769 0.138846 0.565129
0.361375 0.137725 0.558775
0.491981 0.136604 0.552421
0.622587 0.135483 0.546067
0.753194 0.134361 0.539714
0.883800 0.133240 0.533360
1.000000 0.132119 0.527006
0.000000 0.263887 0.565363
0.111169 0.262766 0.559009
0.241775 0.261645 0.552655
0.372381 0.260524 0.546301
0.502988 0.259402 0.539948
0.633594 0.258281 0.533594
0.764200 0.257160 0.527240
0.894806 0.256039 0.520886
1.000000 0.254917 0.514533
0.000000 0.386686 0.552889
0.122175 0.385565 0.546535
0.252781 0.384444 0.540181
0.383387 0.383322 0.533828
0.513994 0.382201 0.527474
0.644600 0.381080 0.521120
0.775206 0.379959 0.514766
0.905813 0.378837 0.508412
1.000000 0.377716 0.502059
0.002575 0.509485 0.540415
0.133181 0.508364 0.534061
0.263787 0.507243 0.527708
0.394394 0.506121 0.521354
0.525000 0.505000 0.515000
0.655606 0.503879 0.508646
0.786212 0.502757 0.502293
0.916819 0.501636 0.495939
1.000000 0.500515 0.489585
0.013581 0.632284 0.527941
0.144187 0.631162 0.521587
0.274794 0.630041 0.515234
0.405400 0.628920 0.508880
0.536006 0.627799 0.502526
0.666612 0.626677 0.496172
0.797219 0.625556 0.489819
0.927825 0.624435 0.483465
1.000000 0.623314 0.477111
0.024587 0.755082 0.515467
0.155194 0.753961 0.509114
0.285800 0.752840 0.502760
0.416406 0.751719 0.496406
0.547013 0.750598 0.490053
0.677619 0.749476 0.483699
0.808225 0.748355 0.477345
0.938831 0.747234 0.470991
1.000000 0.746113 0.464638
0.035594 0.877881 0.502994
0.166200 0.876760 0.496640
0.296806 0.875639 0.490286
0.427413 0.874518 0.483932
0.558019 0.873396 0.477579
0.688625 0.872275 0.471225
0.819231 0.871154 0.464871
0.949838 0.870032 0.458517
1.000000 0.868911 0.452164
0.046600 1.000000 0.490520
0.177206 0.999559 0.484166
0.307813 0.998437 0.477812
0.438419 0.997316 0.471459
0.569025 0.996195 0.465105
0.699631 0.995074 0.458751
0.830238 0.993952 0.452397
0.960844 0.992831 0.446044
1.000000 0.991710 0.439690
0.000000 0.017862 0.712888
0.091294 0.016741 0.706534
0.221900 0.015620 0.700180
0.352506 0.014499 0.693826
0.483112 0.013378 0.687473
0.613719 0.012256 0.681119
0.744325 0.011135 0.674765
0.874931 0.010014 0.668411
1.000000 0.008893 0.662057
0.000000 0.140661 0.700414
0.102300 0.139540 0.694060
0.232906 0.138419 0.687706
0.363513 0.137297 0.681353
0.494119 0.136176 0.674999
0.624725 0.135055 0.668645
0.755331 0.133934 0.662291
0.885938 0.132813 0.655937
1.000000 0.131691 0.649584
0.000000 0.263460 0.687940
0.113306 0.262339 0.681586
0.243912 0.261217 0.675233
0.374519 0.260096 0.668879
0.505125 0.258975 0.662525
0.635731 0.257854 0.656171
0.766338 0.256733 0.649818
0.896944 0.255611 0.643464
1.000000 0.254490 0.637110
0.000000 0.386259 0.675466
0.124312 0.385138 0.669112
0.254919 0.384016 0.662759
0.385525 0.382895 0.656405
0.516131 0.381774 0.650051
0.646737 0.380653 0.643697
0.777344 0.379531 0.637344
0.907950 0.378410 0.630990
1.000000 0.377289 0.624636
0.004713 0.509057 0.662993
0.135319 0.507936 0.656639
0.265925 0.506815 0.650285
0.396531 0.505694 0.643931
0.527138 0.504572 0.637578
0.657744 0.503451 0.631224
0.788350 0.502330 0.624870
0.918956 0.501209 0.618516
1.000000 0.500088 0.612163
0.015719 0.631856 0.650519
0.146325 0.630735 0.644165
0.276931 0.629614 0.637811
0.407537 0.628493 0.631458
0.538144 0.627371 0.625104
0.668750 0.626250 0.618750
0.799356 0.625129 0.612396
0.929963 0.624008 0.606042
1.000000 0.622886 0.599689
0.026725 0.754655 0.638045
0.157331 0.753534 0.631691
0.287938 0.752413 0.625337
0.418544 0.751291 0.618984
0.549150 0.750170 0.612630
0.679756 0.749049 0.606276
0.810362 0.747927 0.599923
0.940969 0.746806 0.593569
1.000000 0.745685 0.587215
0.037731 0.877454 0.625571
0.168338 0.876332 0.619217
0.298944 0.875211 0.612864
0.429550 0.874090 0.606510
0.560156 0.872969 0.600156
0.690762 0.871847 0.593803
0.821369 0.870726 0.587449
0.951975 0.869605 0.581095
1.000000 0.868484 0.574741
0.048738 1.000000 0.613097
0.179344 0.999131 0.606744
0.309950 0.998010 0.600390
0.440556 0.996889 0.594036
0.571163 0.995768 0.587682
0.701769 0.994646 0.581329
0.832375 0.993525 0.574975
0.962981 0.992404 0.568621
1.000000 0.991283 0.562268
0.000000 0.017435 0.835465
0.093431 0.016314 0.829111
0.224038 0.015193 0.822758
0.354644 0.014071 0.816404
0.485250 0.012950 0.810050
0.615856 0.011829 0.803696
0.746463 0.010708 0.797342
0.877069 0.009586 0.790989
1.000000 0.008465 0.784635
0.000000 0.140234 0.822991
0.104438 0.139113 0.816638
0.235044 0.137991 0.810284
0.365650 0.136870 0.803930
0.496256 0.135749 0.797576
0.626862 0.134628 0.791222
0.757469 0.133506 0.784869
0.888075 0.132385 0.778515
1.000000 0.131264 0.772161
0.000000 0.263033 0.810518
0.115444 0.261911 0.804164
0.246050 0.260790 0.797810
0.376656 0.259669 0.791456
0.507262 0.258548 0.785103
0.637869 0.257426 0.778749
0.768475 0.256305 0.772395
0.899081 0.255184 0.766041
1.000000 0.254063 0.759687
0.000000 0.385831 0.798044
0.126450 0.384710 0.791690
0.257056 0.383589 0.785336
0.387663 0.382468 0.778982
0.518269 0.381346 0.772629
0.648875 0.380225 0.766275
0.779481 0.379104 0.759921
0.910088 0.377982 0.753567
1.000000 0.376861 0.747214
0.006850 0.508630 0.785570
0.137456 0.507509 0.779216
0.268062 0.506387 0.772863
0.398669 0.505266 0.766509
0.529275 0.504145 0.760155
0.659881 0.503024 0.753801
0.790488 0.501903 0.747448
0.921094 0.500781 0.741094
1.000000 0.499660 0.734740
0.017856 0.631429 0.773096
0.148462 0.630308 0.766742
0.279069 0.629186 0.760389
0.409675 0.628065 0.754035
0.540281 0.626944 0.747681
0.670887 0.625822 0.741327
0.801494 0.624701 0.734974
0.932100 0.623580 0.728620
1.000000 0.622459 0.722266
0.028862 0.754227 0.760623
0.159469 0.753106 0.754269
0.290075 0.751985 0.747915
0.420681 0.750864 0.741561
0.551288 0.749742 0.735208
0.681894 0.748621 0.728854
0.812500 0.747500 0.722500
0.943106 0.746379 0.716146
1.000000 0.745258 0.709793
0.039869 0.877026 0.748149
0.170475 0.875905 0.741795
0.301081 0.874784 0.735441
0.431688 0.873663 0.729087
0.562294 0.872541 0.722734
0.692900 0.871420 0.716380
0.823506 0.870299 0.710026
0.954113 0.869178 0.703672
1.000000 0.868056 0.697319
0.050875 0.999825 0.735675
0.181481 0.998704 0.729321
0.312087 0.997583 0.722968
0.442694 0.996461 0.716614
0.573300 0.995340 0.710260
0.703906 0.994219 0.703906
0.834512 0.993097 0.697553
0.965119 0.991976 0.691199
1.000000 0.990855 0.684845
0.000000 0.017008 0.958043
0.095569 0.015886 0.951689
0.226175 0.014765 0.945335
0.356781 0.013644 0.938981
0.487387 0.012523 0.932628
0.617994 0.011401 0.926274
0.748600 0.010280 0.919920
0.879206 0.009159 0.913566
1.000000 0.008038 0.907212
0.000000 0.139806 0.945569
0.106575 0.138685 0.939215
0.237181 0.137564 0.932861
0.367788 0.136442 0.926507
0.498394 0.135321 0.920154
0.629000 0.134200 0.913800
0.759606 0.133079 0.907446
0.890213 0.131958 0.901093
1.000000 0.130836 0.894739
0.000000 0.262605 0.933095
0.117581 0.261484 0.926741
0.248188 0.260362 0.920388
0.378794 0.259241 0.914034
0.509400 0.258120 0.907680
0.640006 0.256999 0.901326
0.770612 0.255878 0.894972
0.901219 0.254756 0.888619
1.000000 0.253635 0.882265
0.000000 0.385404 0.920621
0.128588 0.384283 0.914268
0.259194 0.383161 0.907914
0.389800 0.382040 0.901560
0.520406 0.380919 0.895206
0.651012 0.379798 0.888852
0.781619 0.378676 0.882499
0.912225 0.377555 0.876145
1.000000 0.376434 0.869791
0.008987 0.508203 0.908147
0.139594 0.507081 0.901794
0.270200 0.505960 0.895440
0.400806 0.504839 0.889086
0.531412 0.503717 0.882733
0.662019 0.502596 0.876379
0.792625 0.501475 0.870025
0.923231 0.500354 0.863671
1.000000 0.499233 0.857317
0.019994 0.631001 0.895674
0.150600 0.629880 0.889320
0.281206 0.628759 0.882966
0.411813 0.627638 0.876613
0.542419 0.626516 0.870259
0.673025 0.625395 0.863905
0.803631 0.624274 0.857551
0.934238 0.623152 0.851197
1.000000 0.622031 0.844844
0.031000 0.753800 0.883200
0.161606 0.752679 0.876846
0.292212 0.751557 0.870493
0.422819 0.750436 0.864139
0.553425 0.749315 0.857785
0.684031 0.748194 0.851431
0.814638 0.747073 0.845078
0.945244 0.745951 0.838724
1.000000 0.744830 0.832370
0.042006 0.876599 0.870726
0.172613 0.875478 0.864372
0.303219 0.874356 0.858019
0.433825 0.873235 0.851665
0.564431 0.872114 0.845311
0.695037 0.870992 0.838957
0.825644 0.869871 0.832604
0.956250 0.868750 0.826250
1.000000 0.867629 0.819896
0.053012 0.999397 0.858253
0.183619 0.998276 0.851899
0.314225 0.997155 0.845545
0.444831 0.996034 0.839191
0.575438 0.994912 0.832838
0.706044 0.993791 0.826484
0.836650 0.992670 0.820130
0.967256 0.991549 0.813776
1.000000 0.990428 0.807423
0.000000 0.016580 1.000000
0.097706 0.015459 1.000000
0.228312 0.014337 1.000000
0.358919 0.013216 1.000000
0.489525 0.012095 1.000000
0.620131 0.010974 1.000000
0.750737 0.009853 1.000000
0.881344 0.008731 1.000000
1.000000 0.007610 1.000000
0.000000 0.139379 1.000000
0.108712 0.138257 1.000000
0.239319 0.137136 1.000000
0.369925 0.136015 1.000000
0.500531 0.134894 1.000000
0.631138 0.133772 1.000000
0.761744 0.132651 1.000000
0.892350 0.131530 1.000000
1.000000 0.130409 1.000000
0.000000 0.262178 1.000000
0.119719 0.261056 1.000000
0.250325 0.259935 1.000000
0.380931 0.258814 1.000000
0.511537 0.257692 1.000000
0.642144 0.256571 1.000000
0.772750 0.255450 1.000000
0.903356 0.254329 1.000000
1.000000 0.253208 1.000000
0.000119 0.384976 1.000000
0.130725 0.383855 1.000000
0.261331 0.382734 1.000000
0.391938 0.381613 1.000000
0.522544 0.380491 1.000000
0.653150 0.379370 1.000000
0.783756 0.378249 1.000000
0.914363 0.377128 0.998722
1.000000 0.376006 0.992369
0.011125 0.507775 1.000000
0.141731 0.506654 1.000000
0.272338 0.505533 1.000000
0.402944 0.504411 1.000000
0.533550 0.503290 1.000000
0.664156 0.502169 0.998956
0.794762 0.501047 0.992603
0.925369 0.499926 0.986249
1.000000 0.498805 0.979895
0.022131 0.630574 1.000000
0.152737 0.629452 1.000000
0.283344 0.628331 1.000000
0.413950 0.627210 0.999190
0.544556 0.626089 0.992836
0.675162 0.624968 0.986483
0.805769 0.623846 0.980129
0.936375 0.622725 0.973775
1.000000 0.621604 0.967421
0.033138 0.753373 1.000000
0.163744 0.752251 0.999424
0.294350 0.751130 0.993070
0.424956 0.750009 0.986716
0.555562 0.748887 0.980363
0.686169 0.747766 0.974009
0.816775 0.746645 0.967655
0.947381 0.745524 0.961301
1.000000 0.744402 0.954947
0.044144 0.876171 0.993304
0.174750 0.875050 0.986950
0.305356 0.873929 0.980596
0.435963 0.872808 0.974242
0.566569 0.871686 0.967889
0.697175 0.870565 0.961535
0.827781 0.869444 0.955181
0.958388 0.868322 0.948827
1.000000 0.867201 0.942474
0.055150 0.998970 0.980830
0.185756 0.997849 0.974476
0.316362 0.996728 0.968122
0.446969 0.995606 0.961769
0.577575 0.994485 0.955415
0.708181 0.993364 0.949061
0.838788 0.992243 0.942707
0.969394 0.991121 0.936354
1.000000 0.990000 0.930000
