public/luts/teal_orange.cube
TITLE "OXXOVO teal_orange"
LUT_3D_SIZE 17
DOMAIN_MIN 0.0 0.0 0.0
DOMAIN_MAX 1.0 1.0 1.0
0.000000 0.020000 0.100000
0.015303 0.019439 0.096823
0.080606 0.018879 0.093646
0.145909 0.018318 0.090469
0.211212 0.017757 0.087293
0.276516 0.017197 0.084116
0.341819 0.016636 0.080939
0.407122 0.016076 0.077762
0.472425 0.015515 0.074585
0.537728 0.014954 0.071408
0.603031 0.014394 0.068231
0.668334 0.013833 0.065054
0.733638 0.013272 0.061878
0.798941 0.012712 0.058701
0.864244 0.012151 0.055524
0.929547 0.011591 0.052347
0.994850 0.011030 0.049170
0.000000 0.081399 0.093763
0.020806 0.080839 0.090586
0.086109 0.080278 0.087409
0.151413 0.079717 0.084233
0.216716 0.079157 0.081056
0.282019 0.078596 0.077879
0.347322 0.078036 0.074702
0.412625 0.077475 0.071525
0.477928 0.076914 0.068348
0.543231 0.076354 0.065171
0.608534 0.075793 0.061994
0.673837 0.075233 0.058818
0.739141 0.074672 0.055641
0.804444 0.074111 0.052464
0.869747 0.073551 0.049287
0.935050 0.072990 0.046110
1.000000 0.072429 0.042933
0.000000 0.142799 0.087526
0.026309 0.142238 0.084349
0.091612 0.141677 0.081173
0.156916 0.141117 0.077996
0.222219 0.140556 0.074819
0.287522 0.139996 0.071642
0.352825 0.139435 0.068465
0.418128 0.138874 0.065288
0.483431 0.138314 0.062111
0.548734 0.137753 0.058934
0.614038 0.137192 0.055758
0.679341 0.136632 0.052581
0.744644 0.136071 0.049404
0.809947 0.135511 0.046227
0.875250 0.134950 0.043050
0.940553 0.134389 0.039873
1.000000 0.133829 0.036696
0.000000 0.204198 0.081289
0.031812 0.203637 0.078113
0.097116 0.203077 0.074936
0.162419 0.202516 0.071759
0.227722 0.201956 0.068582
0.293025 0.201395 0.065405
0.358328 0.200834 0.062228
0.423631 0.200274 0.059051
0.488934 0.199713 0.055874
0.554237 0.199153 0.052698
0.619541 0.198592 0.049521
0.684844 0.198031 0.046344
0.750147 0.197471 0.043167
0.815450 0.196910 0.039990
0.880753 0.196349 0.036813
0.946056 0.195789 0.033636
1.000000 0.195228 0.030459
0.000000 0.265597 0.075053
0.037316 0.265037 0.071876
0.102619 0.264476 0.068699
0.167922 0.263916 0.065522
0.233225 0.263355 0.062345
0.298528 0.262794 0.059168
0.363831 0.262234 0.055991
0.429134 0.261673 0.052814
0.494438 0.261113 0.049638
0.559741 0.260552 0.046461
0.625044 0.259991 0.043284
0.690347 0.259431 0.040107
0.755650 0.258870 0.036930
0.820953 0.258309 0.033753
0.886256 0.257749 0.030576
0.951559 0.257188 0.027399
1.000000 0.256628 0.024223
0.000000 0.326997 0.068816
0.042819 0.326436 0.065639
0.108122 0.325876 0.062462
0.173425 0.325315 0.059285
0.238728 0.324754 0.056108
0.304031 0.324194 0.052931
0.369334 0.323633 0.049754
0.434637 0.323072 0.046578
0.499941 0.322512 0.043401
0.565244 0.321951 0.040224
0.630547 0.321391 0.037047
0.695850 0.320830 0.033870
0.761153 0.320269 0.030693
0.826456 0.319709 0.027516
0.891759 0.319148 0.024339
0.957063 0.318587 0.021163
1.000000 0.318027 0.017986
0.000000 0.388396 0.062579
0.048322 0.387836 0.059402
0.113625 0.387275 0.056225
0.178928 0.386714 0.053048
0.244231 0.386154 0.049871
0.309534 0.385593 0.046694
0.374837 0.385032 0.043518
0.440141 0.384472 0.040341
0.505444 0.383911 0.037164
0.570747 0.383351 0.033987
0.636050 0.382790 0.030810
0.701353 0.382229 0.027633
0.766656 0.381669 0.024456
0.831959 0.381108 0.021279
0.897262 0.380548 0.018103
0.962566 0.379987 0.014926
1.000000 0.379426 0.011749
0.000000 0.449796 0.056342
0.053825 0.449235 0.053165
0.119128 0.448674 0.049988
0.184431 0.448114 0.046811
0.249734 0.447553 0.043634
0.315037 0.446992 0.040458
0.380341 0.446432 0.037281
0.445644 0.445871 0.034104
0.510947 0.445311 0.030927
0.576250 0.444750 0.027750
0.641553 0.444189 0.024573
0.706856 0.443629 0.021396
0.772159 0.443068 0.018219
0.837462 0.442507 0.015042
0.902766 0.441947 0.011866
0.968069 0.441386 0.008689
1.000000 0.440826 0.005512
0.000000 0.511195 0.050105
0.059328 0.510634 0.046928
0.124631 0.510074 0.043751
0.189934 0.509513 0.040574
0.255238 0.508952 0.037398
0.320541 0.508392 0.034221
0.385844 0.507831 0.031044
0.451147 0.507271 0.027867
0.516450 0.506710 0.024690
0.581753 0.506149 0.021513
0.647056 0.505589 0.018336
0.712359 0.505028 0.015159
0.777663 0.504468 0.011983
0.842966 0.503907 0.008806
0.908269 0.503346 0.005629
0.973572 0.502786 0.002452
1.000000 0.502225 0.000000
0.000000 0.572594 0.043868
0.064831 0.572034 0.040691
0.130134 0.571473 0.037514
0.195437 0.570913 0.034338
0.260741 0.570352 0.031161
0.326044 0.569791 0.027984
0.391347 0.569231 0.024807
0.456650 0.568670 0.021630
0.521953 0.568109 0.018453
0.587256 0.567549 0.015276
0.652559 0.566988 0.012099
0.717863 0.566427 0.008923
0.783166 0.565867 0.005746
0.848469 0.565306 0.002569
0.913772 0.564746 0.000000
0.979075 0.564185 0.000000
1.000000 0.563624 0.000000
0.005031 0.633994 0.037631
0.070334 0.633433 0.034454
0.135637 0.632873 0.031277
0.200941 0.632312 0.028101
0.266244 0.631751 0.024924
0.331547 0.631191 0.021747
0.396850 0.630630 0.018570
0.462153 0.630069 0.015393
0.527456 0.629509 0.012216
0.592759 0.628948 0.009039
0.658062 0.628387 0.005863
0.723366 0.627827 0.002686
0.788669 0.627266 0.000000
0.853972 0.626706 0.000000
0.919275 0.626145 0.000000
0.984578 0.625584 0.000000
1.000000 0.625024 0.000000
0.010534 0.695393 0.031394
0.075838 0.694832 0.028217
0.141141 0.694272 0.025041
0.206444 0.693711 0.021864
0.271747 0.693151 0.018687
0.337050 0.692590 0.015510
0.402353 0.692029 0.012333
0.467656 0.691469 0.009156
0.532959 0.690908 0.005979
0.598262 0.690348 0.002802
0.663566 0.689787 0.000000
0.728869 0.689226 0.000000
0.794172 0.688666 0.000000
0.859475 0.688105 0.000000
0.924778 0.687544 0.000000
0.990081 0.686984 0.000000
1.000000 0.686423 0.000000
0.016038 0.756792 0.025157
0.081341 0.756232 0.021981
0.146644 0.755671 0.018804
0.211947 0.755111 0.015627
0.277250 0.754550 0.012450
0.342553 0.753989 0.009273
0.407856 0.753429 0.006096
0.473159 0.752868 0.002919
0.538462 0.752308 0.000000
0.603766 0.751747 0.000000
0.669069 0.751186 0.000000
0.734372 0.750626 0.000000
0.799675 0.750065 0.000000
0.864978 0.749504 0.000000
0.930281 0.748944 0.000000
0.995584 0.748383 0.000000
1.000000 0.747822 0.000000
0.021541 0.818192 0.018921
0.086844 0.817631 0.015744
0.152147 0.817071 0.012567
0.217450 0.816510 0.009390
0.282753 0.815949 0.006213
0.348056 0.815389 0.003036
0.413359 0.814828 0.000000
0.478663 0.814268 0.000000
0.543966 0.813707 0.000000
0.609269 0.813146 0.000000
0.674572 0.812586 0.000000
0.739875 0.812025 0.000000
0.805178 0.811464 0.000000
0.870481 0.810904 0.000000
0.935784 0.810343 0.000000
1.000000 0.809783 0.000000
1.000000 0.809222 0.000000
0.027044 0.879591 0.012684
0.092347 0.879031 0.009507
0.157650 0.878470 0.006330
0.222953 0.877909 0.003153
0.288256 0.877349 0.000000
0.353559 0.876788 0.000000
0.418862 0.876227 0.000000
0.484166 0.875667 0.000000
0.549469 0.875106 0.000000
0.614772 0.874546 0.000000
0.680075 0.873985 0.000000
0.745378 0.873424 0.000000
0.810681 0.872864 0.000000
0.875984 0.872303 0.000000
0.941288 0.871742 0.000000
1.000000 0.871182 0.000000
1.000000 0.870621 0.000000
0.032547 0.940991 0.006447
0.097850 0.940430 0.003270
0.163153 0.939869 0.000093
0.228456 0.939309 0.000000
0.293759 0.938748 0.000000
0.359063 0.938188 0.000000
0.424366 0.937627 0.000000
0.489669 0.937066 0.000000
0.554972 0.936506 0.000000
0.620275 0.935945 0.000000
0.685578 0.935384 0.000000
0.750881 0.934824 0.000000
0.816184 0.934263 0.000000
0.881487 0.933702 0.000000
0.946791 0.933142 0.000000
1.000000 0.932581 0.000000
1.000000 0.932021 0.000000
0.038050 1.000000 0.000210
0.103353 1.000000 0.000000
0.168656 1.000000 0.000000
0.233959 1.000000 0.000000
0.299262 1.000000 0.000000
0.364566 0.999587 0.000000
0.429869 0.999026 0.000000
0.495172 0.998466 0.000000
0.560475 0.997905 0.000000
0.625778 0.997344 0.000000
0.691081 0.996784 0.000000
0.756384 0.996223 0.000000
0.821688 0.995663 0.000000
0.886991 0.995102 0.000000
0.952294 0.994541 0.000000
1.000000 0.993981 0.000000
1.000000 0.993420 0.000000
0.000000 0.019786 0.161289
0.016372 0.019226 0.158112
0.081675 0.018665 0.154935
0.146978 0.018104 0.151758
0.212281 0.017544 0.148581
0.277584 0.016983 0.145404
0.342888 0.016423 0.142228
0.408191 0.015862 0.139051
0.473494 0.015301 0.135874
0.538797 0.014741 0.132697
0.604100 0.014180 0.129520
0.669403 0.013619 0.126343
0.734706 0.013059 0.123166
0.800009 0.012498 0.119989
0.865312 0.011938 0.116812
0.930616 0.011377 0.113636
0.995919 0.010816 0.110459
0.000000 0.081186 0.155052
0.021875 0.080625 0.151875
0.087178 0.080064 0.148698
0.152481 0.079504 0.145521
0.217784 0.078943 0.142344
0.283087 0.078382 0.139167
0.348391 0.077822 0.135991
0.413694 0.077261 0.132814
0.478997 0.076701 0.129637
0.544300 0.076140 0.126460
0.609603 0.075579 0.123283
0.674906 0.075019 0.120106
0.740209 0.074458 0.116929
0.805512 0.073898 0.113752
0.870816 0.073337 0.110576
0.936119 0.072776 0.107399
1.000000 0.072216 0.104222
0.000000 0.142585 0.148815
0.027378 0.142024 0.145638
0.092681 0.141464 0.142461
0.157984 0.140903 0.139284
0.223287 0.140342 0.136108
0.288591 0.139782 0.132931
0.353894 0.139221 0.129754
0.419197 0.138661 0.126577
0.484500 0.138100 0.123400
0.549803 0.137539 0.120223
0.615106 0.136979 0.117046
0.680409 0.136418 0.113869
0.745713 0.135857 0.110692
0.811016 0.135297 0.107516
0.876319 0.134736 0.104339
0.941622 0.134176 0.101162
1.000000 0.133615 0.097985
0.000000 0.203984 0.142578
0.032881 0.203424 0.139401
0.098184 0.202863 0.136224
0.163488 0.202302 0.133047
0.228791 0.201742 0.129871
0.294094 0.201181 0.126694
0.359397 0.200621 0.123517
0.424700 0.200060 0.120340
0.490003 0.199499 0.117163
0.555306 0.198939 0.113986
0.620609 0.198378 0.110809
0.685913 0.197818 0.107633
0.751216 0.197257 0.104456
0.816519 0.196696 0.101279
0.881822 0.196136 0.098102
0.947125 0.195575 0.094925
1.000000 0.195014 0.091748
0.000000 0.265384 0.136341
0.038384 0.264823 0.133164
0.103687 0.264263 0.129988
0.168991 0.263702 0.126811
0.234294 0.263141 0.123634
0.299597 0.262581 0.120457
0.364900 0.262020 0.117280
0.430203 0.261459 0.114103
0.495506 0.260899 0.110926
0.560809 0.260338 0.107749
0.626112 0.259777 0.104573
0.691416 0.259217 0.101396
0.756719 0.258656 0.098219
0.822022 0.258096 0.095042
0.887325 0.257535 0.091865
0.952628 0.256974 0.088688
1.000000 0.256414 0.085511
0.000000 0.326783 0.130104
0.043887 0.326223 0.126927
0.109191 0.325662 0.123751
0.174494 0.325101 0.120574
0.239797 0.324541 0.117397
0.305100 0.323980 0.114220
0.370403 0.323419 0.111043
0.435706 0.322859 0.107866
0.501009 0.322298 0.104689
0.566312 0.321737 0.101513
0.631616 0.321177 0.098336
0.696919 0.320616 0.095159
0.762222 0.320056 0.091982
0.827525 0.319495 0.088805
0.892828 0.318934 0.085628
0.958131 0.318374 0.082451
1.000000 0.317813 0.079274
0.000000 0.388182 0.123868
0.049391 0.387622 0.120691
0.114694 0.387061 0.117514
0.179997 0.386501 0.114337
0.245300 0.385940 0.111160
0.310603 0.385379 0.107983
0.375906 0.384819 0.104806
0.441209 0.384258 0.101629
0.506513 0.383698 0.098453
0.571816 0.383137 0.095276
0.637119 0.382576 0.092099
0.702422 0.382016 0.088922
0.767725 0.381455 0.085745
0.833028 0.380894 0.082568
0.898331 0.380334 0.079391
0.963634 0.379773 0.076214
1.000000 0.379213 0.073038
0.000000 0.449582 0.117631
0.054894 0.449021 0.114454
0.120197 0.448461 0.111277
0.185500 0.447900 0.108100
0.250803 0.447339 0.104923
0.316106 0.446779 0.101746
0.381409 0.446218 0.098569
0.446712 0.445657 0.095393
0.512016 0.445097 0.092216
0.577319 0.444536 0.089039
0.642622 0.443976 0.085862
0.707925 0.443415 0.082685
0.773228 0.442854 0.079508
0.838531 0.442294 0.076331
0.903834 0.441733 0.073154
0.969137 0.441172 0.069977
1.000000 0.440612 0.066801
0.000000 0.510981 0.111394
0.060397 0.510421 0.108217
0.125700 0.509860 0.105040
0.191003 0.509299 0.101863
0.256306 0.508739 0.098686
0.321609 0.508178 0.095509
0.386912 0.507618 0.092332
0.452216 0.507057 0.089156
0.517519 0.506496 0.085979
0.582822 0.505936 0.082802
0.648125 0.505375 0.079625
0.713428 0.504814 0.076448
0.778731 0.504254 0.073271
0.844034 0.503693 0.070094
0.909338 0.503132 0.066918
0.974641 0.502572 0.063741
1.000000 0.502011 0.060564
0.000597 0.572381 0.105157
0.065900 0.571820 0.101980
0.131203 0.571259 0.098803
0.196506 0.570699 0.095626
0.261809 0.570138 0.092449
0.327112 0.569577 0.089273
0.392416 0.569017 0.086096
0.457719 0.568456 0.082919
0.523022 0.567896 0.079742
0.588325 0.567335 0.076565
0.653628 0.566774 0.073388
0.718931 0.566214 0.070211
0.784234 0.565653 0.067034
0.849537 0.565092 0.063857
0.914841 0.564532 0.060681
0.980144 0.563971 0.057504
1.000000 0.563411 0.054327
0.006100 0.633780 0.098920
0.071403 0.633219 0.095743
0.136706 0.632659 0.092566
0.202009 0.632098 0.089389
0.267313 0.631537 0.086213
0.332616 0.630977 0.083036
0.397919 0.630416 0.079859
0.463222 0.629856 0.076682
0.528525 0.629295 0.073505
0.593828 0.628734 0.070328
0.659131 0.628174 0.067151
0.724434 0.627613 0.063974
0.789737 0.627053 0.060798
0.855041 0.626492 0.057621
0.920344 0.625931 0.054444
0.985647 0.625371 0.051267
1.000000 0.624810 0.048090
0.011603 0.695179 0.092683
0.076906 0.694619 0.089506
0.142209 0.694058 0.086329
0.207512 0.693497 0.083153
0.272816 0.692937 0.079976
0.338119 0.692376 0.076799
0.403422 0.691816 0.073622
0.468725 0.691255 0.070445
0.534028 0.690694 0.067268
0.599331 0.690134 0.064091
0.664634 0.689573 0.060914
0.729938 0.689013 0.057738
0.795241 0.688452 0.054561
0.860544 0.687891 0.051384
0.925847 0.687331 0.048207
0.991150 0.686770 0.045030
1.000000 0.686209 0.041853
0.017106 0.756579 0.086446
0.082409 0.756018 0.083269
0.147712 0.755458 0.080093
0.213016 0.754897 0.076916
0.278319 0.754336 0.073739
0.343622 0.753776 0.070562
0.408925 0.753215 0.067385
0.474228 0.752654 0.064208
0.539531 0.752094 0.061031
0.604834 0.751533 0.057854
0.670137 0.750972 0.054677
0.735441 0.750412 0.051501
0.800744 0.749851 0.048324
0.866047 0.749291 0.045147
0.931350 0.748730 0.041970
0.996653 0.748169 0.038793
1.000000 0.747609 0.035616
0.022609 0.817978 0.080209
0.087913 0.817418 0.077032
0.153216 0.816857 0.073856
0.218519 0.816296 0.070679
0.283822 0.815736 0.067502
0.349125 0.815175 0.064325
0.414428 0.814614 0.061148
0.479731 0.814054 0.057971
0.545034 0.813493 0.054794
0.610337 0.812933 0.051617
0.675641 0.812372 0.048441
0.740944 0.811811 0.045264
0.806247 0.811251 0.042087
0.871550 0.810690 0.038910
0.936853 0.810129 0.035733
1.000000 0.809569 0.032556
1.000000 0.809008 0.029379
0.028113 0.879377 0.073972
0.093416 0.878817 0.070796
0.158719 0.878256 0.067619
0.224022 0.877696 0.064442
0.289325 0.877135 0.061265
0.354628 0.876574 0.058088
0.419931 0.876014 0.054911
0.485234 0.875453 0.051734
0.550538 0.874893 0.048557
0.615841 0.874332 0.045381
0.681144 0.873771 0.042204
0.746447 0.873211 0.039027
0.811750 0.872650 0.035850
0.877053 0.872089 0.032673
0.942356 0.871529 0.029496
1.000000 0.870968 0.026319
1.000000 0.870408 0.023142
0.033616 0.940777 0.067736
0.098919 0.940216 0.064559
0.164222 0.939656 0.061382
0.229525 0.939095 0.058205
0.294828 0.938534 0.055028
0.360131 0.937974 0.051851
0.425434 0.937413 0.048674
0.490738 0.936852 0.045497
0.556041 0.936292 0.042321
0.621344 0.935731 0.039144
0.686647 0.935171 0.035967
0.751950 0.934610 0.032790
0.817253 0.934049 0.029613
0.882556 0.933489 0.026436
0.947859 0.932928 0.023259
1.000000 0.932368 0.020082
1.000000 0.931807 0.016906
0.039119 1.000000 0.061499
0.104422 1.000000 0.058322
0.169725 1.000000 0.055145
0.235028 1.000000 0.051968
0.300331 0.999934 0.048791
0.365634 0.999373 0.045614
0.430937 0.998813 0.042437
0.496241 0.998252 0.039261
0.561544 0.997691 0.036084
0.626847 0.997131 0.032907
0.692150 0.996570 0.029730
0.757453 0.996009 0.026553
0.822756 0.995449 0.023376
0.888059 0.994888 0.020199
0.953363 0.994328 0.017022
1.000000 0.993767 0.013846
1.000000 0.993206 0.010669
0.000000 0.019572 0.222578
0.017441 0.019012 0.219401
0.082744 0.018451 0.216224
0.148047 0.017891 0.213047
0.213350 0.017330 0.209870
0.278653 0.016769 0.206693
0.343956 0.016209 0.203516
0.409259 0.015648 0.200339
0.474562 0.015088 0.197162
0.539866 0.014527 0.193986
0.605169 0.013966 0.190809
0.670472 0.013406 0.187632
0.735775 0.012845 0.184455
0.801078 0.012284 0.181278
0.866381 0.011724 0.178101
0.931684 0.011163 0.174924
0.996988 0.010602 0.171747
0.000000 0.080972 0.216341
0.022944 0.080411 0.213164
0.088247 0.079851 0.209987
0.153550 0.079290 0.206810
0.218853 0.078729 0.203633
0.284156 0.078169 0.200456
0.349459 0.077608 0.197279
0.414762 0.077048 0.194103
0.480066 0.076487 0.190926
0.545369 0.075926 0.187749
0.610672 0.075366 0.184572
0.675975 0.074805 0.181395
0.741278 0.074244 0.178218
0.806581 0.073684 0.175041
0.871884 0.073123 0.171864
0.937187 0.072563 0.168688
1.000000 0.072002 0.165511
0.000000 0.142371 0.210104
0.028447 0.141811 0.206927
0.093750 0.141250 0.203750
0.159053 0.140689 0.200573
0.224356 0.140129 0.197396
0.289659 0.139568 0.194219
0.354963 0.139007 0.191043
0.420266 0.138447 0.187866
0.485569 0.137886 0.184689
0.550872 0.137326 0.181512
0.616175 0.136765 0.178335
0.681478 0.136204 0.175158
0.746781 0.135644 0.171981
0.812084 0.135083 0.168804
0.877387 0.134522 0.165627
0.942691 0.133962 0.162451
1.000000 0.133401 0.159274
0.000000 0.203771 0.203867
0.033950 0.203210 0.200690
0.099253 0.202649 0.197513
0.164556 0.202089 0.194336
0.229859 0.201528 0.191159
0.295162 0.200967 0.187982
0.360466 0.200407 0.184806
0.425769 0.199846 0.181629
0.491072 0.199286 0.178452
0.556375 0.198725 0.175275
0.621678 0.198164 0.172098
0.686981 0.197604 0.168921
0.752284 0.197043 0.165744
0.817588 0.196483 0.162568
0.882891 0.195922 0.159391
0.948194 0.195361 0.156214
1.000000 0.194801 0.153037
0.000000 0.265170 0.197630
0.039453 0.264609 0.194453
0.104756 0.264049 0.191276
0.170059 0.263488 0.188099
0.235363 0.262927 0.184923
0.300666 0.262367 0.181746
0.365969 0.261806 0.178569
0.431272 0.261246 0.175392
0.496575 0.260685 0.172215
0.561878 0.260124 0.169038
0.627181 0.259564 0.165861
0.692484 0.259003 0.162684
0.757788 0.258443 0.159507
0.823091 0.257882 0.156331
0.888394 0.257321 0.153154
0.953697 0.256761 0.149977
1.000000 0.256200 0.146800
0.000000 0.326569 0.191393
0.044956 0.326009 0.188216
0.110259 0.325448 0.185039
0.175563 0.324887 0.181862
0.240866 0.324327 0.178686
0.306169 0.323766 0.175509
0.371472 0.323206 0.172332
0.436775 0.322645 0.169155
0.502078 0.322084 0.165978
0.567381 0.321524 0.162801
0.632684 0.320963 0.159624
0.697987 0.320403 0.156448
0.763291 0.319842 0.153271
0.828594 0.319281 0.150094
0.893897 0.318721 0.146917
0.959200 0.318160 0.143740
1.000000 0.317599 0.140563
0.000000 0.387969 0.185156
0.050459 0.387408 0.181979
0.115762 0.386848 0.178803
0.181066 0.386287 0.175626
0.246369 0.385726 0.172449
0.311672 0.385166 0.169272
0.376975 0.384605 0.166095
0.442278 0.384044 0.162918
0.507581 0.383484 0.159741
0.572884 0.382923 0.156564
0.638187 0.382362 0.153388
0.703491 0.381802 0.150211
0.768794 0.381241 0.147034
0.834097 0.380681 0.143857
0.899400 0.380120 0.140680
0.964703 0.379559 0.137503
1.000000 0.378999 0.134326
0.000000 0.449368 0.178919
0.055962 0.448808 0.175742
0.121266 0.448247 0.172566
0.186569 0.447686 0.169389
0.251872 0.447126 0.166212
0.317175 0.446565 0.163035
0.382478 0.446004 0.159858
0.447781 0.445444 0.156681
0.513084 0.444883 0.153504
0.578387 0.444322 0.150328
0.643691 0.443762 0.147151
0.708994 0.443201 0.143974
0.774297 0.442641 0.140797
0.839600 0.442080 0.137620
0.904903 0.441519 0.134443
0.970206 0.440959 0.131266
1.000000 0.440398 0.128089
0.000000 0.510768 0.172683
0.061466 0.510207 0.169506
0.126769 0.509646 0.166329
0.192072 0.509086 0.163152
0.257375 0.508525 0.159975
0.322678 0.507964 0.156798
0.387981 0.507404 0.153621
0.453284 0.506843 0.150444
0.518587 0.506282 0.147268
0.583891 0.505722 0.144091
0.649194 0.505161 0.140914
0.714497 0.504601 0.137737
0.779800 0.504040 0.134560
0.845103 0.503479 0.131383
0.910406 0.502919 0.128206
0.975709 0.502358 0.125029
1.000000 0.501798 0.121853
0.001666 0.572167 0.166446
0.066969 0.571606 0.163269
0.132272 0.571046 0.160092
0.197575 0.570485 0.156915
0.262878 0.569924 0.153738
0.328181 0.569364 0.150561
0.393484 0.568803 0.147384
0.458787 0.568242 0.144207
0.524091 0.567682 0.141031
0.589394 0.567121 0.137854
0.654697 0.566561 0.134677
0.720000 0.566000 0.131500
0.785303 0.565439 0.128323
0.850606 0.564879 0.125146
0.915909 0.564318 0.121969
0.981212 0.563758 0.118792
1.000000 0.563197 0.115616
0.007169 0.633566 0.160209
0.072472 0.633006 0.157032
0.137775 0.632445 0.153855
0.203078 0.631884 0.150678
0.268381 0.631324 0.147501
0.333684 0.630763 0.144324
0.398987 0.630202 0.141147
0.464291 0.629642 0.137971
0.529594 0.629081 0.134794
0.594897 0.628521 0.131617
0.660200 0.627960 0.128440
0.725503 0.627399 0.125263
0.790806 0.626839 0.122086
0.856109 0.626278 0.118909
0.921412 0.625717 0.115733
0.986716 0.625157 0.112556
1.000000 0.624596 0.109379
0.012672 0.694966 0.153972
0.077975 0.694405 0.150795
0.143278 0.693844 0.147618
0.208581 0.693284 0.144441
0.273884 0.692723 0.141264
0.339187 0.692163 0.138088
0.404491 0.691602 0.134911
0.469794 0.691041 0.131734
0.535097 0.690481 0.128557
0.600400 0.689920 0.125380
0.665703 0.689359 0.122203
0.731006 0.688799 0.119026
0.796309 0.688238 0.115849
0.861613 0.687678 0.112673
0.926916 0.687117 0.109496
0.992219 0.686556 0.106319
1.000000 0.685996 0.103142
0.018175 0.756365 0.147735
0.083478 0.755804 0.144558
0.148781 0.755244 0.141381
0.214084 0.754683 0.138204
0.279388 0.754122 0.135027
0.344691 0.753562 0.131851
0.409994 0.753001 0.128674
0.475297 0.752441 0.125497
0.540600 0.751880 0.122320
0.605903 0.751319 0.119143
0.671206 0.750759 0.115966
0.736509 0.750198 0.112789
0.801813 0.749638 0.109613
0.867116 0.749077 0.106436
0.932419 0.748516 0.103259
0.997722 0.747956 0.100082
1.000000 0.747395 0.096905
0.023678 0.817764 0.141498
0.088981 0.817204 0.138321
0.154284 0.816643 0.135144
0.219587 0.816083 0.131968
0.284891 0.815522 0.128791
0.350194 0.814961 0.125614
0.415497 0.814401 0.122437
0.480800 0.813840 0.119260
0.546103 0.813279 0.116083
0.611406 0.812719 0.112906
0.676709 0.812158 0.109729
0.742012 0.811597 0.106553
0.807316 0.811037 0.103376
0.872619 0.810476 0.100199
0.937922 0.809916 0.097022
1.000000 0.809355 0.093845
1.000000 0.808794 0.090668
0.029181 0.879164 0.135261
0.094484 0.878603 0.132084
0.159787 0.878043 0.128907
0.225091 0.877482 0.125731
0.290394 0.876921 0.122554
0.355697 0.876361 0.119377
0.421000 0.875800 0.116200
0.486303 0.875239 0.113023
0.551606 0.874679 0.109846
0.616909 0.874118 0.106669
0.682212 0.873557 0.103492
0.747516 0.872997 0.100316
0.812819 0.872436 0.097139
0.878122 0.871876 0.093962
0.943425 0.871315 0.090785
1.000000 0.870754 0.087608
1.000000 0.870194 0.084431
0.034684 0.940563 0.129024
0.099987 0.940002 0.125848
0.165291 0.939442 0.122671
0.230594 0.938881 0.119494
0.295897 0.938321 0.116317
0.361200 0.937760 0.113140
0.426503 0.937199 0.109963
0.491806 0.936639 0.106786
0.557109 0.936078 0.103609
0.622412 0.935518 0.100433
0.687716 0.934957 0.097256
0.753019 0.934396 0.094079
0.818322 0.933836 0.090902
0.883625 0.933275 0.087725
0.948928 0.932714 0.084548
1.000000 0.932154 0.081371
1.000000 0.931593 0.078194
0.040187 1.000000 0.122787
0.105491 1.000000 0.119611
0.170794 1.000000 0.116434
0.236097 1.000000 0.113257
0.301400 0.999720 0.110080
0.366703 0.999159 0.106903
0.432006 0.998599 0.103726
0.497309 0.998038 0.100549
0.562612 0.997478 0.097373
0.627916 0.996917 0.094196
0.693219 0.996356 0.091019
0.758522 0.995796 0.087842
0.823825 0.995235 0.084665
0.889128 0.994674 0.081488
0.954431 0.994114 0.078311
1.000000 0.993553 0.075134
1.000000 0.992992 0.071958
0.000000 0.019359 0.283866
0.018509 0.018798 0.280689
0.083812 0.018238 0.277512
0.149116 0.017677 0.274336
0.214419 0.017116 0.271159
0.279722 0.016556 0.267982
0.345025 0.015995 0.264805
0.410328 0.015434 0.261628
0.475631 0.014874 0.258451
0.540934 0.014313 0.255274
0.606237 0.013752 0.252097
0.671541 0.013192 0.248921
0.736844 0.012631 0.245744
0.802147 0.012071 0.242567
0.867450 0.011510 0.239390
0.932753 0.010949 0.236213
0.998056 0.010389 0.233036
0.000000 0.080758 0.277629
