public/luts/vibrant.cube
TITLE "OXXOVO vibrant"
LUT_3D_SIZE 9
DOMAIN_MIN 0.0 0.0 0.0
DOMAIN_MAX 1.0 1.0 1.0
0.000000 0.000000 0.000000
0.155669 0.000000 0.000000
0.311338 0.000000 0.000000
0.467006 0.000000 0.000000
0.622675 0.000000 0.000000
0.778344 0.000000 0.000000
0.934012 0.000000 0.000000
1.000000 0.000000 0.000000
1.000000 0.000000 0.000000
0.000000 0.143069 0.000000
0.129988 0.129988 0.000000
0.285656 0.116906 0.000000
0.441325 0.103825 0.000000
0.596994 0.090744 0.000000
0.752663 0.077662 0.000000
0.908331 0.064581 0.000000
1.000000 0.051500 0.000000
1.000000 0.038419 0.000000
0.000000 0.286138 0.000000
0.104306 0.273056 0.000000
0.259975 0.259975 0.000000
0.415644 0.246894 0.000000
0.571313 0.233812 0.000000
0.726981 0.220731 0.000000
0.882650 0.207650 0.000000
1.000000 0.194569 0.000000
1.000000 0.181487 0.000000
0.000000 0.429206 0.000000
0.078625 0.416125 0.000000
0.234294 0.403044 0.000000
0.389962 0.389962 0.000000
0.545631 0.376881 0.000000
0.701300 0.363800 0.000000
0.856969 0.350719 0.000000
1.000000 0.337637 0.000000
1.000000 0.324556 0.000000
0.000000 0.572275 0.000000
0.052944 0.559194 0.000000
0.208613 0.546113 0.000000
0.364281 0.533031 0.000000
0.519950 0.519950 0.000000
0.675619 0.506869 0.000000
0.831288 0.493788 0.000000
0.986956 0.480706 0.000000
1.000000 0.467625 0.000000
0.000000 0.715344 0.000000
0.027263 0.702263 0.000000
0.182931 0.689181 0.000000
0.338600 0.676100 0.000000
0.494269 0.663019 0.000000
0.649938 0.649938 0.000000
0.805606 0.636856 0.000000
0.961275 0.623775 0.000000
1.000000 0.610694 0.000000
0.000000 0.858413 0.000000
0.001581 0.845331 0.000000
0.157250 0.832250 0.000000
0.312919 0.819169 0.000000
0.468587 0.806088 0.000000
0.624256 0.793006 0.000000
0.779925 0.779925 0.000000
0.935594 0.766844 0.000000
1.000000 0.753763 0.000000
0.000000 1.000000 0.000000
0.000000 0.988400 0.000000
0.131569 0.975319 0.000000
0.287237 0.962238 0.000000
0.442906 0.949156 0.000000
0.598575 0.936075 0.000000
0.754244 0.922994 0.000000
0.909913 0.909913 0.000000
1.000000 0.896831 0.000000
0.000000 1.000000 0.000000
0.000000 1.000000 0.000000
0.105888 1.000000 0.000000
0.261556 1.000000 0.000000
0.417225 1.000000 0.000000
0.572894 1.000000 0.000000
0.728563 1.000000 0.000000
0.884231 1.000000 0.000000
1.000000 1.000000 0.000000
0.000000 0.000000 0.163763
0.150681 0.000000 0.150681
0.306350 0.000000 0.137600
0.462019 0.000000 0.124519
0.617687 0.000000 0.111437
0.773356 0.000000 0.098356
0.929025 0.000000 0.085275
1.000000 0.000000 0.072194
1.000000 0.000000 0.059113
0.000000 0.138081 0.138081
0.125000 0.125000 0.125000
0.280669 0.111919 0.111919
0.436338 0.098837 0.098837
0.592006 0.085756 0.085756
0.747675 0.072675 0.072675
0.903344 0.059594 0.059594
1.000000 0.046513 0.046513
1.000000 0.033431 0.033431
0.000000 0.281150 0.112400
0.099319 0.268069 0.099319
0.254988 0.254988 0.086237
0.410656 0.241906 0.073156
0.566325 0.228825 0.060075
0.721994 0.215744 0.046994
0.877663 0.202662 0.033912
1.000000 0.189581 0.020831
1.000000 0.176500 0.007750
0.000000 0.424219 0.086719
0.073637 0.411138 0.073637
0.229306 0.398056 0.060556
0.384975 0.384975 0.047475
0.540644 0.371894 0.034394
0.696313 0.358813 0.021313
0.851981 0.345731 0.008231
1.000000 0.332650 0.000000
1.000000 0.319569 0.000000
0.000000 0.567288 0.061037
0.047956 0.554206 0.047956
0.203625 0.541125 0.034875
0.359294 0.528044 0.021794
0.514962 0.514962 0.008713
0.670631 0.501881 0.000000
0.826300 0.488800 0.000000
0.981969 0.475719 0.000000
1.000000 0.462637 0.000000
0.000000 0.710356 0.035356
0.022275 0.697275 0.022275
0.177944 0.684194 0.009194
0.333612 0.671113 0.000000
0.489281 0.658031 0.000000
0.644950 0.644950 0.000000
0.800619 0.631869 0.000000
0.956288 0.618788 0.000000
1.000000 0.605706 0.000000
0.000000 0.853425 0.009675
0.000000 0.840344 0.000000
0.152262 0.827263 0.000000
0.307931 0.814181 0.000000
0.463600 0.801100 0.000000
0.619269 0.788019 0.000000
0.774938 0.774938 0.000000
0.930606 0.761856 0.000000
1.000000 0.748775 0.000000
0.000000 0.996494 0.000000
0.000000 0.983413 0.000000
0.126581 0.970331 0.000000
0.282250 0.957250 0.000000
0.437919 0.944169 0.000000
0.593587 0.931088 0.000000
0.749256 0.918006 0.000000
0.904925 0.904925 0.000000
1.000000 0.891844 0.000000
0.000000 1.000000 0.000000
0.000000 1.000000 0.000000
0.100900 1.000000 0.000000
0.256569 1.000000 0.000000
0.412237 1.000000 0.000000
0.567906 1.000000 0.000000
0.723575 1.000000 0.000000
0.879244 1.000000 0.000000
1.000000 1.000000 0.000000
0.000000 0.000000 0.327525
0.145694 0.000000 0.314444
0.301362 0.000000 0.301362
0.457031 0.000000 0.288281
0.612700 0.000000 0.275200
0.768369 0.000000 0.262119
0.924038 0.000000 0.249037
1.000000 0.000000 0.235956
1.000000 0.000000 0.222875
0.000000 0.133094 0.301844
0.120013 0.120013 0.288763
0.275681 0.106931 0.275681
0.431350 0.093850 0.262600
0.587019 0.080769 0.249519
0.742687 0.067687 0.236437
0.898356 0.054606 0.223356
1.000000 0.041525 0.210275
1.000000 0.028444 0.197194
0.000000 0.276162 0.276162
0.094331 0.263081 0.263081
0.250000 0.250000 0.250000
0.405669 0.236919 0.236919
0.561338 0.223837 0.223837
0.717006 0.210756 0.210756
0.872675 0.197675 0.197675
1.000000 0.184594 0.184594
1.000000 0.171512 0.171512
0.000000 0.419231 0.250481
0.068650 0.406150 0.237400
0.224319 0.393069 0.224319
0.379987 0.379987 0.211237
0.535656 0.366906 0.198156
0.691325 0.353825 0.185075
0.846994 0.340744 0.171994
1.000000 0.327662 0.158912
1.000000 0.314581 0.145831
0.000000 0.562300 0.224800
0.042969 0.549219 0.211719
0.198637 0.536138 0.198637
0.354306 0.523056 0.185556
0.509975 0.509975 0.172475
0.665644 0.496894 0.159394
0.821313 0.483813 0.146313
0.976981 0.470731 0.133231
1.000000 0.457650 0.120150
0.000000 0.705369 0.199119
0.017288 0.692288 0.186037
0.172956 0.679206 0.172956
0.328625 0.666125 0.159875
0.484294 0.653044 0.146794
0.639962 0.639962 0.133713
0.795631 0.626881 0.120631
0.951300 0.613800 0.107550
1.000000 0.600719 0.094469
0.000000 0.848437 0.173437
0.000000 0.835356 0.160356
0.147275 0.822275 0.147275
0.302944 0.809194 0.134194
0.458612 0.796113 0.121112
0.614281 0.783031 0.108031
0.769950 0.769950 0.094950
0.925619 0.756869 0.081869
1.000000 0.743788 0.068788
0.000000 0.991506 0.147756
0.000000 0.978425 0.134675
0.121594 0.965344 0.121594
0.277262 0.952263 0.108513
0.432931 0.939181 0.095431
0.588600 0.926100 0.082350
0.744269 0.913019 0.069269
0.899938 0.899938 0.056187
1.000000 0.886856 0.043106
0.000000 1.000000 0.122075
0.000000 1.000000 0.108994
0.095912 1.000000 0.095912
0.251581 1.000000 0.082831
0.407250 1.000000 0.069750
0.562919 1.000000 0.056669
0.718587 1.000000 0.043588
0.874256 1.000000 0.030506
1.000000 1.000000 0.017425
0.000000 0.000000 0.491288
0.140706 0.000000 0.478206
0.296375 0.000000 0.465125
0.452044 0.000000 0.452044
0.607712 0.000000 0.438963
0.763381 0.000000 0.425881
0.919050 0.000000 0.412800
1.000000 0.000000 0.399719
1.000000 0.000000 0.386638
0.000000 0.128106 0.465606
0.115025 0.115025 0.452525
0.270694 0.101944 0.439444
0.426362 0.088862 0.426362
0.582031 0.075781 0.413281
0.737700 0.062700 0.400200
0.893369 0.049619 0.387119
1.000000 0.036538 0.374038
1.000000 0.023456 0.360956
0.000000 0.271175 0.439925
0.089344 0.258094 0.426844
0.245012 0.245012 0.413763
0.400681 0.231931 0.400681
0.556350 0.218850 0.387600
0.712019 0.205769 0.374519
0.867687 0.192687 0.361437
1.000000 0.179606 0.348356
1.000000 0.166525 0.335275
0.000000 0.414244 0.414244
0.063662 0.401162 0.401162
0.219331 0.388081 0.388081
0.375000 0.375000 0.375000
0.530669 0.361919 0.361919
0.686338 0.348838 0.348838
0.842006 0.335756 0.335756
0.997675 0.322675 0.322675
1.000000 0.309594 0.309594
0.000000 0.557312 0.388563
0.037981 0.544231 0.375481
0.193650 0.531150 0.362400
0.349319 0.518069 0.349319
0.504988 0.504988 0.336237
0.660656 0.491906 0.323156
0.816325 0.478825 0.310075
0.971994 0.465744 0.296994
1.000000 0.452662 0.283912
0.000000 0.700381 0.362881
0.012300 0.687300 0.349800
0.167969 0.674219 0.336719
0.323638 0.661138 0.323638
0.479306 0.648056 0.310556
0.634975 0.634975 0.297475
0.790644 0.621894 0.284394
0.946313 0.608812 0.271313
1.000000 0.595731 0.258231
0.000000 0.843450 0.337200
0.000000 0.830369 0.324119
0.142288 0.817288 0.311037
0.297956 0.804206 0.297956
0.453625 0.791125 0.284875
0.609294 0.778044 0.271794
0.764962 0.764962 0.258713
0.920631 0.751881 0.245631
1.000000 0.738800 0.232550
0.000000 0.986519 0.311519
0.000000 0.973437 0.298437
0.116606 0.960356 0.285356
0.272275 0.947275 0.272275
0.427944 0.934194 0.259194
0.583612 0.921113 0.246112
0.739281 0.908031 0.233031
0.894950 0.894950 0.219950
1.000000 0.881869 0.206869
0.000000 1.000000 0.285838
0.000000 1.000000 0.272756
0.090925 1.000000 0.259675
0.246594 1.000000 0.246594
0.402263 1.000000 0.233513
0.557931 1.000000 0.220431
0.713600 1.000000 0.207350
0.869269 1.000000 0.194269
1.000000 1.000000 0.181188
0.000000 0.000000 0.655050
0.135719 0.000000 0.641969
0.291388 0.000000 0.628888
0.447056 0.000000 0.615806
0.602725 0.000000 0.602725
0.758394 0.000000 0.589644
0.914063 0.000000 0.576563
1.000000 0.000000 0.563481
1.000000 0.000000 0.550400
0.000000 0.123119 0.629369
0.110038 0.110038 0.616288
0.265706 0.096956 0.603206
0.421375 0.083875 0.590125
0.577044 0.070794 0.577044
0.732713 0.057712 0.563963
0.888381 0.044631 0.550881
1.000000 0.031550 0.537800
1.000000 0.018469 0.524719
0.000000 0.266188 0.603688
0.084356 0.253106 0.590606
0.240025 0.240025 0.577525
0.395694 0.226944 0.564444
0.551362 0.213862 0.551362
0.707031 0.200781 0.538281
0.862700 0.187700 0.525200
1.000000 0.174619 0.512119
1.000000 0.161537 0.499037
0.000000 0.409256 0.578006
0.058675 0.396175 0.564925
0.214344 0.383094 0.551844
0.370013 0.370013 0.538763
0.525681 0.356931 0.525681
0.681350 0.343850 0.512600
0.837019 0.330769 0.499519
0.992687 0.317687 0.486437
1.000000 0.304606 0.473356
0.000000 0.552325 0.552325
0.032994 0.539244 0.539244
0.188663 0.526162 0.526162
0.344331 0.513081 0.513081
0.500000 0.500000 0.500000
0.655669 0.486919 0.486919
0.811338 0.473838 0.473838
0.967006 0.460756 0.460756
1.000000 0.447675 0.447675
0.000000 0.695394 0.526644
0.007312 0.682313 0.513563
0.162981 0.669231 0.500481
0.318650 0.656150 0.487400
0.474319 0.643069 0.474319
0.629988 0.629988 0.461237
0.785656 0.616906 0.448156
0.941325 0.603825 0.435075
1.000000 0.590744 0.421994
0.000000 0.838463 0.500962
0.000000 0.825381 0.487881
0.137300 0.812300 0.474800
0.292969 0.799219 0.461719
0.448637 0.786137 0.448637
0.604306 0.773056 0.435556
0.759975 0.759975 0.422475
0.915644 0.746894 0.409394
1.000000 0.733812 0.396312
0.000000 0.981531 0.475281
0.000000 0.968450 0.462200
0.111619 0.955369 0.449119
0.267287 0.942287 0.436037
0.422956 0.929206 0.422956
0.578625 0.916125 0.409875
0.734294 0.903044 0.396794
0.889962 0.889962 0.383712
1.000000 0.876881 0.370631
0.000000 1.000000 0.449600
0.000000 1.000000 0.436519
0.085938 1.000000 0.423437
0.241606 1.000000 0.410356
0.397275 1.000000 0.397275
0.552944 1.000000 0.384194
0.708612 1.000000 0.371112
0.864281 1.000000 0.358031
1.000000 1.000000 0.344950
0.000000 0.000000 0.818813
0.130731 0.000000 0.805731
0.286400 0.000000 0.792650
0.442069 0.000000 0.779569
0.597738 0.000000 0.766487
0.753406 0.000000 0.753406
0.909075 0.000000 0.740325
1.000000 0.000000 0.727244
1.000000 0.000000 0.714163
0.000000 0.118131 0.793131
0.105050 0.105050 0.780050
0.260719 0.091969 0.766969
0.416388 0.078887 0.753888
0.572056 0.065806 0.740806
0.727725 0.052725 0.727725
0.883394 0.039644 0.714644
1.000000 0.026562 0.701563
1.000000 0.013481 0.688481
0.000000 0.261200 0.767450
0.079369 0.248119 0.754369
0.235038 0.235038 0.741288
0.390706 0.221956 0.728206
0.546375 0.208875 0.715125
0.702044 0.195794 0.702044
0.857712 0.182712 0.688963
1.000000 0.169631 0.675881
1.000000 0.156550 0.662800
0.000000 0.404269 0.741769
0.053687 0.391188 0.728688
0.209356 0.378106 0.715606
0.365025 0.365025 0.702525
0.520694 0.351944 0.689444
0.676362 0.338863 0.676362
0.832031 0.325781 0.663281
0.987700 0.312700 0.650200
1.000000 0.299619 0.637119
0.000000 0.547338 0.716087
0.028006 0.534256 0.703006
0.183675 0.521175 0.689925
0.339344 0.508094 0.676844
0.495013 0.495013 0.663763
0.650681 0.481931 0.650681
0.806350 0.468850 0.637600
0.962019 0.455769 0.624519
1.000000 0.442687 0.611437
0.000000 0.690406 0.690406
0.002325 0.677325 0.677325
0.157994 0.664244 0.664244
0.313662 0.651162 0.651162
0.469331 0.638081 0.638081
0.625000 0.625000 0.625000
0.780669 0.611919 0.611919
0.936338 0.598838 0.598838
1.000000 0.585756 0.585756
0.000000 0.833475 0.664725
0.000000 0.820394 0.651644
0.132312 0.807312 0.638563
0.287981 0.794231 0.625481
0.443650 0.781150 0.612400
0.599319 0.768069 0.599319
0.754988 0.754988 0.586237
0.910656 0.741906 0.573156
1.000000 0.728825 0.560075
0.000000 0.976544 0.639044
0.000000 0.963462 0.625962
0.106631 0.950381 0.612881
0.262300 0.937300 0.599800
0.417969 0.924219 0.586719
0.573638 0.911137 0.573638
0.729306 0.898056 0.560556
0.884975 0.884975 0.547475
1.000000 0.871894 0.534394
0.000000 1.000000 0.613363
0.000000 1.000000 0.600281
0.080950 1.000000 0.587200
0.236619 1.000000 0.574119
0.392288 1.000000 0.561037
0.547956 1.000000 0.547956
0.703625 1.000000 0.534875
0.859294 1.000000 0.521794
1.000000 1.000000 0.508713
0.000000 0.000000 0.982575
0.125744 0.000000 0.969494
0.281413 0.000000 0.956412
0.437081 0.000000 0.943331
0.592750 0.000000 0.930250
0.748419 0.000000 0.917169
0.904087 0.000000 0.904087
1.000000 0.000000 0.891006
1.000000 0.000000 0.877925
0.000000 0.113144 0.956894
0.100062 0.100062 0.943812
0.255731 0.086981 0.930731
0.411400 0.073900 0.917650
0.567069 0.060819 0.904569
0.722738 0.047737 0.891487
0.878406 0.034656 0.878406
1.000000 0.021575 0.865325
1.000000 0.008494 0.852244
0.000000 0.256213 0.931212
0.074381 0.243131 0.918131
0.230050 0.230050 0.905050
0.385719 0.216969 0.891969
0.541388 0.203887 0.878888
0.697056 0.190806 0.865806
0.852725 0.177725 0.852725
1.000000 0.164644 0.839644
1.000000 0.151562 0.826563
0.000000 0.399281 0.905531
0.048700 0.386200 0.892450
0.204369 0.373119 0.879369
0.360038 0.360038 0.866288
0.515706 0.346956 0.853206
0.671375 0.333875 0.840125
0.827044 0.320794 0.827044
0.982712 0.307712 0.813963
1.000000 0.294631 0.800881
0.000000 0.542350 0.879850
0.023019 0.529269 0.866769
0.178687 0.516188 0.853688
0.334356 0.503106 0.840606
0.490025 0.490025 0.827525
0.645694 0.476944 0.814444
0.801362 0.463863 0.801362
0.957031 0.450781 0.788281
1.000000 0.437700 0.775200
0.000000 0.685419 0.854169
0.000000 0.672338 0.841087
0.153006 0.659256 0.828006
0.308675 0.646175 0.814925
0.464344 0.633094 0.801844
0.620012 0.620012 0.788763
0.775681 0.606931 0.775681
0.931350 0.593850 0.762600
1.000000 0.580769 0.749519
0.000000 0.828488 0.828488
0.000000 0.815406 0.815406
0.127325 0.802325 0.802325
0.282994 0.789244 0.789244
0.438662 0.776162 0.776162
0.594331 0.763081 0.763081
0.750000 0.750000 0.750000
0.905669 0.736919 0.736919
1.000000 0.723838 0.723838
0.000000 0.971556 0.802806
0.000000 0.958475 0.789725
0.101644 0.945394 0.776644
0.257312 0.932312 0.763563
0.412981 0.919231 0.750481
0.568650 0.906150 0.737400
0.724319 0.893069 0.724319
0.879988 0.879988 0.711237
1.000000 0.866906 0.698156
0.000000 1.000000 0.777125
0.000000 1.000000 0.764044
0.075962 1.000000 0.750962
0.231631 1.000000 0.737881
0.387300 1.000000 0.724800
0.542969 1.000000 0.711719
0.698638 1.000000 0.698638
0.854306 1.000000 0.685556
1.000000 1.000000 0.672475
0.000000 0.000000 1.000000
0.120756 0.000000 1.000000
0.276425 0.000000 1.000000
0.432094 0.000000 1.000000
0.587763 0.000000 1.000000
0.743431 0.000000 1.000000
0.899100 0.000000 1.000000
1.000000 0.000000 1.000000
1.000000 0.000000 1.000000
0.000000 0.108156 1.000000
0.095075 0.095075 1.000000
0.250744 0.081994 1.000000
0.406413 0.068912 1.000000
0.562081 0.055831 1.000000
0.717750 0.042750 1.000000
0.873419 0.029669 1.000000
1.000000 0.016587 1.000000
1.000000 0.003506 1.000000
0.000000 0.251225 1.000000
0.069394 0.238144 1.000000
0.225062 0.225062 1.000000
0.380731 0.211981 1.000000
0.536400 0.198900 1.000000
0.692069 0.185819 1.000000
0.847738 0.172737 1.000000
1.000000 0.159656 1.000000
1.000000 0.146575 0.990325
0.000000 0.394294 1.000000
0.043712 0.381213 1.000000
0.199381 0.368131 1.000000
0.355050 0.355050 1.000000
0.510719 0.341969 1.000000
0.666388 0.328887 1.000000
0.822056 0.315806 0.990806
0.977725 0.302725 0.977725
1.000000 0.289644 0.964644
0.000000 0.537362 1.000000
0.018031 0.524281 1.000000
0.173700 0.511200 1.000000
0.329369 0.498119 1.000000
0.485038 0.485038 0.991288
0.640706 0.471956 0.978206
0.796375 0.458875 0.965125
0.952044 0.445794 0.952044
1.000000 0.432712 0.938963
0.000000 0.680431 1.000000
0.000000 0.667350 1.000000
0.148019 0.654269 0.991769
0.303687 0.641188 0.978688
0.459356 0.628106 0.965606
0.615025 0.615025 0.952525
0.770694 0.601944 0.939444
0.926362 0.588863 0.926362
1.000000 0.575781 0.913281
0.000000 0.823500 0.992250
0.000000 0.810419 0.979169
0.122337 0.797338 0.966087
0.278006 0.784256 0.953006
0.433675 0.771175 0.939925
0.589344 0.758094 0.926844
0.745012 0.745012 0.913763
0.900681 0.731931 0.900681
1.000000 0.718850 0.887600
0.000000 0.966569 0.966569
0.000000 0.953488 0.953488
0.096656 0.940406 0.940406
0.252325 0.927325 0.927325
0.407994 0.914244 0.914244
0.563662 0.901162 0.901162
0.719331 0.888081 0.888081
0.875000 0.875000 0.875000
1.000000 0.861919 0.861919
0.000000 1.000000 0.940888
0.000000 1.000000 0.927806
0.070975 1.000000 0.914725
0.226644 1.000000 0.901644
0.382312 1.000000 0.888563
0.537981 1.000000 0.875481
0.693650 1.000000 0.862400
0.849319 1.000000 0.849319
1.000000 1.000000 0.836237
0.000000 0.000000 1.000000
0.115769 0.000000 1.000000
0.271437 0.000000 1.000000
0.427106 0.000000 1.000000
0.582775 0.000000 1.000000
0.738444 0.000000 1.000000
0.894113 0.000000 1.000000
1.000000 0.000000 1.000000
1.000000 0.000000 1.000000
0.000000 0.103169 1.000000
0.090087 0.090087 1.000000
0.245756 0.077006 1.000000
0.401425 0.063925 1.000000
0.557094 0.050844 1.000000
0.712762 0.037762 1.000000
0.868431 0.024681 1.000000
1.000000 0.011600 1.000000
1.000000 0.000000 1.000000
0.000000 0.246237 1.000000
0.064406 0.233156 1.000000
0.220075 0.220075 1.000000
0.375744 0.206994 1.000000
0.531413 0.193912 1.000000
0.687081 0.180831 1.000000
0.842750 0.167750 1.000000
0.998419 0.154669 1.000000
1.000000 0.141587 1.000000
0.000000 0.389306 1.000000
0.038725 0.376225 1.000000
0.194394 0.363144 1.000000
0.350062 0.350062 1.000000
0.505731 0.336981 1.000000
0.661400 0.323900 1.000000
0.817069 0.310819 1.000000
0.972738 0.297737 1.000000
1.000000 0.284656 1.000000
0.000000 0.532375 1.000000
0.013044 0.519294 1.000000
0.168712 0.506213 1.000000
0.324381 0.493131 1.000000
0.480050 0.480050 1.000000
0.635719 0.466969 1.000000
0.791388 0.453887 1.000000
0.947056 0.440806 1.000000
1.000000 0.427725 1.000000
0.000000 0.675444 1.000000
0.000000 0.662362 1.000000
0.143031 0.649281 1.000000
0.298700 0.636200 1.000000
0.454369 0.623119 1.000000
0.610038 0.610038 1.000000
0.765706 0.596956 1.000000
0.921375 0.583875 1.000000
1.000000 0.570794 1.000000
0.000000 0.818512 1.000000
0.000000 0.805431 1.000000
0.117350 0.792350 1.000000
0.273019 0.779269 1.000000
0.428687 0.766188 1.000000
0.584356 0.753106 1.000000
0.740025 0.740025 1.000000
0.895694 0.726944 1.000000
1.000000 0.713863 1.000000
0.000000 0.961581 1.000000
0.000000 0.948500 1.000000
0.091669 0.935419 1.000000
0.247337 0.922338 1.000000
0.403006 0.909256 1.000000
0.558675 0.896175 1.000000
0.714344 0.883094 1.000000
0.870012 0.870012 1.000000
1.000000 0.856931 1.000000
0.000000 1.000000 1.000000
0.000000 1.000000 1.000000
0.065987 1.000000 1.000000
0.221656 1.000000 1.000000
0.377325 1.000000 1.000000
0.532994 1.000000 1.000000
0.688662 1.000000 1.000000
0.844331 1.000000 1.000000
1.000000 1.000000 1.000000
