public/luts/vibrant.cube
TITLE "OXXOVO vibrant"
LUT_3D_SIZE 5
DOMAIN_MIN 0.0 0.0 0.0
DOMAIN_MAX 1.0 1.0 1.0
0.000000 0.000000 0.000000
0.311338 0.000000 0.000000
0.622675 0.000000 0.000000
0.934012 0.000000 0.000000
1.000000 0.000000 0.000000
0.000000 0.286138 0.000000
0.259975 0.259975 0.000000
0.571313 0.233812 0.000000
0.882650 0.207650 0.000000
1.000000 0.181487 0.000000
0.000000 0.572275 0.000000
0.208613 0.546113 0.000000
0.519950 0.519950 0.000000
0.831288 0.493788 0.000000
1.000000 0.467625 0.000000
0.000000 0.858413 0.000000
0.157250 0.832250 0.000000
0.468587 0.806088 0.000000
0.779925 0.779925 0.000000
1.000000 0.753763 0.000000
0.000000 1.000000 0.000000
0.105888 1.000000 0.000000
0.417225 1.000000 0.000000
0.728563 1.000000 0.000000
1.000000 1.000000 0.000000
0.000000 0.000000 0.327525
0.301362 0.000000 0.301362
0.612700 0.000000 0.275200
0.924038 0.000000 0.249037
1.000000 0.000000 0.222875
0.000000 0.276162 0.276162
0.250000 0.250000 0.250000
0.561338 0.223837 0.223837
0.872675 0.197675 0.197675
1.000000 0.171512 0.171512
0.000000 0.562300 0.224800
0.198637 0.536138 0.198637
0.509975 0.509975 0.172475
0.821313 0.483813 0.146313
1.000000 0.457650 0.120150
0.000000 0.848437 0.173437
0.147275 0.822275 0.147275
0.458612 0.796113 0.121112
0.769950 0.769950 0.094950
1.000000 0.743788 0.068788
0.000000 1.000000 0.122075
0.095912 1.000000 0.095912
0.407250 1.000000 0.069750
0.718587 1.000000 0.043588
1.000000 1.000000 0.017425
0.000000 0.000000 0.655050
0.291388 0.000000 0.628888
0.602725 0.000000 0.602725
0.914063 0.000000 0.576563
1.000000 0.000000 0.550400
0.000000 0.266188 0.603688
0.240025 0.240025 0.577525
0.551362 0.213862 0.551362
0.862700 0.187700 0.525200
1.000000 0.161537 0.499037
0.000000 0.552325 0.552325
0.188663 0.526162 0.526162
0.500000 0.500000 0.500000
0.811338 0.473838 0.473838
1.000000 0.447675 0.447675
0.000000 0.838463 0.500962
0.137300 0.812300 0.474800
0.448637 0.786137 0.448637
0.759975 0.759975 0.422475
1.000000 0.733812 0.396312
0.000000 1.000000 0.449600
0.085938 1.000000 0.423437
0.397275 1.000000 0.397275
0.708612 1.000000 0.371112
1.000000 1.000000 0.344950
0.000000 0.000000 0.982575
0.281413 0.000000 0.956412
0.592750 0.000000 0.930250
0.904087 0.000000 0.904087
1.000000 0.000000 0.877925
0.000000 0.256213 0.931212
0.230050 0.230050 0.905050
0.541388 0.203887 0.878888
0.852725 0.177725 0.852725
1.000000 0.151562 0.826563
0.000000 0.542350 0.879850
0.178687 0.516188 0.853688
0.490025 0.490025 0.827525
0.801362 0.463863 0.801362
1.000000 0.437700 0.775200
0.000000 0.828488 0.828488
0.127325 0.802325 0.802325
0.438662 0.776162 0.776162
0.750000 0.750000 0.750000
1.000000 0.723838 0.723838
0.000000 1.000000 0.777125
0.075962 1.000000 0.750962
0.387300 1.000000 0.724800
0.698638 1.000000 0.698638
1.000000 1.000000 0.672475
0.000000 0.000000 1.000000
0.271437 0.000000 1.000000
0.582775 0.000000 1.000000
0.894113 0.000000 1.000000
1.000000 0.000000 1.000000
0.000000 0.246237 1.000000
0.220075 0.220075 1.000000
0.531413 0.193912 1.000000
0.842750 0.167750 1.000000
1.000000 0.141587 1.000000
0.000000 0.532375 1.000000
0.168712 0.506213 1.000000
0.480050 0.480050 1.000000
0.791388 0.453887 1.000000
1.000000 0.427725 1.000000
0.000000 0.818512 1.000000
0.117350 0.792350 1.000000
0.428687 0.766188 1.000000
0.740025 0.740025 1.000000
1.000000 0.713863 1.000000
0.000000 1.000000 1.000000
0.065987 1.000000 1.000000
0.377325 1.000000 1.000000
0.688662 1.000000 1.000000
1.000000 1.000000 1.000000
