public/luts/vibrant.cube
TITLE "OXXOVO vibrant"
LUT_3D_SIZE 17
DOMAIN_MIN 0.0 0.0 0.0
DOMAIN_MAX 1.0 1.0 1.0
0.000000 0.000000 0.000000
0.077834 0.000000 0.000000
0.155669 0.000000 0.000000
0.233503 0.000000 0.000000
0.311338 0.000000 0.000000
0.389172 0.000000 0.000000
0.467006 0.000000 0.000000
0.544841 0.000000 0.000000
0.622675 0.000000 0.000000
0.700509 0.000000 0.000000
0.778344 0.000000 0.000000
0.856178 0.000000 0.000000
0.934012 0.000000 0.000000
1.000000 0.000000 0.000000
1.000000 0.000000 0.000000
1.000000 0.000000 0.000000
1.000000 0.000000 0.000000
0.000000 0.071534 0.000000
0.064994 0.064994 0.000000
0.142828 0.058453 0.000000
0.220663 0.051913 0.000000
0.298497 0.045372 0.000000
0.376331 0.038831 0.000000
0.454166 0.032291 0.000000
0.532000 0.025750 0.000000
0.609834 0.019209 0.000000
0.687669 0.012669 0.000000
0.765503 0.006128 0.000000
0.843338 0.000000 0.000000
0.921172 0.000000 0.000000
0.999006 0.000000 0.000000
1.000000 0.000000 0.000000
1.000000 0.000000 0.000000
1.000000 0.000000 0.000000
0.000000 0.143069 0.000000
0.052153 0.136528 0.000000
0.129988 0.129988 0.000000
0.207822 0.123447 0.000000
0.285656 0.116906 0.000000
0.363491 0.110366 0.000000
0.441325 0.103825 0.000000
0.519159 0.097284 0.000000
0.596994 0.090744 0.000000
0.674828 0.084203 0.000000
0.752663 0.077662 0.000000
0.830497 0.071122 0.000000
0.908331 0.064581 0.000000
0.986166 0.058041 0.000000
1.000000 0.051500 0.000000
1.000000 0.044959 0.000000
1.000000 0.038419 0.000000
0.000000 0.214603 0.000000
0.039312 0.208062 0.000000
0.117147 0.201522 0.000000
0.194981 0.194981 0.000000
0.272816 0.188441 0.000000
0.350650 0.181900 0.000000
0.428484 0.175359 0.000000
0.506319 0.168819 0.000000
0.584153 0.162278 0.000000
0.661987 0.155737 0.000000
0.739822 0.149197 0.000000
0.817656 0.142656 0.000000
0.895491 0.136116 0.000000
0.973325 0.129575 0.000000
1.000000 0.123034 0.000000
1.000000 0.116494 0.000000
1.000000 0.109953 0.000000
0.000000 0.286138 0.000000
0.026472 0.279597 0.000000
0.104306 0.273056 0.000000
0.182141 0.266516 0.000000
0.259975 0.259975 0.000000
0.337809 0.253434 0.000000
0.415644 0.246894 0.000000
0.493478 0.240353 0.000000
0.571313 0.233812 0.000000
0.649147 0.227272 0.000000
0.726981 0.220731 0.000000
0.804816 0.214191 0.000000
0.882650 0.207650 0.000000
0.960484 0.201109 0.000000
1.000000 0.194569 0.000000
1.000000 0.188028 0.000000
1.000000 0.181487 0.000000
0.000000 0.357672 0.000000
0.013631 0.351131 0.000000
0.091466 0.344591 0.000000
0.169300 0.338050 0.000000
0.247134 0.331509 0.000000
0.324969 0.324969 0.000000
0.402803 0.318428 0.000000
0.480638 0.311887 0.000000
0.558472 0.305347 0.000000
0.636306 0.298806 0.000000
0.714141 0.292266 0.000000
0.791975 0.285725 0.000000
0.869809 0.279184 0.000000
0.947644 0.272644 0.000000
1.000000 0.266103 0.000000
1.000000 0.259563 0.000000
1.000000 0.253022 0.000000
0.000000 0.429206 0.000000
0.000791 0.422666 0.000000
0.078625 0.416125 0.000000
0.156459 0.409584 0.000000
0.234294 0.403044 0.000000
0.312128 0.396503 0.000000
0.389962 0.389962 0.000000
0.467797 0.383422 0.000000
0.545631 0.376881 0.000000
0.623466 0.370341 0.000000
0.701300 0.363800 0.000000
0.779134 0.357259 0.000000
0.856969 0.350719 0.000000
0.934803 0.344178 0.000000
1.000000 0.337637 0.000000
1.000000 0.331097 0.000000
1.000000 0.324556 0.000000
0.000000 0.500741 0.000000
0.000000 0.494200 0.000000
0.065784 0.487659 0.000000
0.143619 0.481119 0.000000
0.221453 0.474578 0.000000
0.299287 0.468037 0.000000
0.377122 0.461497 0.000000
0.454956 0.454956 0.000000
0.532791 0.448416 0.000000
0.610625 0.441875 0.000000
0.688459 0.435334 0.000000
0.766294 0.428794 0.000000
0.844128 0.422253 0.000000
0.921963 0.415712 0.000000
0.999797 0.409172 0.000000
1.000000 0.402631 0.000000
1.000000 0.396091 0.000000
0.000000 0.572275 0.000000
0.000000 0.565734 0.000000
0.052944 0.559194 0.000000
0.130778 0.552653 0.000000
0.208613 0.546113 0.000000
0.286447 0.539572 0.000000
0.364281 0.533031 0.000000
0.442116 0.526491 0.000000
0.519950 0.519950 0.000000
0.597784 0.513409 0.000000
0.675619 0.506869 0.000000
0.753453 0.500328 0.000000
0.831288 0.493788 0.000000
0.909122 0.487247 0.000000
0.986956 0.480706 0.000000
1.000000 0.474166 0.000000
1.000000 0.467625 0.000000
0.000000 0.643809 0.000000
0.000000 0.637269 0.000000
0.040103 0.630728 0.000000
0.117937 0.624188 0.000000
0.195772 0.617647 0.000000
0.273606 0.611106 0.000000
0.351441 0.604566 0.000000
0.429275 0.598025 0.000000
0.507109 0.591484 0.000000
0.584944 0.584944 0.000000
0.662778 0.578403 0.000000
0.740613 0.571863 0.000000
0.818447 0.565322 0.000000
0.896281 0.558781 0.000000
0.974116 0.552241 0.000000
1.000000 0.545700 0.000000
1.000000 0.539159 0.000000
0.000000 0.715344 0.000000
0.000000 0.708803 0.000000
0.027263 0.702263 0.000000
0.105097 0.695722 0.000000
0.182931 0.689181 0.000000
0.260766 0.682641 0.000000
0.338600 0.676100 0.000000
0.416434 0.669559 0.000000
0.494269 0.663019 0.000000
0.572103 0.656478 0.000000
0.649938 0.649938 0.000000
0.727772 0.643397 0.000000
0.805606 0.636856 0.000000
0.883441 0.630316 0.000000
0.961275 0.623775 0.000000
1.000000 0.617234 0.000000
1.000000 0.610694 0.000000
0.000000 0.786878 0.000000
0.000000 0.780338 0.000000
0.014422 0.773797 0.000000
0.092256 0.767256 0.000000
0.170091 0.760716 0.000000
0.247925 0.754175 0.000000
0.325759 0.747634 0.000000
0.403594 0.741094 0.000000
0.481428 0.734553 0.000000
0.559262 0.728012 0.000000
0.637097 0.721472 0.000000
0.714931 0.714931 0.000000
0.792766 0.708391 0.000000
0.870600 0.701850 0.000000
0.948434 0.695309 0.000000
1.000000 0.688769 0.000000
1.000000 0.682228 0.000000
0.000000 0.858413 0.000000
0.000000 0.851872 0.000000
0.001581 0.845331 0.000000
0.079416 0.838791 0.000000
0.157250 0.832250 0.000000
0.235084 0.825709 0.000000
0.312919 0.819169 0.000000
0.390753 0.812628 0.000000
0.468587 0.806088 0.000000
0.546422 0.799547 0.000000
0.624256 0.793006 0.000000
0.702091 0.786466 0.000000
0.779925 0.779925 0.000000
0.857759 0.773384 0.000000
0.935594 0.766844 0.000000
1.000000 0.760303 0.000000
1.000000 0.753763 0.000000
0.000000 0.929947 0.000000
0.000000 0.923406 0.000000
0.000000 0.916866 0.000000
0.066575 0.910325 0.000000
0.144409 0.903784 0.000000
0.222244 0.897244 0.000000
0.300078 0.890703 0.000000
0.377912 0.884162 0.000000
0.455747 0.877622 0.000000
0.533581 0.871081 0.000000
0.611416 0.864541 0.000000
0.689250 0.858000 0.000000
0.767084 0.851459 0.000000
0.844919 0.844919 0.000000
0.922753 0.838378 0.000000
1.000000 0.831838 0.000000
1.000000 0.825297 0.000000
0.000000 1.000000 0.000000
0.000000 0.994941 0.000000
0.000000 0.988400 0.000000
0.053734 0.981859 0.000000
0.131569 0.975319 0.000000
0.209403 0.968778 0.000000
0.287237 0.962238 0.000000
0.365072 0.955697 0.000000
0.442906 0.949156 0.000000
0.520741 0.942616 0.000000
0.598575 0.936075 0.000000
0.676409 0.929534 0.000000
0.754244 0.922994 0.000000
0.832078 0.916453 0.000000
0.909913 0.909913 0.000000
0.987747 0.903372 0.000000
1.000000 0.896831 0.000000
0.000000 1.000000 0.000000
0.000000 1.000000 0.000000
0.000000 1.000000 0.000000
0.040894 1.000000 0.000000
0.118728 1.000000 0.000000
0.196562 1.000000 0.000000
0.274397 1.000000 0.000000
0.352231 1.000000 0.000000
0.430066 1.000000 0.000000
0.507900 1.000000 0.000000
0.585734 1.000000 0.000000
0.663569 1.000000 0.000000
0.741403 0.994528 0.000000
0.819237 0.987988 0.000000
0.897072 0.981447 0.000000
0.974906 0.974906 0.000000
1.000000 0.968366 0.000000
0.000000 1.000000 0.000000
0.000000 1.000000 0.000000
0.000000 1.000000 0.000000
0.028053 1.000000 0.000000
0.105888 1.000000 0.000000
0.183722 1.000000 0.000000
0.261556 1.000000 0.000000
0.339391 1.000000 0.000000
0.417225 1.000000 0.000000
0.495059 1.000000 0.000000
0.572894 1.000000 0.000000
0.650728 1.000000 0.000000
0.728563 1.000000 0.000000
0.806397 1.000000 0.000000
0.884231 1.000000 0.000000
0.962066 1.000000 0.000000
1.000000 1.000000 0.000000
0.000000 0.000000 0.081881
0.075341 0.000000 0.075341
0.153175 0.000000 0.068800
0.231009 0.000000 0.062259
0.308844 0.000000 0.055719
0.386678 0.000000 0.049178
0.464512 0.000000 0.042637
0.542347 0.000000 0.036097
0.620181 0.000000 0.029556
0.698016 0.000000 0.023016
0.775850 0.000000 0.016475
0.853684 0.000000 0.009934
0.931519 0.000000 0.003394
1.000000 0.000000 0.000000
1.000000 0.000000 0.000000
1.000000 0.000000 0.000000
1.000000 0.000000 0.000000
0.000000 0.069041 0.069041
0.062500 0.062500 0.062500
0.140334 0.055959 0.055959
0.218169 0.049419 0.049419
0.296003 0.042878 0.042878
0.373838 0.036337 0.036337
0.451672 0.029797 0.029797
0.529506 0.023256 0.023256
0.607341 0.016716 0.016716
0.685175 0.010175 0.010175
0.763009 0.003634 0.003634
0.840844 0.000000 0.000000
0.918678 0.000000 0.000000
0.996512 0.000000 0.000000
1.000000 0.000000 0.000000
1.000000 0.000000 0.000000
1.000000 0.000000 0.000000
0.000000 0.140575 0.056200
0.049659 0.134034 0.049659
0.127494 0.127494 0.043119
0.205328 0.120953 0.036578
0.283162 0.114413 0.030037
0.360997 0.107872 0.023497
0.438831 0.101331 0.016956
0.516666 0.094791 0.010416
0.594500 0.088250 0.003875
0.672334 0.081709 0.000000
0.750169 0.075169 0.000000
0.828003 0.068628 0.000000
0.905838 0.062087 0.000000
0.983672 0.055547 0.000000
1.000000 0.049006 0.000000
1.000000 0.042466 0.000000
1.000000 0.035925 0.000000
0.000000 0.212109 0.043359
0.036819 0.205569 0.036819
0.114653 0.199028 0.030278
0.192488 0.192488 0.023737
0.270322 0.185947 0.017197
0.348156 0.179406 0.010656
0.425991 0.172866 0.004116
0.503825 0.166325 0.000000
0.581659 0.159784 0.000000
0.659494 0.153244 0.000000
0.737328 0.146703 0.000000
0.815163 0.140162 0.000000
0.892997 0.133622 0.000000
0.970831 0.127081 0.000000
1.000000 0.120541 0.000000
1.000000 0.114000 0.000000
1.000000 0.107459 0.000000
0.000000 0.283644 0.030519
0.023978 0.277103 0.023978
0.101813 0.270563 0.017437
0.179647 0.264022 0.010897
0.257481 0.257481 0.004356
0.335316 0.250941 0.000000
0.413150 0.244400 0.000000
0.490984 0.237859 0.000000
0.568819 0.231319 0.000000
0.646653 0.224778 0.000000
0.724488 0.218238 0.000000
0.802322 0.211697 0.000000
0.880156 0.205156 0.000000
0.957991 0.198616 0.000000
1.000000 0.192075 0.000000
1.000000 0.185534 0.000000
1.000000 0.178994 0.000000
0.000000 0.355178 0.017678
0.011137 0.348638 0.011137
0.088972 0.342097 0.004597
0.166806 0.335556 0.000000
0.244641 0.329016 0.000000
0.322475 0.322475 0.000000
0.400309 0.315934 0.000000
0.478144 0.309394 0.000000
0.555978 0.302853 0.000000
0.633813 0.296313 0.000000
0.711647 0.289772 0.000000
0.789481 0.283231 0.000000
0.867316 0.276691 0.000000
0.945150 0.270150 0.000000
1.000000 0.263609 0.000000
1.000000 0.257069 0.000000
1.000000 0.250528 0.000000
0.000000 0.426713 0.004837
0.000000 0.420172 0.000000
0.076131 0.413631 0.000000
0.153966 0.407091 0.000000
0.231800 0.400550 0.000000
0.309634 0.394009 0.000000
0.387469 0.387469 0.000000
0.465303 0.380928 0.000000
0.543138 0.374387 0.000000
0.620972 0.367847 0.000000
0.698806 0.361306 0.000000
0.776641 0.354766 0.000000
0.854475 0.348225 0.000000
0.932309 0.341684 0.000000
1.000000 0.335144 0.000000
1.000000 0.328603 0.000000
1.000000 0.322063 0.000000
0.000000 0.498247 0.000000
0.000000 0.491706 0.000000
0.063291 0.485166 0.000000
0.141125 0.478625 0.000000
0.218959 0.472084 0.000000
0.296794 0.465544 0.000000
0.374628 0.459003 0.000000
0.452462 0.452462 0.000000
0.530297 0.445922 0.000000
0.608131 0.439381 0.000000
0.685966 0.432841 0.000000
0.763800 0.426300 0.000000
0.841634 0.419759 0.000000
0.919469 0.413219 0.000000
0.997303 0.406678 0.000000
1.000000 0.400137 0.000000
1.000000 0.393597 0.000000
0.000000 0.569781 0.000000
0.000000 0.563241 0.000000
0.050450 0.556700 0.000000
0.128284 0.550159 0.000000
0.206119 0.543619 0.000000
0.283953 0.537078 0.000000
0.361787 0.530537 0.000000
0.439622 0.523997 0.000000
0.517456 0.517456 0.000000
0.595291 0.510916 0.000000
0.673125 0.504375 0.000000
0.750959 0.497834 0.000000
0.828794 0.491294 0.000000
0.906628 0.484753 0.000000
0.984463 0.478212 0.000000
1.000000 0.471672 0.000000
1.000000 0.465131 0.000000
0.000000 0.641316 0.000000
0.000000 0.634775 0.000000
0.037609 0.628234 0.000000
0.115444 0.621694 0.000000
0.193278 0.615153 0.000000
0.271112 0.608613 0.000000
0.348947 0.602072 0.000000
0.426781 0.595531 0.000000
0.504616 0.588991 0.000000
0.582450 0.582450 0.000000
0.660284 0.575909 0.000000
0.738119 0.569369 0.000000
0.815953 0.562828 0.000000
0.893787 0.556287 0.000000
0.971622 0.549747 0.000000
1.000000 0.543206 0.000000
1.000000 0.536666 0.000000
0.000000 0.712850 0.000000
0.000000 0.706309 0.000000
0.024769 0.699769 0.000000
0.102603 0.693228 0.000000
0.180438 0.686688 0.000000
0.258272 0.680147 0.000000
0.336106 0.673606 0.000000
0.413941 0.667066 0.000000
0.491775 0.660525 0.000000
0.569609 0.653984 0.000000
0.647444 0.647444 0.000000
0.725278 0.640903 0.000000
0.803113 0.634363 0.000000
0.880947 0.627822 0.000000
0.958781 0.621281 0.000000
1.000000 0.614741 0.000000
1.000000 0.608200 0.000000
0.000000 0.784384 0.000000
0.000000 0.777844 0.000000
0.011928 0.771303 0.000000
0.089762 0.764763 0.000000
0.167597 0.758222 0.000000
0.245431 0.751681 0.000000
0.323266 0.745141 0.000000
0.401100 0.738600 0.000000
0.478934 0.732059 0.000000
0.556769 0.725519 0.000000
0.634603 0.718978 0.000000
0.712438 0.712438 0.000000
0.790272 0.705897 0.000000
0.868106 0.699356 0.000000
0.945941 0.692816 0.000000
1.000000 0.686275 0.000000
1.000000 0.679734 0.000000
0.000000 0.855919 0.000000
0.000000 0.849378 0.000000
0.000000 0.842838 0.000000
0.076922 0.836297 0.000000
0.154756 0.829756 0.000000
0.232591 0.823216 0.000000
0.310425 0.816675 0.000000
0.388259 0.810134 0.000000
0.466094 0.803594 0.000000
0.543928 0.797053 0.000000
0.621762 0.790512 0.000000
0.699597 0.783972 0.000000
0.777431 0.777431 0.000000
0.855266 0.770891 0.000000
0.933100 0.764350 0.000000
1.000000 0.757809 0.000000
1.000000 0.751269 0.000000
0.000000 0.927453 0.000000
0.000000 0.920913 0.000000
0.000000 0.914372 0.000000
0.064081 0.907831 0.000000
0.141916 0.901291 0.000000
0.219750 0.894750 0.000000
0.297584 0.888209 0.000000
0.375419 0.881669 0.000000
0.453253 0.875128 0.000000
0.531087 0.868588 0.000000
0.608922 0.862047 0.000000
0.686756 0.855506 0.000000
0.764591 0.848966 0.000000
0.842425 0.842425 0.000000
0.920259 0.835884 0.000000
0.998094 0.829344 0.000000
1.000000 0.822803 0.000000
0.000000 0.998988 0.000000
0.000000 0.992447 0.000000
0.000000 0.985906 0.000000
0.051241 0.979366 0.000000
0.129075 0.972825 0.000000
0.206909 0.966284 0.000000
0.284744 0.959744 0.000000
0.362578 0.953203 0.000000
0.440412 0.946662 0.000000
0.518247 0.940122 0.000000
0.596081 0.933581 0.000000
0.673916 0.927041 0.000000
0.751750 0.920500 0.000000
0.829584 0.913959 0.000000
0.907419 0.907419 0.000000
0.985253 0.900878 0.000000
1.000000 0.894338 0.000000
0.000000 1.000000 0.000000
0.000000 1.000000 0.000000
0.000000 1.000000 0.000000
0.038400 1.000000 0.000000
0.116234 1.000000 0.000000
0.194069 1.000000 0.000000
0.271903 1.000000 0.000000
0.349737 1.000000 0.000000
0.427572 1.000000 0.000000
0.505406 1.000000 0.000000
0.583241 1.000000 0.000000
0.661075 0.998575 0.000000
0.738909 0.992034 0.000000
0.816744 0.985494 0.000000
0.894578 0.978953 0.000000
0.972413 0.972413 0.000000
1.000000 0.965872 0.000000
0.000000 1.000000 0.000000
0.000000 1.000000 0.000000
0.000000 1.000000 0.000000
0.025559 1.000000 0.000000
0.103394 1.000000 0.000000
0.181228 1.000000 0.000000
0.259062 1.000000 0.000000
0.336897 1.000000 0.000000
0.414731 1.000000 0.000000
0.492566 1.000000 0.000000
0.570400 1.000000 0.000000
0.648234 1.000000 0.000000
0.726069 1.000000 0.000000
0.803903 1.000000 0.000000
0.881737 1.000000 0.000000
0.959572 1.000000 0.000000
1.000000 1.000000 0.000000
0.000000 0.000000 0.163763
0.072847 0.000000 0.157222
0.150681 0.000000 0.150681
0.228516 0.000000 0.144141
0.306350 0.000000 0.137600
0.384184 0.000000 0.131059
0.462019 0.000000 0.124519
0.539853 0.000000 0.117978
0.617687 0.000000 0.111437
0.695522 0.000000 0.104897
0.773356 0.000000 0.098356
0.851191 0.000000 0.091816
0.929025 0.000000 0.085275
1.000000 0.000000 0.078734
1.000000 0.000000 0.072194
1.000000 0.000000 0.065653
1.000000 0.000000 0.059113
0.000000 0.066547 0.150922
0.060006 0.060006 0.144381
0.137841 0.053466 0.137841
0.215675 0.046925 0.131300
0.293509 0.040384 0.124759
0.371344 0.033844 0.118219
0.449178 0.027303 0.111678
0.527013 0.020762 0.105137
0.604847 0.014222 0.098597
0.682681 0.007681 0.092056
0.760516 0.001141 0.085516
0.838350 0.000000 0.078975
0.916184 0.000000 0.072434
0.994019 0.000000 0.065894
1.000000 0.000000 0.059353
1.000000 0.000000 0.052812
1.000000 0.000000 0.046272
0.000000 0.138081 0.138081
0.047166 0.131541 0.131541
0.125000 0.125000 0.125000
0.202834 0.118459 0.118459
0.280669 0.111919 0.111919
0.358503 0.105378 0.105378
0.436338 0.098837 0.098837
0.514172 0.092297 0.092297
0.592006 0.085756 0.085756
0.669841 0.079216 0.079216
0.747675 0.072675 0.072675
0.825509 0.066134 0.066134
0.903344 0.059594 0.059594
0.981178 0.053053 0.053053
1.000000 0.046513 0.046513
1.000000 0.039972 0.039972
1.000000 0.033431 0.033431
0.000000 0.209616 0.125241
0.034325 0.203075 0.118700
0.112159 0.196534 0.112159
0.189994 0.189994 0.105619
0.267828 0.183453 0.099078
0.345662 0.176913 0.092537
0.423497 0.170372 0.085997
0.501331 0.163831 0.079456
0.579166 0.157291 0.072916
0.657000 0.150750 0.066375
0.734834 0.144209 0.059834
0.812669 0.137669 0.053294
0.890503 0.131128 0.046753
0.968338 0.124587 0.040212
1.000000 0.118047 0.033672
1.000000 0.111506 0.027131
1.000000 0.104966 0.020591
0.000000 0.281150 0.112400
0.021484 0.274609 0.105859
0.099319 0.268069 0.099319
0.177153 0.261528 0.092778
0.254988 0.254988 0.086237
0.332822 0.248447 0.079697
0.410656 0.241906 0.073156
0.488491 0.235366 0.066616
0.566325 0.228825 0.060075
0.644159 0.222284 0.053534
0.721994 0.215744 0.046994
0.799828 0.209203 0.040453
0.877663 0.202662 0.033912
0.955497 0.196122 0.027372
1.000000 0.189581 0.020831
1.000000 0.183041 0.014291
1.000000 0.176500 0.007750
0.000000 0.352684 0.099559
0.008644 0.346144 0.093019
0.086478 0.339603 0.086478
0.164313 0.333063 0.079937
0.242147 0.326522 0.073397
0.319981 0.319981 0.066856
0.397816 0.313441 0.060316
0.475650 0.306900 0.053775
0.553484 0.300359 0.047234
0.631319 0.293819 0.040694
0.709153 0.287278 0.034153
0.786988 0.280738 0.027612
0.864822 0.274197 0.021072
0.942656 0.267656 0.014531
1.000000 0.261116 0.007991
1.000000 0.254575 0.001450
1.000000 0.248034 0.000000
0.000000 0.424219 0.086719
0.000000 0.417678 0.080178
0.073637 0.411138 0.073637
0.151472 0.404597 0.067097
0.229306 0.398056 0.060556
0.307141 0.391516 0.054016
0.384975 0.384975 0.047475
0.462809 0.378434 0.040934
0.540644 0.371894 0.034394
0.618478 0.365353 0.027853
0.696313 0.358813 0.021313
0.774147 0.352272 0.014772
0.851981 0.345731 0.008231
0.929816 0.339191 0.001691
1.000000 0.332650 0.000000
1.000000 0.326109 0.000000
1.000000 0.319569 0.000000
0.000000 0.495753 0.073878
0.000000 0.489213 0.067337
0.060797 0.482672 0.060797
0.138631 0.476131 0.054256
0.216466 0.469591 0.047716
0.294300 0.463050 0.041175
0.372134 0.456509 0.034634
0.449969 0.449969 0.028094
0.527803 0.443428 0.021553
0.605638 0.436887 0.015012
0.683472 0.430347 0.008472
0.761306 0.423806 0.001931
0.839141 0.417266 0.000000
0.916975 0.410725 0.000000
0.994809 0.404184 0.000000
1.000000 0.397644 0.000000
1.000000 0.391103 0.000000
0.000000 0.567288 0.061037
0.000000 0.560747 0.054497
0.047956 0.554206 0.047956
0.125791 0.547666 0.041416
0.203625 0.541125 0.034875
0.281459 0.534584 0.028334
0.359294 0.528044 0.021794
0.437128 0.521503 0.015253
0.514962 0.514962 0.008713
0.592797 0.508422 0.002172
0.670631 0.501881 0.000000
0.748466 0.495341 0.000000
0.826300 0.488800 0.000000
0.904134 0.482259 0.000000
0.981969 0.475719 0.000000
1.000000 0.469178 0.000000
1.000000 0.462637 0.000000
0.000000 0.638822 0.048197
0.000000 0.632281 0.041656
0.035116 0.625741 0.035116
0.112950 0.619200 0.028575
0.190784 0.612659 0.022034
0.268619 0.606119 0.015494
0.346453 0.599578 0.008953
0.424288 0.593037 0.002412
0.502122 0.586497 0.000000
0.579956 0.579956 0.000000
0.657791 0.573416 0.000000
0.735625 0.566875 0.000000
0.813459 0.560334 0.000000
0.891294 0.553794 0.000000
0.969128 0.547253 0.000000
1.000000 0.540713 0.000000
1.000000 0.534172 0.000000
0.000000 0.710356 0.035356
0.000000 0.703816 0.028816
0.022275 0.697275 0.022275
0.100109 0.690734 0.015734
0.177944 0.684194 0.009194
0.255778 0.677653 0.002653
0.333612 0.671113 0.000000
0.411447 0.664572 0.000000
0.489281 0.658031 0.000000
0.567116 0.651491 0.000000
0.644950 0.644950 0.000000
0.722784 0.638409 0.000000
0.800619 0.631869 0.000000
0.878453 0.625328 0.000000
0.956288 0.618788 0.000000
1.000000 0.612247 0.000000
1.000000 0.605706 0.000000
0.000000 0.781891 0.022516
0.000000 0.775350 0.015975
0.009434 0.768809 0.009434
0.087269 0.762269 0.002894
0.165103 0.755728 0.000000
0.242937 0.749188 0.000000
0.320772 0.742647 0.000000
0.398606 0.736106 0.000000
0.476441 0.729566 0.000000
0.554275 0.723025 0.000000
0.632109 0.716484 0.000000
0.709944 0.709944 0.000000
0.787778 0.703403 0.000000
0.865613 0.696863 0.000000
0.943447 0.690322 0.000000
1.000000 0.683781 0.000000
1.000000 0.677241 0.000000
0.000000 0.853425 0.009675
0.000000 0.846884 0.003134
0.000000 0.840344 0.000000
0.074428 0.833803 0.000000
0.152262 0.827263 0.000000
0.230097 0.820722 0.000000
0.307931 0.814181 0.000000
0.385766 0.807641 0.000000
0.463600 0.801100 0.000000
0.541434 0.794559 0.000000
0.619269 0.788019 0.000000
0.697103 0.781478 0.000000
0.774938 0.774938 0.000000
0.852772 0.768397 0.000000
0.930606 0.761856 0.000000
1.000000 0.755316 0.000000
1.000000 0.748775 0.000000
0.000000 0.924959 0.000000
0.000000 0.918419 0.000000
0.000000 0.911878 0.000000
0.061588 0.905338 0.000000
0.139422 0.898797 0.000000
0.217256 0.892256 0.000000
0.295091 0.885716 0.000000
0.372925 0.879175 0.000000
0.450759 0.872634 0.000000
0.528594 0.866094 0.000000
0.606428 0.859553 0.000000
0.684262 0.853013 0.000000
0.762097 0.846472 0.000000
0.839931 0.839931 0.000000
0.917766 0.833391 0.000000
0.995600 0.826850 0.000000
1.000000 0.820309 0.000000
0.000000 0.996494 0.000000
0.000000 0.989953 0.000000
0.000000 0.983413 0.000000
0.048747 0.976872 0.000000
0.126581 0.970331 0.000000
0.204416 0.963791 0.000000
0.282250 0.957250 0.000000
0.360084 0.950709 0.000000
0.437919 0.944169 0.000000
0.515753 0.937628 0.000000
0.593587 0.931088 0.000000
0.671422 0.924547 0.000000
0.749256 0.918006 0.000000
0.827091 0.911466 0.000000
0.904925 0.904925 0.000000
0.982759 0.898384 0.000000
1.000000 0.891844 0.000000
0.000000 1.000000 0.000000
0.000000 1.000000 0.000000
0.000000 1.000000 0.000000
0.035906 1.000000 0.000000
0.113741 1.000000 0.000000
0.191575 1.000000 0.000000
0.269409 1.000000 0.000000
0.347244 1.000000 0.000000
0.425078 1.000000 0.000000
0.502912 1.000000 0.000000
0.580747 1.000000 0.000000
0.658581 0.996081 0.000000
0.736416 0.989541 0.000000
0.814250 0.983000 0.000000
0.892084 0.976459 0.000000
0.969919 0.969919 0.000000
1.000000 0.963378 0.000000
0.000000 1.000000 0.000000
0.000000 1.000000 0.000000
0.000000 1.000000 0.000000
0.023066 1.000000 0.000000
0.100900 1.000000 0.000000
0.178734 1.000000 0.000000
0.256569 1.000000 0.000000
0.334403 1.000000 0.000000
0.412237 1.000000 0.000000
0.490072 1.000000 0.000000
0.567906 1.000000 0.000000
0.645741 1.000000 0.000000
0.723575 1.000000 0.000000
0.801409 1.000000 0.000000
0.879244 1.000000 0.000000
0.957078 1.000000 0.000000
1.000000 1.000000 0.000000
0.000000 0.000000 0.245644
0.070353 0.000000 0.239103
0.148188 0.000000 0.232563
0.226022 0.000000 0.226022
0.303856 0.000000 0.219481
0.381691 0.000000 0.212941
0.459525 0.000000 0.206400
0.537359 0.000000 0.199859
0.615194 0.000000 0.193319
0.693028 0.000000 0.186778
0.770863 0.000000 0.180237
0.848697 0.000000 0.173697
0.926531 0.000000 0.167156
1.000000 0.000000 0.160616
1.000000 0.000000 0.154075
1.000000 0.000000 0.147534
1.000000 0.000000 0.140994
0.000000 0.064053 0.232803
