public/luts/warm_film.cube
TITLE "OXXOVO warm_film"
LUT_3D_SIZE 5
DOMAIN_MIN 0.0 0.0 0.0
DOMAIN_MAX 1.0 1.0 1.0
0.020000 0.010000 0.000000
0.285000 0.009253 0.000000
0.550000 0.008505 0.000000
0.815000 0.007757 0.000000
1.000000 0.007010 0.000000
0.020000 0.261033 0.000000
0.285000 0.260285 0.000000
0.550000 0.259537 0.000000
0.815000 0.258790 0.000000
1.000000 0.258043 0.000000
0.020000 0.512065 0.000000
0.285000 0.511317 0.000000
0.550000 0.510570 0.000000
0.815000 0.509822 0.000000
1.000000 0.509075 0.000000
0.020000 0.763098 0.000000
0.285000 0.762350 0.000000
0.550000 0.761603 0.000000
0.815000 0.760855 0.000000
1.000000 0.760108 0.000000
0.020000 1.000000 0.000000
0.285000 1.000000 0.000000
0.550000 1.000000 0.000000
0.815000 1.000000 0.000000
1.000000 1.000000 0.000000
0.020000 0.009715 0.230000
0.285000 0.008968 0.230000
0.550000 0.008220 0.230000
0.815000 0.007472 0.230000
1.000000 0.006725 0.230000
0.020000 0.260748 0.230000
0.285000 0.260000 0.230000
0.550000 0.259252 0.230000
0.815000 0.258505 0.230000
1.000000 0.257758 0.230000
0.020000 0.511780 0.230000
0.285000 0.511033 0.230000
0.550000 0.510285 0.230000
0.815000 0.509537 0.230000
1.000000 0.508790 0.230000
0.020000 0.762813 0.230000
0.285000 0.762065 0.230000
0.550000 0.761318 0.230000
0.815000 0.760570 0.230000
1.000000 0.759823 0.230000
0.020000 1.000000 0.230000
0.285000 1.000000 0.230000
0.550000 1.000000 0.230000
0.815000 1.000000 0.230000
1.000000 1.000000 0.230000
0.020000 0.009430 0.460000
0.285000 0.008682 0.460000
0.550000 0.007935 0.460000
0.815000 0.007188 0.460000
1.000000 0.006440 0.460000
0.020000 0.260462 0.460000
0.285000 0.259715 0.460000
0.550000 0.258968 0.460000
0.815000 0.258220 0.460000
1.000000 0.257472 0.460000
0.020000 0.511495 0.460000
0.285000 0.510748 0.460000
0.550000 0.510000 0.460000
0.815000 0.509252 0.460000
1.000000 0.508505 0.460000
0.020000 0.762528 0.460000
0.285000 0.761780 0.460000
0.550000 0.761033 0.460000
0.815000 0.760285 0.460000
1.000000 0.759538 0.460000
0.020000 1.000000 0.460000
0.285000 1.000000 0.460000
0.550000 1.000000 0.460000
0.815000 1.000000 0.460000
1.000000 1.000000 0.460000
0.020000 0.009145 0.690000
0.285000 0.008398 0.690000
0.550000 0.007650 0.690000
0.815000 0.006903 0.690000
1.000000 0.006155 0.690000
0.020000 0.260178 0.690000
0.285000 0.259430 0.690000
0.550000 0.258682 0.690000
0.815000 0.257935 0.690000
1.000000 0.257188 0.690000
0.020000 0.511210 0.690000
0.285000 0.510463 0.690000
0.550000 0.509715 0.690000
0.815000 0.508968 0.690000
1.000000 0.508220 0.690000
0.020000 0.762243 0.690000
0.285000 0.761495 0.690000
0.550000 0.760748 0.690000
0.815000 0.760000 0.690000
1.000000 0.759253 0.690000
0.020000 1.000000 0.690000
0.285000 1.000000 0.690000
0.550000 1.000000 0.690000
0.815000 1.000000 0.690000
1.000000 1.000000 0.690000
0.020000 0.008860 0.920000
0.285000 0.008112 0.920000
0.550000 0.007365 0.920000
0.815000 0.006618 0.920000
1.000000 0.005870 0.920000
0.020000 0.259893 0.920000
0.285000 0.259145 0.920000
0.550000 0.258398 0.920000
0.815000 0.257650 0.920000
1.000000 0.256902 0.920000
0.020000 0.510925 0.920000
0.285000 0.510177 0.920000
0.550000 0.509430 0.920000
0.815000 0.508683 0.920000
1.000000 0.507935 0.920000
0.020000 0.761958 0.920000
0.285000 0.761210 0.920000
0.550000 0.760463 0.920000
0.815000 0.759715 0.920000
1.000000 0.758968 0.920000
0.020000 1.000000 0.920000
0.285000 1.000000 0.920000
0.550000 1.000000 0.920000
0.815000 1.000000 0.920000
1.000000 1.000000 0.920000
