public/luts/warm_film.cube
TITLE "OXXOVO warm_film"
LUT_3D_SIZE 9
DOMAIN_MIN 0.0 0.0 0.0
DOMAIN_MAX 1.0 1.0 1.0
0.020000 0.010000 0.000000
0.152500 0.009626 0.000000
0.285000 0.009253 0.000000
0.417500 0.008879 0.000000
0.550000 0.008505 0.000000
0.682500 0.008131 0.000000
0.815000 0.007757 0.000000
0.947500 0.007384 0.000000
1.000000 0.007010 0.000000
0.020000 0.135516 0.000000
0.152500 0.135142 0.000000
0.285000 0.134769 0.000000
0.417500 0.134395 0.000000
0.550000 0.134021 0.000000
0.682500 0.133648 0.000000
0.815000 0.133274 0.000000
0.947500 0.132900 0.000000
1.000000 0.132526 0.000000
0.020000 0.261033 0.000000
0.152500 0.260659 0.000000
0.285000 0.260285 0.000000
0.417500 0.259911 0.000000
0.550000 0.259537 0.000000
0.682500 0.259164 0.000000
0.815000 0.258790 0.000000
0.947500 0.258416 0.000000
1.000000 0.258043 0.000000
0.020000 0.386549 0.000000
0.152500 0.386175 0.000000
0.285000 0.385801 0.000000
0.417500 0.385428 0.000000
0.550000 0.385054 0.000000
0.682500 0.384680 0.000000
0.815000 0.384306 0.000000
0.947500 0.383933 0.000000
1.000000 0.383559 0.000000
0.020000 0.512065 0.000000
0.152500 0.511691 0.000000
0.285000 0.511317 0.000000
0.417500 0.510944 0.000000
0.550000 0.510570 0.000000
0.682500 0.510196 0.000000
0.815000 0.509822 0.000000
0.947500 0.509449 0.000000
1.000000 0.509075 0.000000
0.020000 0.637581 0.000000
0.152500 0.637207 0.000000
0.285000 0.636834 0.000000
0.417500 0.636460 0.000000
0.550000 0.636086 0.000000
0.682500 0.635713 0.000000
0.815000 0.635339 0.000000
0.947500 0.634965 0.000000
1.000000 0.634591 0.000000
0.020000 0.763098 0.000000
0.152500 0.762724 0.000000
0.285000 0.762350 0.000000
0.417500 0.761976 0.000000
0.550000 0.761603 0.000000
0.682500 0.761229 0.000000
0.815000 0.760855 0.000000
0.947500 0.760481 0.000000
1.000000 0.760108 0.000000
0.020000 0.888614 0.000000
0.152500 0.888240 0.000000
0.285000 0.887866 0.000000
0.417500 0.887493 0.000000
0.550000 0.887119 0.000000
0.682500 0.886745 0.000000
0.815000 0.886371 0.000000
0.947500 0.885997 0.000000
1.000000 0.885624 0.000000
0.020000 1.000000 0.000000
0.152500 1.000000 0.000000
0.285000 1.000000 0.000000
0.417500 1.000000 0.000000
0.550000 1.000000 0.000000
0.682500 1.000000 0.000000
0.815000 1.000000 0.000000
0.947500 1.000000 0.000000
1.000000 1.000000 0.000000
0.020000 0.009857 0.115000
0.152500 0.009484 0.115000
0.285000 0.009110 0.115000
0.417500 0.008736 0.115000
0.550000 0.008363 0.115000
0.682500 0.007989 0.115000
0.815000 0.007615 0.115000
0.947500 0.007241 0.115000
1.000000 0.006867 0.115000
0.020000 0.135374 0.115000
0.152500 0.135000 0.115000
0.285000 0.134626 0.115000
0.417500 0.134252 0.115000
0.550000 0.133879 0.115000
0.682500 0.133505 0.115000
0.815000 0.133131 0.115000
0.947500 0.132758 0.115000
1.000000 0.132384 0.115000
0.020000 0.260890 0.115000
0.152500 0.260516 0.115000
0.285000 0.260142 0.115000
0.417500 0.259769 0.115000
0.550000 0.259395 0.115000
0.682500 0.259021 0.115000
0.815000 0.258648 0.115000
0.947500 0.258274 0.115000
1.000000 0.257900 0.115000
0.020000 0.386406 0.115000
0.152500 0.386033 0.115000
0.285000 0.385659 0.115000
0.417500 0.385285 0.115000
0.550000 0.384911 0.115000
0.682500 0.384538 0.115000
0.815000 0.384164 0.115000
0.947500 0.383790 0.115000
1.000000 0.383416 0.115000
0.020000 0.511923 0.115000
0.152500 0.511549 0.115000
0.285000 0.511175 0.115000
0.417500 0.510801 0.115000
0.550000 0.510428 0.115000
0.682500 0.510054 0.115000
0.815000 0.509680 0.115000
0.947500 0.509306 0.115000
1.000000 0.508933 0.115000
0.020000 0.637439 0.115000
0.152500 0.637065 0.115000
0.285000 0.636691 0.115000
0.417500 0.636317 0.115000
0.550000 0.635944 0.115000
0.682500 0.635570 0.115000
0.815000 0.635196 0.115000
0.947500 0.634822 0.115000
1.000000 0.634449 0.115000
0.020000 0.762955 0.115000
0.152500 0.762581 0.115000
0.285000 0.762208 0.115000
0.417500 0.761834 0.115000
0.550000 0.761460 0.115000
0.682500 0.761086 0.115000
0.815000 0.760713 0.115000
0.947500 0.760339 0.115000
1.000000 0.759965 0.115000
0.020000 0.888471 0.115000
0.152500 0.888097 0.115000
0.285000 0.887724 0.115000
0.417500 0.887350 0.115000
0.550000 0.886976 0.115000
0.682500 0.886603 0.115000
0.815000 0.886229 0.115000
0.947500 0.885855 0.115000
1.000000 0.885481 0.115000
0.020000 1.000000 0.115000
0.152500 1.000000 0.115000
0.285000 1.000000 0.115000
0.417500 1.000000 0.115000
0.550000 1.000000 0.115000
0.682500 1.000000 0.115000
0.815000 1.000000 0.115000
0.947500 1.000000 0.115000
1.000000 1.000000 0.115000
0.020000 0.009715 0.230000
0.152500 0.009341 0.230000
0.285000 0.008968 0.230000
0.417500 0.008594 0.230000
0.550000 0.008220 0.230000
0.682500 0.007846 0.230000
0.815000 0.007472 0.230000
0.947500 0.007099 0.230000
1.000000 0.006725 0.230000
0.020000 0.135231 0.230000
0.152500 0.134857 0.230000
0.285000 0.134484 0.230000
0.417500 0.134110 0.230000
0.550000 0.133736 0.230000
0.682500 0.133362 0.230000
0.815000 0.132989 0.230000
0.947500 0.132615 0.230000
1.000000 0.132241 0.230000
0.020000 0.260748 0.230000
0.152500 0.260374 0.230000
0.285000 0.260000 0.230000
0.417500 0.259626 0.230000
0.550000 0.259252 0.230000
0.682500 0.258879 0.230000
0.815000 0.258505 0.230000
0.947500 0.258131 0.230000
1.000000 0.257758 0.230000
0.020000 0.386264 0.230000
0.152500 0.385890 0.230000
0.285000 0.385516 0.230000
0.417500 0.385143 0.230000
0.550000 0.384769 0.230000
0.682500 0.384395 0.230000
0.815000 0.384021 0.230000
0.947500 0.383648 0.230000
1.000000 0.383274 0.230000
0.020000 0.511780 0.230000
0.152500 0.511406 0.230000
0.285000 0.511033 0.230000
0.417500 0.510659 0.230000
0.550000 0.510285 0.230000
0.682500 0.509911 0.230000
0.815000 0.509537 0.230000
0.947500 0.509164 0.230000
1.000000 0.508790 0.230000
0.020000 0.637296 0.230000
0.152500 0.636922 0.230000
0.285000 0.636549 0.230000
0.417500 0.636175 0.230000
0.550000 0.635801 0.230000
0.682500 0.635428 0.230000
0.815000 0.635054 0.230000
0.947500 0.634680 0.230000
1.000000 0.634306 0.230000
0.020000 0.762813 0.230000
0.152500 0.762439 0.230000
0.285000 0.762065 0.230000
0.417500 0.761691 0.230000
0.550000 0.761318 0.230000
0.682500 0.760944 0.230000
0.815000 0.760570 0.230000
0.947500 0.760196 0.230000
1.000000 0.759823 0.230000
0.020000 0.888329 0.230000
0.152500 0.887955 0.230000
0.285000 0.887581 0.230000
0.417500 0.887208 0.230000
0.550000 0.886834 0.230000
0.682500 0.886460 0.230000
0.815000 0.886086 0.230000
0.947500 0.885713 0.230000
1.000000 0.885339 0.230000
0.020000 1.000000 0.230000
0.152500 1.000000 0.230000
0.285000 1.000000 0.230000
0.417500 1.000000 0.230000
0.550000 1.000000 0.230000
0.682500 1.000000 0.230000
0.815000 1.000000 0.230000
0.947500 1.000000 0.230000
1.000000 1.000000 0.230000
0.020000 0.009573 0.345000
0.152500 0.009199 0.345000
0.285000 0.008825 0.345000
0.417500 0.008451 0.345000
0.550000 0.008077 0.345000
0.682500 0.007704 0.345000
0.815000 0.007330 0.345000
0.947500 0.006956 0.345000
1.000000 0.006582 0.345000
0.020000 0.135089 0.345000
0.152500 0.134715 0.345000
0.285000 0.134341 0.345000
0.417500 0.133967 0.345000
0.550000 0.133594 0.345000
0.682500 0.133220 0.345000
0.815000 0.132846 0.345000
0.947500 0.132472 0.345000
1.000000 0.132099 0.345000
0.020000 0.260605 0.345000
0.152500 0.260231 0.345000
0.285000 0.259858 0.345000
0.417500 0.259484 0.345000
0.550000 0.259110 0.345000
0.682500 0.258736 0.345000
0.815000 0.258362 0.345000
0.947500 0.257989 0.345000
1.000000 0.257615 0.345000
0.020000 0.386121 0.345000
0.152500 0.385748 0.345000
0.285000 0.385374 0.345000
0.417500 0.385000 0.345000
0.550000 0.384626 0.345000
0.682500 0.384253 0.345000
0.815000 0.383879 0.345000
0.947500 0.383505 0.345000
1.000000 0.383131 0.345000
0.020000 0.511637 0.345000
0.152500 0.511264 0.345000
0.285000 0.510890 0.345000
0.417500 0.510516 0.345000
0.550000 0.510143 0.345000
0.682500 0.509769 0.345000
0.815000 0.509395 0.345000
0.947500 0.509021 0.345000
1.000000 0.508648 0.345000
0.020000 0.637154 0.345000
0.152500 0.636780 0.345000
0.285000 0.636406 0.345000
0.417500 0.636033 0.345000
0.550000 0.635659 0.345000
0.682500 0.635285 0.345000
0.815000 0.634911 0.345000
0.947500 0.634537 0.345000
1.000000 0.634164 0.345000
0.020000 0.762670 0.345000
0.152500 0.762296 0.345000
0.285000 0.761923 0.345000
0.417500 0.761549 0.345000
0.550000 0.761175 0.345000
0.682500 0.760801 0.345000
0.815000 0.760428 0.345000
0.947500 0.760054 0.345000
1.000000 0.759680 0.345000
0.020000 0.888186 0.345000
0.152500 0.887813 0.345000
0.285000 0.887439 0.345000
0.417500 0.887065 0.345000
0.550000 0.886691 0.345000
0.682500 0.886318 0.345000
0.815000 0.885944 0.345000
0.947500 0.885570 0.345000
1.000000 0.885196 0.345000
0.020000 1.000000 0.345000
0.152500 1.000000 0.345000
0.285000 1.000000 0.345000
0.417500 1.000000 0.345000
0.550000 1.000000 0.345000
0.682500 1.000000 0.345000
0.815000 1.000000 0.345000
0.947500 1.000000 0.345000
1.000000 1.000000 0.345000
0.020000 0.009430 0.460000
0.152500 0.009056 0.460000
0.285000 0.008682 0.460000
0.417500 0.008309 0.460000
0.550000 0.007935 0.460000
0.682500 0.007561 0.460000
0.815000 0.007188 0.460000
0.947500 0.006814 0.460000
1.000000 0.006440 0.460000
0.020000 0.134946 0.460000
0.152500 0.134573 0.460000
0.285000 0.134199 0.460000
0.417500 0.133825 0.460000
0.550000 0.133451 0.460000
0.682500 0.133078 0.460000
0.815000 0.132704 0.460000
0.947500 0.132330 0.460000
1.000000 0.131956 0.460000
0.020000 0.260462 0.460000
0.152500 0.260089 0.460000
0.285000 0.259715 0.460000
0.417500 0.259341 0.460000
0.550000 0.258968 0.460000
0.682500 0.258594 0.460000
0.815000 0.258220 0.460000
0.947500 0.257846 0.460000
1.000000 0.257472 0.460000
0.020000 0.385979 0.460000
0.152500 0.385605 0.460000
0.285000 0.385231 0.460000
0.417500 0.384858 0.460000
0.550000 0.384484 0.460000
0.682500 0.384110 0.460000
0.815000 0.383736 0.460000
0.947500 0.383363 0.460000
1.000000 0.382989 0.460000
0.020000 0.511495 0.460000
0.152500 0.511121 0.460000
0.285000 0.510748 0.460000
0.417500 0.510374 0.460000
0.550000 0.510000 0.460000
0.682500 0.509626 0.460000
0.815000 0.509252 0.460000
0.947500 0.508879 0.460000
1.000000 0.508505 0.460000
0.020000 0.637011 0.460000
0.152500 0.636637 0.460000
0.285000 0.636264 0.460000
0.417500 0.635890 0.460000
0.550000 0.635516 0.460000
0.682500 0.635142 0.460000
0.815000 0.634769 0.460000
0.947500 0.634395 0.460000
1.000000 0.634021 0.460000
0.020000 0.762528 0.460000
0.152500 0.762154 0.460000
0.285000 0.761780 0.460000
0.417500 0.761406 0.460000
0.550000 0.761033 0.460000
0.682500 0.760659 0.460000
0.815000 0.760285 0.460000
0.947500 0.759911 0.460000
1.000000 0.759538 0.460000
0.020000 0.888044 0.460000
0.152500 0.887670 0.460000
0.285000 0.887296 0.460000
0.417500 0.886923 0.460000
0.550000 0.886549 0.460000
0.682500 0.886175 0.460000
0.815000 0.885801 0.460000
0.947500 0.885428 0.460000
1.000000 0.885054 0.460000
0.020000 1.000000 0.460000
0.152500 1.000000 0.460000
0.285000 1.000000 0.460000
0.417500 1.000000 0.460000
0.550000 1.000000 0.460000
0.682500 1.000000 0.460000
0.815000 1.000000 0.460000
0.947500 1.000000 0.460000
1.000000 1.000000 0.460000
0.020000 0.009288 0.575000
0.152500 0.008914 0.575000
0.285000 0.008540 0.575000
0.417500 0.008166 0.575000
0.550000 0.007792 0.575000
0.682500 0.007419 0.575000
0.815000 0.007045 0.575000
0.947500 0.006671 0.575000
1.000000 0.006298 0.575000
0.020000 0.134804 0.575000
0.152500 0.134430 0.575000
0.285000 0.134056 0.575000
0.417500 0.133683 0.575000
0.550000 0.133309 0.575000
0.682500 0.132935 0.575000
0.815000 0.132561 0.575000
0.947500 0.132188 0.575000
1.000000 0.131814 0.575000
0.020000 0.260320 0.575000
0.152500 0.259946 0.575000
0.285000 0.259572 0.575000
0.417500 0.259199 0.575000
0.550000 0.258825 0.575000
0.682500 0.258451 0.575000
0.815000 0.258078 0.575000
0.947500 0.257704 0.575000
1.000000 0.257330 0.575000
0.020000 0.385836 0.575000
0.152500 0.385463 0.575000
0.285000 0.385089 0.575000
0.417500 0.384715 0.575000
0.550000 0.384341 0.575000
0.682500 0.383968 0.575000
0.815000 0.383594 0.575000
0.947500 0.383220 0.575000
1.000000 0.382846 0.575000
0.020000 0.511352 0.575000
0.152500 0.510979 0.575000
0.285000 0.510605 0.575000
0.417500 0.510231 0.575000
0.550000 0.509857 0.575000
0.682500 0.509484 0.575000
0.815000 0.509110 0.575000
0.947500 0.508736 0.575000
1.000000 0.508363 0.575000
0.020000 0.636869 0.575000
0.152500 0.636495 0.575000
0.285000 0.636121 0.575000
0.417500 0.635748 0.575000
0.550000 0.635374 0.575000
0.682500 0.635000 0.575000
0.815000 0.634626 0.575000
0.947500 0.634252 0.575000
1.000000 0.633879 0.575000
0.020000 0.762385 0.575000
0.152500 0.762011 0.575000
0.285000 0.761638 0.575000
0.417500 0.761264 0.575000
0.550000 0.760890 0.575000
0.682500 0.760516 0.575000
0.815000 0.760143 0.575000
0.947500 0.759769 0.575000
1.000000 0.759395 0.575000
0.020000 0.887901 0.575000
0.152500 0.887528 0.575000
0.285000 0.887154 0.575000
0.417500 0.886780 0.575000
0.550000 0.886406 0.575000
0.682500 0.886033 0.575000
0.815000 0.885659 0.575000
0.947500 0.885285 0.575000
1.000000 0.884911 0.575000
0.020000 1.000000 0.575000
0.152500 1.000000 0.575000
0.285000 1.000000 0.575000
0.417500 1.000000 0.575000
0.550000 1.000000 0.575000
0.682500 1.000000 0.575000
0.815000 1.000000 0.575000
0.947500 1.000000 0.575000
1.000000 1.000000 0.575000
0.020000 0.009145 0.690000
0.152500 0.008771 0.690000
0.285000 0.008398 0.690000
0.417500 0.008024 0.690000
0.550000 0.007650 0.690000
0.682500 0.007276 0.690000
0.815000 0.006903 0.690000
0.947500 0.006529 0.690000
1.000000 0.006155 0.690000
0.020000 0.134661 0.690000
0.152500 0.134288 0.690000
0.285000 0.133914 0.690000
0.417500 0.133540 0.690000
0.550000 0.133166 0.690000
0.682500 0.132793 0.690000
0.815000 0.132419 0.690000
0.947500 0.132045 0.690000
1.000000 0.131671 0.690000
0.020000 0.260178 0.690000
0.152500 0.259804 0.690000
0.285000 0.259430 0.690000
0.417500 0.259056 0.690000
0.550000 0.258682 0.690000
0.682500 0.258309 0.690000
0.815000 0.257935 0.690000
0.947500 0.257561 0.690000
1.000000 0.257188 0.690000
0.020000 0.385694 0.690000
0.152500 0.385320 0.690000
0.285000 0.384946 0.690000
0.417500 0.384573 0.690000
0.550000 0.384199 0.690000
0.682500 0.383825 0.690000
0.815000 0.383451 0.690000
0.947500 0.383078 0.690000
1.000000 0.382704 0.690000
0.020000 0.511210 0.690000
0.152500 0.510836 0.690000
0.285000 0.510463 0.690000
0.417500 0.510089 0.690000
0.550000 0.509715 0.690000
0.682500 0.509341 0.690000
0.815000 0.508968 0.690000
0.947500 0.508594 0.690000
1.000000 0.508220 0.690000
0.020000 0.636726 0.690000
0.152500 0.636352 0.690000
0.285000 0.635979 0.690000
0.417500 0.635605 0.690000
0.550000 0.635231 0.690000
0.682500 0.634857 0.690000
0.815000 0.634484 0.690000
0.947500 0.634110 0.690000
1.000000 0.633736 0.690000
0.020000 0.762243 0.690000
0.152500 0.761869 0.690000
0.285000 0.761495 0.690000
0.417500 0.761121 0.690000
0.550000 0.760748 0.690000
0.682500 0.760374 0.690000
0.815000 0.760000 0.690000
0.947500 0.759626 0.690000
1.000000 0.759253 0.690000
0.020000 0.887759 0.690000
0.152500 0.887385 0.690000
0.285000 0.887011 0.690000
0.417500 0.886638 0.690000
0.550000 0.886264 0.690000
0.682500 0.885890 0.690000
0.815000 0.885516 0.690000
0.947500 0.885143 0.690000
1.000000 0.884769 0.690000
0.020000 1.000000 0.690000
0.152500 1.000000 0.690000
0.285000 1.000000 0.690000
0.417500 1.000000 0.690000
0.550000 1.000000 0.690000
0.682500 1.000000 0.690000
0.815000 1.000000 0.690000
0.947500 1.000000 0.690000
1.000000 1.000000 0.690000
0.020000 0.009003 0.805000
0.152500 0.008629 0.805000
0.285000 0.008255 0.805000
0.417500 0.007881 0.805000
0.550000 0.007508 0.805000
0.682500 0.007134 0.805000
0.815000 0.006760 0.805000
0.947500 0.006386 0.805000
1.000000 0.006013 0.805000
0.020000 0.134519 0.805000
0.152500 0.134145 0.805000
0.285000 0.133771 0.805000
0.417500 0.133398 0.805000
0.550000 0.133024 0.805000
0.682500 0.132650 0.805000
0.815000 0.132276 0.805000
0.947500 0.131903 0.805000
1.000000 0.131529 0.805000
0.020000 0.260035 0.805000
0.152500 0.259661 0.805000
0.285000 0.259288 0.805000
0.417500 0.258914 0.805000
0.550000 0.258540 0.805000
0.682500 0.258166 0.805000
0.815000 0.257792 0.805000
0.947500 0.257419 0.805000
1.000000 0.257045 0.805000
0.020000 0.385551 0.805000
0.152500 0.385178 0.805000
0.285000 0.384804 0.805000
0.417500 0.384430 0.805000
0.550000 0.384056 0.805000
0.682500 0.383683 0.805000
0.815000 0.383309 0.805000
0.947500 0.382935 0.805000
1.000000 0.382561 0.805000
0.020000 0.511068 0.805000
0.152500 0.510694 0.805000
0.285000 0.510320 0.805000
0.417500 0.509946 0.805000
0.550000 0.509572 0.805000
0.682500 0.509199 0.805000
0.815000 0.508825 0.805000
0.947500 0.508451 0.805000
1.000000 0.508077 0.805000
0.020000 0.636584 0.805000
0.152500 0.636210 0.805000
0.285000 0.635836 0.805000
0.417500 0.635462 0.805000
0.550000 0.635089 0.805000
0.682500 0.634715 0.805000
0.815000 0.634341 0.805000
0.947500 0.633968 0.805000
1.000000 0.633594 0.805000
0.020000 0.762100 0.805000
0.152500 0.761726 0.805000
0.285000 0.761353 0.805000
0.417500 0.760979 0.805000
0.550000 0.760605 0.805000
0.682500 0.760231 0.805000
0.815000 0.759858 0.805000
0.947500 0.759484 0.805000
1.000000 0.759110 0.805000
0.020000 0.887616 0.805000
0.152500 0.887243 0.805000
0.285000 0.886869 0.805000
0.417500 0.886495 0.805000
0.550000 0.886121 0.805000
0.682500 0.885748 0.805000
0.815000 0.885374 0.805000
0.947500 0.885000 0.805000
1.000000 0.884626 0.805000
0.020000 1.000000 0.805000
0.152500 1.000000 0.805000
0.285000 1.000000 0.805000
0.417500 1.000000 0.805000
0.550000 1.000000 0.805000
0.682500 1.000000 0.805000
0.815000 1.000000 0.805000
0.947500 1.000000 0.805000
1.000000 1.000000 0.805000
0.020000 0.008860 0.920000
0.152500 0.008486 0.920000
0.285000 0.008112 0.920000
0.417500 0.007739 0.920000
0.550000 0.007365 0.920000
0.682500 0.006991 0.920000
0.815000 0.006618 0.920000
0.947500 0.006244 0.920000
1.000000 0.005870 0.920000
0.020000 0.134376 0.920000
0.152500 0.134002 0.920000
0.285000 0.133629 0.920000
0.417500 0.133255 0.920000
0.550000 0.132881 0.920000
0.682500 0.132508 0.920000
0.815000 0.132134 0.920000
0.947500 0.131760 0.920000
1.000000 0.131386 0.920000
0.020000 0.259893 0.920000
0.152500 0.259519 0.920000
0.285000 0.259145 0.920000
0.417500 0.258771 0.920000
0.550000 0.258398 0.920000
0.682500 0.258024 0.920000
0.815000 0.257650 0.920000
0.947500 0.257276 0.920000
1.000000 0.256902 0.920000
0.020000 0.385409 0.920000
0.152500 0.385035 0.920000
0.285000 0.384661 0.920000
0.417500 0.384288 0.920000
0.550000 0.383914 0.920000
0.682500 0.383540 0.920000
0.815000 0.383166 0.920000
0.947500 0.382793 0.920000
1.000000 0.382419 0.920000
0.020000 0.510925 0.920000
0.152500 0.510551 0.920000
0.285000 0.510177 0.920000
0.417500 0.509804 0.920000
0.550000 0.509430 0.920000
0.682500 0.509056 0.920000
0.815000 0.508683 0.920000
0.947500 0.508309 0.920000
1.000000 0.507935 0.920000
0.020000 0.636441 0.920000
0.152500 0.636068 0.920000
0.285000 0.635694 0.920000
0.417500 0.635320 0.920000
0.550000 0.634946 0.920000
0.682500 0.634572 0.920000
0.815000 0.634199 0.920000
0.947500 0.633825 0.920000
1.000000 0.633451 0.920000
0.020000 0.761958 0.920000
0.152500 0.761584 0.920000
0.285000 0.761210 0.920000
0.417500 0.760836 0.920000
0.550000 0.760463 0.920000
0.682500 0.760089 0.920000
0.815000 0.759715 0.920000
0.947500 0.759341 0.920000
1.000000 0.758968 0.920000
0.020000 0.887474 0.920000
0.152500 0.887100 0.920000
0.285000 0.886726 0.920000
0.417500 0.886352 0.920000
0.550000 0.885979 0.920000
0.682500 0.885605 0.920000
0.815000 0.885231 0.920000
0.947500 0.884858 0.920000
1.000000 0.884484 0.920000
0.020000 1.000000 0.920000
0.152500 1.000000 0.920000
0.285000 1.000000 0.920000
0.417500 1.000000 0.920000
0.550000 1.000000 0.920000
0.682500 1.000000 0.920000
0.815000 1.000000 0.920000
0.947500 1.000000 0.920000
1.000000 1.000000 0.920000
