public/luts/warm_film.cube
TITLE "OXXOVO warm_film"
LUT_3D_SIZE 17
DOMAIN_MIN 0.0 0.0 0.0
DOMAIN_MAX 1.0 1.0 1.0
0.020000 0.010000 0.000000
0.086250 0.009813 0.000000
0.152500 0.009626 0.000000
0.218750 0.009439 0.000000
0.285000 0.009253 0.000000
0.351250 0.009066 0.000000
0.417500 0.008879 0.000000
0.483750 0.008692 0.000000
0.550000 0.008505 0.000000
0.616250 0.008318 0.000000
0.682500 0.008131 0.000000
0.748750 0.007944 0.000000
0.815000 0.007757 0.000000
0.881250 0.007571 0.000000
0.947500 0.007384 0.000000
1.000000 0.007197 0.000000
1.000000 0.007010 0.000000
0.020000 0.072758 0.000000
0.086250 0.072571 0.000000
0.152500 0.072384 0.000000
0.218750 0.072197 0.000000
0.285000 0.072011 0.000000
0.351250 0.071824 0.000000
0.417500 0.071637 0.000000
0.483750 0.071450 0.000000
0.550000 0.071263 0.000000
0.616250 0.071076 0.000000
0.682500 0.070889 0.000000
0.748750 0.070703 0.000000
0.815000 0.070516 0.000000
0.881250 0.070329 0.000000
0.947500 0.070142 0.000000
1.000000 0.069955 0.000000
1.000000 0.069768 0.000000
0.020000 0.135516 0.000000
0.086250 0.135329 0.000000
0.152500 0.135142 0.000000
0.218750 0.134956 0.000000
0.285000 0.134769 0.000000
0.351250 0.134582 0.000000
0.417500 0.134395 0.000000
0.483750 0.134208 0.000000
0.550000 0.134021 0.000000
0.616250 0.133834 0.000000
0.682500 0.133648 0.000000
0.748750 0.133461 0.000000
0.815000 0.133274 0.000000
0.881250 0.133087 0.000000
0.947500 0.132900 0.000000
1.000000 0.132713 0.000000
1.000000 0.132526 0.000000
0.020000 0.198274 0.000000
0.086250 0.198088 0.000000
0.152500 0.197901 0.000000
0.218750 0.197714 0.000000
0.285000 0.197527 0.000000
0.351250 0.197340 0.000000
0.417500 0.197153 0.000000
0.483750 0.196966 0.000000
0.550000 0.196779 0.000000
0.616250 0.196593 0.000000
0.682500 0.196406 0.000000
0.748750 0.196219 0.000000
0.815000 0.196032 0.000000
0.881250 0.195845 0.000000
0.947500 0.195658 0.000000
1.000000 0.195471 0.000000
1.000000 0.195284 0.000000
0.020000 0.261033 0.000000
0.086250 0.260846 0.000000
0.152500 0.260659 0.000000
0.218750 0.260472 0.000000
0.285000 0.260285 0.000000
0.351250 0.260098 0.000000
0.417500 0.259911 0.000000
0.483750 0.259724 0.000000
0.550000 0.259537 0.000000
0.616250 0.259351 0.000000
0.682500 0.259164 0.000000
0.748750 0.258977 0.000000
0.815000 0.258790 0.000000
0.881250 0.258603 0.000000
0.947500 0.258416 0.000000
1.000000 0.258229 0.000000
1.000000 0.258043 0.000000
0.020000 0.323791 0.000000
0.086250 0.323604 0.000000
0.152500 0.323417 0.000000
0.218750 0.323230 0.000000
0.285000 0.323043 0.000000
0.351250 0.322856 0.000000
0.417500 0.322669 0.000000
0.483750 0.322483 0.000000
0.550000 0.322296 0.000000
0.616250 0.322109 0.000000
0.682500 0.321922 0.000000
0.748750 0.321735 0.000000
0.815000 0.321548 0.000000
0.881250 0.321361 0.000000
0.947500 0.321174 0.000000
1.000000 0.320987 0.000000
1.000000 0.320801 0.000000
0.020000 0.386549 0.000000
0.086250 0.386362 0.000000
0.152500 0.386175 0.000000
0.218750 0.385988 0.000000
0.285000 0.385801 0.000000
0.351250 0.385614 0.000000
0.417500 0.385428 0.000000
0.483750 0.385241 0.000000
0.550000 0.385054 0.000000
0.616250 0.384867 0.000000
0.682500 0.384680 0.000000
0.748750 0.384493 0.000000
0.815000 0.384306 0.000000
0.881250 0.384119 0.000000
0.947500 0.383933 0.000000
1.000000 0.383746 0.000000
1.000000 0.383559 0.000000
0.020000 0.449307 0.000000
0.086250 0.449120 0.000000
0.152500 0.448933 0.000000
0.218750 0.448746 0.000000
0.285000 0.448559 0.000000
0.351250 0.448373 0.000000
0.417500 0.448186 0.000000
0.483750 0.447999 0.000000
0.550000 0.447812 0.000000
0.616250 0.447625 0.000000
0.682500 0.447438 0.000000
0.748750 0.447251 0.000000
0.815000 0.447064 0.000000
0.881250 0.446878 0.000000
0.947500 0.446691 0.000000
1.000000 0.446504 0.000000
1.000000 0.446317 0.000000
0.020000 0.512065 0.000000
0.086250 0.511878 0.000000
0.152500 0.511691 0.000000
0.218750 0.511504 0.000000
0.285000 0.511317 0.000000
0.351250 0.511131 0.000000
0.417500 0.510944 0.000000
0.483750 0.510757 0.000000
0.550000 0.510570 0.000000
0.616250 0.510383 0.000000
0.682500 0.510196 0.000000
0.748750 0.510009 0.000000
0.815000 0.509822 0.000000
0.881250 0.509636 0.000000
0.947500 0.509449 0.000000
1.000000 0.509262 0.000000
1.000000 0.509075 0.000000
0.020000 0.574823 0.000000
0.086250 0.574636 0.000000
0.152500 0.574449 0.000000
0.218750 0.574263 0.000000
0.285000 0.574076 0.000000
0.351250 0.573889 0.000000
0.417500 0.573702 0.000000
0.483750 0.573515 0.000000
0.550000 0.573328 0.000000
0.616250 0.573141 0.000000
0.682500 0.572954 0.000000
0.748750 0.572767 0.000000
0.815000 0.572581 0.000000
0.881250 0.572394 0.000000
0.947500 0.572207 0.000000
1.000000 0.572020 0.000000
1.000000 0.571833 0.000000
0.020000 0.637581 0.000000
0.086250 0.637394 0.000000
0.152500 0.637207 0.000000
0.218750 0.637021 0.000000
0.285000 0.636834 0.000000
0.351250 0.636647 0.000000
0.417500 0.636460 0.000000
0.483750 0.636273 0.000000
0.550000 0.636086 0.000000
0.616250 0.635899 0.000000
0.682500 0.635713 0.000000
0.748750 0.635526 0.000000
0.815000 0.635339 0.000000
0.881250 0.635152 0.000000
0.947500 0.634965 0.000000
1.000000 0.634778 0.000000
1.000000 0.634591 0.000000
0.020000 0.700339 0.000000
0.086250 0.700152 0.000000
0.152500 0.699966 0.000000
0.218750 0.699779 0.000000
0.285000 0.699592 0.000000
0.351250 0.699405 0.000000
0.417500 0.699218 0.000000
0.483750 0.699031 0.000000
0.550000 0.698844 0.000000
0.616250 0.698657 0.000000
0.682500 0.698471 0.000000
0.748750 0.698284 0.000000
0.815000 0.698097 0.000000
0.881250 0.697910 0.000000
0.947500 0.697723 0.000000
1.000000 0.697536 0.000000
1.000000 0.697349 0.000000
0.020000 0.763098 0.000000
0.086250 0.762911 0.000000
0.152500 0.762724 0.000000
0.218750 0.762537 0.000000
0.285000 0.762350 0.000000
0.351250 0.762163 0.000000
0.417500 0.761976 0.000000
0.483750 0.761789 0.000000
0.550000 0.761603 0.000000
0.616250 0.761416 0.000000
0.682500 0.761229 0.000000
0.748750 0.761042 0.000000
0.815000 0.760855 0.000000
0.881250 0.760668 0.000000
0.947500 0.760481 0.000000
1.000000 0.760294 0.000000
1.000000 0.760108 0.000000
0.020000 0.825856 0.000000
0.086250 0.825669 0.000000
0.152500 0.825482 0.000000
0.218750 0.825295 0.000000
0.285000 0.825108 0.000000
0.351250 0.824921 0.000000
0.417500 0.824734 0.000000
0.483750 0.824548 0.000000
0.550000 0.824361 0.000000
0.616250 0.824174 0.000000
0.682500 0.823987 0.000000
0.748750 0.823800 0.000000
0.815000 0.823613 0.000000
0.881250 0.823426 0.000000
0.947500 0.823239 0.000000
1.000000 0.823053 0.000000
1.000000 0.822866 0.000000
0.020000 0.888614 0.000000
0.086250 0.888427 0.000000
0.152500 0.888240 0.000000
0.218750 0.888053 0.000000
0.285000 0.887866 0.000000
0.351250 0.887679 0.000000
0.417500 0.887493 0.000000
0.483750 0.887306 0.000000
0.550000 0.887119 0.000000
0.616250 0.886932 0.000000
0.682500 0.886745 0.000000
0.748750 0.886558 0.000000
0.815000 0.886371 0.000000
0.881250 0.886184 0.000000
0.947500 0.885997 0.000000
1.000000 0.885811 0.000000
1.000000 0.885624 0.000000
0.020000 0.951372 0.000000
0.086250 0.951185 0.000000
0.152500 0.950998 0.000000
0.218750 0.950811 0.000000
0.285000 0.950624 0.000000
0.351250 0.950438 0.000000
0.417500 0.950251 0.000000
0.483750 0.950064 0.000000
0.550000 0.949877 0.000000
0.616250 0.949690 0.000000
0.682500 0.949503 0.000000
0.748750 0.949316 0.000000
0.815000 0.949129 0.000000
0.881250 0.948943 0.000000
0.947500 0.948756 0.000000
1.000000 0.948569 0.000000
1.000000 0.948382 0.000000
0.020000 1.000000 0.000000
0.086250 1.000000 0.000000
0.152500 1.000000 0.000000
0.218750 1.000000 0.000000
0.285000 1.000000 0.000000
0.351250 1.000000 0.000000
0.417500 1.000000 0.000000
0.483750 1.000000 0.000000
0.550000 1.000000 0.000000
0.616250 1.000000 0.000000
0.682500 1.000000 0.000000
0.748750 1.000000 0.000000
0.815000 1.000000 0.000000
0.881250 1.000000 0.000000
0.947500 1.000000 0.000000
1.000000 1.000000 0.000000
1.000000 1.000000 0.000000
0.020000 0.009929 0.057500
0.086250 0.009742 0.057500
0.152500 0.009555 0.057500
0.218750 0.009368 0.057500
0.285000 0.009181 0.057500
0.351250 0.008994 0.057500
0.417500 0.008808 0.057500
0.483750 0.008621 0.057500
0.550000 0.008434 0.057500
0.616250 0.008247 0.057500
0.682500 0.008060 0.057500
0.748750 0.007873 0.057500
0.815000 0.007686 0.057500
0.881250 0.007499 0.057500
0.947500 0.007312 0.057500
1.000000 0.007126 0.057500
1.000000 0.006939 0.057500
0.020000 0.072687 0.057500
0.086250 0.072500 0.057500
0.152500 0.072313 0.057500
0.218750 0.072126 0.057500
0.285000 0.071939 0.057500
0.351250 0.071752 0.057500
0.417500 0.071566 0.057500
0.483750 0.071379 0.057500
0.550000 0.071192 0.057500
0.616250 0.071005 0.057500
0.682500 0.070818 0.057500
0.748750 0.070631 0.057500
0.815000 0.070444 0.057500
0.881250 0.070258 0.057500
0.947500 0.070071 0.057500
1.000000 0.069884 0.057500
1.000000 0.069697 0.057500
0.020000 0.135445 0.057500
0.086250 0.135258 0.057500
0.152500 0.135071 0.057500
0.218750 0.134884 0.057500
0.285000 0.134697 0.057500
0.351250 0.134511 0.057500
0.417500 0.134324 0.057500
0.483750 0.134137 0.057500
0.550000 0.133950 0.057500
0.616250 0.133763 0.057500
0.682500 0.133576 0.057500
0.748750 0.133389 0.057500
0.815000 0.133203 0.057500
0.881250 0.133016 0.057500
0.947500 0.132829 0.057500
1.000000 0.132642 0.057500
1.000000 0.132455 0.057500
0.020000 0.198203 0.057500
0.086250 0.198016 0.057500
0.152500 0.197829 0.057500
0.218750 0.197643 0.057500
0.285000 0.197456 0.057500
0.351250 0.197269 0.057500
0.417500 0.197082 0.057500
0.483750 0.196895 0.057500
0.550000 0.196708 0.057500
0.616250 0.196521 0.057500
0.682500 0.196334 0.057500
0.748750 0.196148 0.057500
0.815000 0.195961 0.057500
0.881250 0.195774 0.057500
0.947500 0.195587 0.057500
1.000000 0.195400 0.057500
1.000000 0.195213 0.057500
0.020000 0.260961 0.057500
0.086250 0.260774 0.057500
0.152500 0.260588 0.057500
0.218750 0.260401 0.057500
0.285000 0.260214 0.057500
0.351250 0.260027 0.057500
0.417500 0.259840 0.057500
0.483750 0.259653 0.057500
0.550000 0.259466 0.057500
0.616250 0.259279 0.057500
0.682500 0.259093 0.057500
0.748750 0.258906 0.057500
0.815000 0.258719 0.057500
0.881250 0.258532 0.057500
0.947500 0.258345 0.057500
1.000000 0.258158 0.057500
1.000000 0.257971 0.057500
0.020000 0.323719 0.057500
0.086250 0.323533 0.057500
0.152500 0.323346 0.057500
0.218750 0.323159 0.057500
0.285000 0.322972 0.057500
0.351250 0.322785 0.057500
0.417500 0.322598 0.057500
0.483750 0.322411 0.057500
0.550000 0.322224 0.057500
0.616250 0.322037 0.057500
0.682500 0.321851 0.057500
0.748750 0.321664 0.057500
0.815000 0.321477 0.057500
0.881250 0.321290 0.057500
0.947500 0.321103 0.057500
1.000000 0.320916 0.057500
1.000000 0.320729 0.057500
0.020000 0.386478 0.057500
0.086250 0.386291 0.057500
0.152500 0.386104 0.057500
0.218750 0.385917 0.057500
0.285000 0.385730 0.057500
0.351250 0.385543 0.057500
0.417500 0.385356 0.057500
0.483750 0.385169 0.057500
0.550000 0.384983 0.057500
0.616250 0.384796 0.057500
0.682500 0.384609 0.057500
0.748750 0.384422 0.057500
0.815000 0.384235 0.057500
0.881250 0.384048 0.057500
0.947500 0.383861 0.057500
1.000000 0.383674 0.057500
1.000000 0.383488 0.057500
0.020000 0.449236 0.057500
0.086250 0.449049 0.057500
0.152500 0.448862 0.057500
0.218750 0.448675 0.057500
0.285000 0.448488 0.057500
0.351250 0.448301 0.057500
0.417500 0.448114 0.057500
0.483750 0.447928 0.057500
0.550000 0.447741 0.057500
0.616250 0.447554 0.057500
0.682500 0.447367 0.057500
0.748750 0.447180 0.057500
0.815000 0.446993 0.057500
0.881250 0.446806 0.057500
0.947500 0.446619 0.057500
1.000000 0.446433 0.057500
1.000000 0.446246 0.057500
0.020000 0.511994 0.057500
0.086250 0.511807 0.057500
0.152500 0.511620 0.057500
0.218750 0.511433 0.057500
0.285000 0.511246 0.057500
0.351250 0.511059 0.057500
0.417500 0.510872 0.057500
0.483750 0.510686 0.057500
0.550000 0.510499 0.057500
0.616250 0.510312 0.057500
0.682500 0.510125 0.057500
0.748750 0.509938 0.057500
0.815000 0.509751 0.057500
0.881250 0.509564 0.057500
0.947500 0.509378 0.057500
1.000000 0.509191 0.057500
1.000000 0.509004 0.057500
0.020000 0.574752 0.057500
0.086250 0.574565 0.057500
0.152500 0.574378 0.057500
0.218750 0.574191 0.057500
0.285000 0.574004 0.057500
0.351250 0.573817 0.057500
0.417500 0.573631 0.057500
0.483750 0.573444 0.057500
0.550000 0.573257 0.057500
0.616250 0.573070 0.057500
0.682500 0.572883 0.057500
0.748750 0.572696 0.057500
0.815000 0.572509 0.057500
0.881250 0.572322 0.057500
0.947500 0.572136 0.057500
1.000000 0.571949 0.057500
1.000000 0.571762 0.057500
0.020000 0.637510 0.057500
0.086250 0.637323 0.057500
0.152500 0.637136 0.057500
0.218750 0.636949 0.057500
0.285000 0.636763 0.057500
0.351250 0.636576 0.057500
0.417500 0.636389 0.057500
0.483750 0.636202 0.057500
0.550000 0.636015 0.057500
0.616250 0.635828 0.057500
0.682500 0.635641 0.057500
0.748750 0.635454 0.057500
0.815000 0.635267 0.057500
0.881250 0.635081 0.057500
0.947500 0.634894 0.057500
1.000000 0.634707 0.057500
1.000000 0.634520 0.057500
0.020000 0.700268 0.057500
0.086250 0.700081 0.057500
0.152500 0.699894 0.057500
0.218750 0.699707 0.057500
0.285000 0.699521 0.057500
0.351250 0.699334 0.057500
0.417500 0.699147 0.057500
0.483750 0.698960 0.057500
0.550000 0.698773 0.057500
0.616250 0.698586 0.057500
0.682500 0.698399 0.057500
0.748750 0.698213 0.057500
0.815000 0.698026 0.057500
0.881250 0.697839 0.057500
0.947500 0.697652 0.057500
1.000000 0.697465 0.057500
1.000000 0.697278 0.057500
0.020000 0.763026 0.057500
0.086250 0.762839 0.057500
0.152500 0.762653 0.057500
0.218750 0.762466 0.057500
0.285000 0.762279 0.057500
0.351250 0.762092 0.057500
0.417500 0.761905 0.057500
0.483750 0.761718 0.057500
0.550000 0.761531 0.057500
0.616250 0.761344 0.057500
0.682500 0.761158 0.057500
0.748750 0.760971 0.057500
0.815000 0.760784 0.057500
0.881250 0.760597 0.057500
0.947500 0.760410 0.057500
1.000000 0.760223 0.057500
1.000000 0.760036 0.057500
0.020000 0.825784 0.057500
0.086250 0.825598 0.057500
0.152500 0.825411 0.057500
0.218750 0.825224 0.057500
0.285000 0.825037 0.057500
0.351250 0.824850 0.057500
0.417500 0.824663 0.057500
0.483750 0.824476 0.057500
0.550000 0.824289 0.057500
0.616250 0.824103 0.057500
0.682500 0.823916 0.057500
0.748750 0.823729 0.057500
0.815000 0.823542 0.057500
0.881250 0.823355 0.057500
0.947500 0.823168 0.057500
1.000000 0.822981 0.057500
1.000000 0.822794 0.057500
0.020000 0.888543 0.057500
0.086250 0.888356 0.057500
0.152500 0.888169 0.057500
0.218750 0.887982 0.057500
0.285000 0.887795 0.057500
0.351250 0.887608 0.057500
0.417500 0.887421 0.057500
0.483750 0.887234 0.057500
0.550000 0.887047 0.057500
0.616250 0.886861 0.057500
0.682500 0.886674 0.057500
0.748750 0.886487 0.057500
0.815000 0.886300 0.057500
0.881250 0.886113 0.057500
0.947500 0.885926 0.057500
1.000000 0.885739 0.057500
1.000000 0.885553 0.057500
0.020000 0.951301 0.057500
0.086250 0.951114 0.057500
0.152500 0.950927 0.057500
0.218750 0.950740 0.057500
0.285000 0.950553 0.057500
0.351250 0.950366 0.057500
0.417500 0.950179 0.057500
0.483750 0.949993 0.057500
0.550000 0.949806 0.057500
0.616250 0.949619 0.057500
0.682500 0.949432 0.057500
0.748750 0.949245 0.057500
0.815000 0.949058 0.057500
0.881250 0.948871 0.057500
0.947500 0.948684 0.057500
1.000000 0.948497 0.057500
1.000000 0.948311 0.057500
0.020000 1.000000 0.057500
0.086250 1.000000 0.057500
0.152500 1.000000 0.057500
0.218750 1.000000 0.057500
0.285000 1.000000 0.057500
0.351250 1.000000 0.057500
0.417500 1.000000 0.057500
0.483750 1.000000 0.057500
0.550000 1.000000 0.057500
0.616250 1.000000 0.057500
0.682500 1.000000 0.057500
0.748750 1.000000 0.057500
0.815000 1.000000 0.057500
0.881250 1.000000 0.057500
0.947500 1.000000 0.057500
1.000000 1.000000 0.057500
1.000000 1.000000 0.057500
0.020000 0.009857 0.115000
0.086250 0.009671 0.115000
0.152500 0.009484 0.115000
0.218750 0.009297 0.115000
0.285000 0.009110 0.115000
0.351250 0.008923 0.115000
0.417500 0.008736 0.115000
0.483750 0.008549 0.115000
0.550000 0.008363 0.115000
0.616250 0.008176 0.115000
0.682500 0.007989 0.115000
0.748750 0.007802 0.115000
0.815000 0.007615 0.115000
0.881250 0.007428 0.115000
0.947500 0.007241 0.115000
1.000000 0.007054 0.115000
1.000000 0.006867 0.115000
0.020000 0.072616 0.115000
0.086250 0.072429 0.115000
0.152500 0.072242 0.115000
0.218750 0.072055 0.115000
0.285000 0.071868 0.115000
0.351250 0.071681 0.115000
0.417500 0.071494 0.115000
0.483750 0.071307 0.115000
0.550000 0.071121 0.115000
0.616250 0.070934 0.115000
0.682500 0.070747 0.115000
0.748750 0.070560 0.115000
0.815000 0.070373 0.115000
0.881250 0.070186 0.115000
0.947500 0.069999 0.115000
1.000000 0.069812 0.115000
1.000000 0.069626 0.115000
0.020000 0.135374 0.115000
0.086250 0.135187 0.115000
0.152500 0.135000 0.115000
0.218750 0.134813 0.115000
0.285000 0.134626 0.115000
0.351250 0.134439 0.115000
0.417500 0.134252 0.115000
0.483750 0.134066 0.115000
0.550000 0.133879 0.115000
0.616250 0.133692 0.115000
0.682500 0.133505 0.115000
0.748750 0.133318 0.115000
0.815000 0.133131 0.115000
0.881250 0.132944 0.115000
0.947500 0.132758 0.115000
1.000000 0.132571 0.115000
1.000000 0.132384 0.115000
0.020000 0.198132 0.115000
0.086250 0.197945 0.115000
0.152500 0.197758 0.115000
0.218750 0.197571 0.115000
0.285000 0.197384 0.115000
0.351250 0.197198 0.115000
0.417500 0.197011 0.115000
0.483750 0.196824 0.115000
0.550000 0.196637 0.115000
0.616250 0.196450 0.115000
0.682500 0.196263 0.115000
0.748750 0.196076 0.115000
0.815000 0.195889 0.115000
0.881250 0.195703 0.115000
0.947500 0.195516 0.115000
1.000000 0.195329 0.115000
1.000000 0.195142 0.115000
0.020000 0.260890 0.115000
0.086250 0.260703 0.115000
0.152500 0.260516 0.115000
0.218750 0.260329 0.115000
0.285000 0.260142 0.115000
0.351250 0.259956 0.115000
0.417500 0.259769 0.115000
0.483750 0.259582 0.115000
0.550000 0.259395 0.115000
0.616250 0.259208 0.115000
0.682500 0.259021 0.115000
0.748750 0.258834 0.115000
0.815000 0.258648 0.115000
0.881250 0.258461 0.115000
0.947500 0.258274 0.115000
1.000000 0.258087 0.115000
1.000000 0.257900 0.115000
0.020000 0.323648 0.115000
0.086250 0.323461 0.115000
0.152500 0.323274 0.115000
0.218750 0.323087 0.115000
0.285000 0.322901 0.115000
0.351250 0.322714 0.115000
0.417500 0.322527 0.115000
0.483750 0.322340 0.115000
0.550000 0.322153 0.115000
0.616250 0.321966 0.115000
0.682500 0.321779 0.115000
0.748750 0.321593 0.115000
0.815000 0.321406 0.115000
0.881250 0.321219 0.115000
0.947500 0.321032 0.115000
1.000000 0.320845 0.115000
1.000000 0.320658 0.115000
0.020000 0.386406 0.115000
0.086250 0.386219 0.115000
0.152500 0.386033 0.115000
0.218750 0.385846 0.115000
0.285000 0.385659 0.115000
0.351250 0.385472 0.115000
0.417500 0.385285 0.115000
0.483750 0.385098 0.115000
0.550000 0.384911 0.115000
0.616250 0.384724 0.115000
0.682500 0.384538 0.115000
0.748750 0.384351 0.115000
0.815000 0.384164 0.115000
0.881250 0.383977 0.115000
0.947500 0.383790 0.115000
1.000000 0.383603 0.115000
1.000000 0.383416 0.115000
0.020000 0.449164 0.115000
0.086250 0.448978 0.115000
0.152500 0.448791 0.115000
0.218750 0.448604 0.115000
0.285000 0.448417 0.115000
0.351250 0.448230 0.115000
0.417500 0.448043 0.115000
0.483750 0.447856 0.115000
0.550000 0.447669 0.115000
0.616250 0.447483 0.115000
0.682500 0.447296 0.115000
0.748750 0.447109 0.115000
0.815000 0.446922 0.115000
0.881250 0.446735 0.115000
0.947500 0.446548 0.115000
1.000000 0.446361 0.115000
1.000000 0.446174 0.115000
0.020000 0.511923 0.115000
0.086250 0.511736 0.115000
0.152500 0.511549 0.115000
0.218750 0.511362 0.115000
0.285000 0.511175 0.115000
0.351250 0.510988 0.115000
0.417500 0.510801 0.115000
0.483750 0.510614 0.115000
0.550000 0.510428 0.115000
0.616250 0.510241 0.115000
0.682500 0.510054 0.115000
0.748750 0.509867 0.115000
0.815000 0.509680 0.115000
0.881250 0.509493 0.115000
0.947500 0.509306 0.115000
1.000000 0.509119 0.115000
1.000000 0.508933 0.115000
0.020000 0.574681 0.115000
0.086250 0.574494 0.115000
0.152500 0.574307 0.115000
0.218750 0.574120 0.115000
0.285000 0.573933 0.115000
0.351250 0.573746 0.115000
0.417500 0.573559 0.115000
0.483750 0.573372 0.115000
0.550000 0.573186 0.115000
0.616250 0.572999 0.115000
0.682500 0.572812 0.115000
0.748750 0.572625 0.115000
0.815000 0.572438 0.115000
0.881250 0.572251 0.115000
0.947500 0.572064 0.115000
1.000000 0.571878 0.115000
1.000000 0.571691 0.115000
0.020000 0.637439 0.115000
0.086250 0.637252 0.115000
0.152500 0.637065 0.115000
0.218750 0.636878 0.115000
0.285000 0.636691 0.115000
0.351250 0.636504 0.115000
0.417500 0.636317 0.115000
0.483750 0.636131 0.115000
0.550000 0.635944 0.115000
0.616250 0.635757 0.115000
0.682500 0.635570 0.115000
0.748750 0.635383 0.115000
0.815000 0.635196 0.115000
0.881250 0.635009 0.115000
0.947500 0.634822 0.115000
1.000000 0.634636 0.115000
1.000000 0.634449 0.115000
0.020000 0.700197 0.115000
0.086250 0.700010 0.115000
0.152500 0.699823 0.115000
0.218750 0.699636 0.115000
0.285000 0.699449 0.115000
0.351250 0.699263 0.115000
0.417500 0.699076 0.115000
0.483750 0.698889 0.115000
0.550000 0.698702 0.115000
0.616250 0.698515 0.115000
0.682500 0.698328 0.115000
0.748750 0.698141 0.115000
0.815000 0.697954 0.115000
0.881250 0.697767 0.115000
0.947500 0.697581 0.115000
1.000000 0.697394 0.115000
1.000000 0.697207 0.115000
0.020000 0.762955 0.115000
0.086250 0.762768 0.115000
0.152500 0.762581 0.115000
0.218750 0.762394 0.115000
0.285000 0.762208 0.115000
0.351250 0.762021 0.115000
0.417500 0.761834 0.115000
0.483750 0.761647 0.115000
0.550000 0.761460 0.115000
0.616250 0.761273 0.115000
0.682500 0.761086 0.115000
0.748750 0.760899 0.115000
0.815000 0.760713 0.115000
0.881250 0.760526 0.115000
0.947500 0.760339 0.115000
1.000000 0.760152 0.115000
1.000000 0.759965 0.115000
0.020000 0.825713 0.115000
0.086250 0.825526 0.115000
0.152500 0.825339 0.115000
0.218750 0.825153 0.115000
0.285000 0.824966 0.115000
0.351250 0.824779 0.115000
0.417500 0.824592 0.115000
0.483750 0.824405 0.115000
0.550000 0.824218 0.115000
0.616250 0.824031 0.115000
0.682500 0.823844 0.115000
0.748750 0.823658 0.115000
0.815000 0.823471 0.115000
0.881250 0.823284 0.115000
0.947500 0.823097 0.115000
1.000000 0.822910 0.115000
1.000000 0.822723 0.115000
0.020000 0.888471 0.115000
0.086250 0.888284 0.115000
0.152500 0.888097 0.115000
0.218750 0.887911 0.115000
0.285000 0.887724 0.115000
0.351250 0.887537 0.115000
0.417500 0.887350 0.115000
0.483750 0.887163 0.115000
0.550000 0.886976 0.115000
0.616250 0.886789 0.115000
0.682500 0.886603 0.115000
0.748750 0.886416 0.115000
0.815000 0.886229 0.115000
0.881250 0.886042 0.115000
0.947500 0.885855 0.115000
1.000000 0.885668 0.115000
1.000000 0.885481 0.115000
0.020000 0.951229 0.115000
0.086250 0.951043 0.115000
0.152500 0.950856 0.115000
0.218750 0.950669 0.115000
0.285000 0.950482 0.115000
0.351250 0.950295 0.115000
0.417500 0.950108 0.115000
0.483750 0.949921 0.115000
0.550000 0.949734 0.115000
0.616250 0.949547 0.115000
0.682500 0.949361 0.115000
0.748750 0.949174 0.115000
0.815000 0.948987 0.115000
0.881250 0.948800 0.115000
0.947500 0.948613 0.115000
1.000000 0.948426 0.115000
1.000000 0.948239 0.115000
0.020000 1.000000 0.115000
0.086250 1.000000 0.115000
0.152500 1.000000 0.115000
0.218750 1.000000 0.115000
0.285000 1.000000 0.115000
0.351250 1.000000 0.115000
0.417500 1.000000 0.115000
0.483750 1.000000 0.115000
0.550000 1.000000 0.115000
0.616250 1.000000 0.115000
0.682500 1.000000 0.115000
0.748750 1.000000 0.115000
0.815000 1.000000 0.115000
0.881250 1.000000 0.115000
0.947500 1.000000 0.115000
1.000000 1.000000 0.115000
1.000000 1.000000 0.115000
0.020000 0.009786 0.172500
0.086250 0.009599 0.172500
0.152500 0.009413 0.172500
0.218750 0.009226 0.172500
0.285000 0.009039 0.172500
0.351250 0.008852 0.172500
0.417500 0.008665 0.172500
0.483750 0.008478 0.172500
0.550000 0.008291 0.172500
0.616250 0.008104 0.172500
0.682500 0.007917 0.172500
0.748750 0.007731 0.172500
0.815000 0.007544 0.172500
0.881250 0.007357 0.172500
0.947500 0.007170 0.172500
1.000000 0.006983 0.172500
1.000000 0.006796 0.172500
0.020000 0.072544 0.172500
